MODULE fdm_print
    VAR speeddata s_printSpeed:=v5;
    VAR speeddata s_travelSpeed:=v300;

    PROC Extrude10Sec ()
        SetDO DO_10, 1;
        SetDO\SDelay:=10, DO_10, 0;
    ENDPROC

    PROC main()
        IF RobOS() = FALSE THEN
            s_travelSpeed := vmax; ! run at max speed in robotstudio
            s_printSpeed := vmax;
        ENDIF
        print;
    ENDPROC

    PROC print()
        MoveAbsJ [[0.0,0.0,0.0,0.0,0.0,0.0], [9E9,9E9,9E9,9E9,9E9,9E9]], s_travelSpeed, fine, tool0;
        SetDO DO_1, 1; ! heater on
        TPWrite "Press play when extruder is at right temperature";
        Stop;
        MoveJ [[322.5, 63.0, -578.5],[0.0000, 0.7071, 0.7071, 0.0000],[0,0,0,0],[9E9,9E9,9E9,9E9,9E9,9E9]], s_travelSpeed, fine, tool0, \WObj:=ob_RRC_workplace;
        SetDO DO_10, 1; ! stepper off
        MoveL [[322.5, 63.0, -578.5],[0.0000, 0.7071, 0.7071, 0.0000],[0,0,0,0],[9E9,9E9,9E9,9E9,9E9,9E9]], s_printSpeed, fine, tool0, \WObj:=ob_RRC_workplace;
        MoveL [[334.2, 62.6, -580.9],[0.0000, 0.7071, 0.7071, 0.0000],[0,0,0,0],[9E9,9E9,9E9,9E9,9E9,9E9]], s_printSpeed, fine, tool0, \WObj:=ob_RRC_workplace;
        MoveL [[346.2, 62.4, -582.3],[0.0000, 0.7071, 0.7071, 0.0000],[0,0,0,0],[9E9,9E9,9E9,9E9,9E9,9E9]], s_printSpeed, fine, tool0, \WObj:=ob_RRC_workplace;
        MoveL [[358.2, 62.3, -582.3],[0.0000, 0.7071, 0.7071, 0.0000],[0,0,0,0],[9E9,9E9,9E9,9E9,9E9,9E9]], s_printSpeed, fine, tool0, \WObj:=ob_RRC_workplace;
        MoveL [[369.9, 62.8, -580.0],[0.0000, 0.7071, 0.7071, 0.0000],[0,0,0,0],[9E9,9E9,9E9,9E9,9E9,9E9]], s_printSpeed, fine, tool0, \WObj:=ob_RRC_workplace;
        MoveL [[379.4, 64.0, -572.7],[0.0000, 0.7071, 0.7071, 0.0000],[0,0,0,0],[9E9,9E9,9E9,9E9,9E9,9E9]], s_printSpeed, fine, tool0, \WObj:=ob_RRC_workplace;
        MoveL [[382.4, 66.0, -561.3],[0.0000, 0.7071, 0.7071, 0.0000],[0,0,0,0],[9E9,9E9,9E9,9E9,9E9,9E9]], s_printSpeed, fine, tool0, \WObj:=ob_RRC_workplace;
        MoveL [[382.2, 68.1, -549.5],[0.0000, 0.7071, 0.7071, 0.0000],[0,0,0,0],[9E9,9E9,9E9,9E9,9E9,9E9]], s_printSpeed, fine, tool0, \WObj:=ob_RRC_workplace;
        MoveL [[381.3, 70.2, -537.7],[0.0000, 0.7071, 0.7071, 0.0000],[0,0,0,0],[9E9,9E9,9E9,9E9,9E9,9E9]], s_printSpeed, fine, tool0, \WObj:=ob_RRC_workplace;
        MoveL [[381.4, 72.3, -525.9],[0.0000, 0.7071, 0.7071, 0.0000],[0,0,0,0],[9E9,9E9,9E9,9E9,9E9,9E9]], s_printSpeed, fine, tool0, \WObj:=ob_RRC_workplace;
        MoveL [[386.9, 74.1, -515.4],[0.0000, 0.7071, 0.7071, 0.0000],[0,0,0,0],[9E9,9E9,9E9,9E9,9E9,9E9]], s_printSpeed, fine, tool0, \WObj:=ob_RRC_workplace;
        MoveL [[398.6, 74.6, -512.8],[0.0000, 0.7071, 0.7071, 0.0000],[0,0,0,0],[9E9,9E9,9E9,9E9,9E9,9E9]], s_printSpeed, fine, tool0, \WObj:=ob_RRC_workplace;
        MoveL [[410.6, 74.5, -513.3],[0.0000, 0.7071, 0.7071, 0.0000],[0,0,0,0],[9E9,9E9,9E9,9E9,9E9,9E9]], s_printSpeed, fine, tool0, \WObj:=ob_RRC_workplace;
        MoveL [[422.6, 74.3, -514.3],[0.0000, 0.7071, 0.7071, 0.0000],[0,0,0,0],[9E9,9E9,9E9,9E9,9E9,9E9]], s_printSpeed, fine, tool0, \WObj:=ob_RRC_workplace;
        MoveL [[434.6, 74.4, -513.9],[0.0000, 0.7071, 0.7071, 0.0000],[0,0,0,0],[9E9,9E9,9E9,9E9,9E9,9E9]], s_printSpeed, fine, tool0, \WObj:=ob_RRC_workplace;
        MoveL [[444.7, 75.5, -507.5],[0.0000, 0.7071, 0.7071, 0.0000],[0,0,0,0],[9E9,9E9,9E9,9E9,9E9,9E9]], s_printSpeed, fine, tool0, \WObj:=ob_RRC_workplace;
        MoveL [[446.8, 77.6, -495.9],[0.0000, 0.7071, 0.7071, 0.0000],[0,0,0,0],[9E9,9E9,9E9,9E9,9E9,9E9]], s_printSpeed, fine, tool0, \WObj:=ob_RRC_workplace;
        MoveL [[446.1, 79.7, -484.1],[0.0000, 0.7071, 0.7071, 0.0000],[0,0,0,0],[9E9,9E9,9E9,9E9,9E9,9E9]], s_printSpeed, fine, tool0, \WObj:=ob_RRC_workplace;
        MoveL [[445.2, 81.7, -472.3],[0.0000, 0.7071, 0.7071, 0.0000],[0,0,0,0],[9E9,9E9,9E9,9E9,9E9,9E9]], s_printSpeed, fine, tool0, \WObj:=ob_RRC_workplace;
        MoveL [[445.7, 83.8, -460.5],[0.0000, 0.7071, 0.7071, 0.0000],[0,0,0,0],[9E9,9E9,9E9,9E9,9E9,9E9]], s_printSpeed, fine, tool0, \WObj:=ob_RRC_workplace;
        MoveL [[453.3, 85.4, -451.4],[0.0000, 0.7071, 0.7071, 0.0000],[0,0,0,0],[9E9,9E9,9E9,9E9,9E9,9E9]], s_printSpeed, fine, tool0, \WObj:=ob_RRC_workplace;
        MoveL [[465.2, 85.7, -450.0],[0.0000, 0.7071, 0.7071, 0.0000],[0,0,0,0],[9E9,9E9,9E9,9E9,9E9,9E9]], s_printSpeed, fine, tool0, \WObj:=ob_RRC_workplace;
        MoveL [[477.2, 85.5, -450.9],[0.0000, 0.7071, 0.7071, 0.0000],[0,0,0,0],[9E9,9E9,9E9,9E9,9E9,9E9]], s_printSpeed, fine, tool0, \WObj:=ob_RRC_workplace;
        MoveL [[489.2, 85.4, -451.7],[0.0000, 0.7071, 0.7071, 0.0000],[0,0,0,0],[9E9,9E9,9E9,9E9,9E9,9E9]], s_printSpeed, fine, tool0, \WObj:=ob_RRC_workplace;
        MoveL [[501.1, 85.6, -450.6],[0.0000, 0.7071, 0.7071, 0.0000],[0,0,0,0],[9E9,9E9,9E9,9E9,9E9,9E9]], s_printSpeed, fine, tool0, \WObj:=ob_RRC_workplace;
        MoveL [[509.3, 87.1, -442.0],[0.0000, 0.7071, 0.7071, 0.0000],[0,0,0,0],[9E9,9E9,9E9,9E9,9E9,9E9]], s_printSpeed, fine, tool0, \WObj:=ob_RRC_workplace;
        MoveL [[510.4, 89.2, -430.2],[0.0000, 0.7071, 0.7071, 0.0000],[0,0,0,0],[9E9,9E9,9E9,9E9,9E9,9E9]], s_printSpeed, fine, tool0, \WObj:=ob_RRC_workplace;
        MoveL [[509.5, 91.2, -418.4],[0.0000, 0.7071, 0.7071, 0.0000],[0,0,0,0],[9E9,9E9,9E9,9E9,9E9,9E9]], s_printSpeed, fine, tool0, \WObj:=ob_RRC_workplace;
        MoveL [[508.8, 93.3, -406.7],[0.0000, 0.7071, 0.7071, 0.0000],[0,0,0,0],[9E9,9E9,9E9,9E9,9E9,9E9]], s_printSpeed, fine, tool0, \WObj:=ob_RRC_workplace;
        MoveL [[510.2, 95.4, -394.9],[0.0000, 0.7071, 0.7071, 0.0000],[0,0,0,0],[9E9,9E9,9E9,9E9,9E9,9E9]], s_printSpeed, fine, tool0, \WObj:=ob_RRC_workplace;
        MoveL [[520.1, 96.6, -388.2],[0.0000, 0.7071, 0.7071, 0.0000],[0,0,0,0],[9E9,9E9,9E9,9E9,9E9,9E9]], s_printSpeed, fine, tool0, \WObj:=ob_RRC_workplace;
        MoveL [[532.1, 96.6, -388.3],[0.0000, 0.7071, 0.7071, 0.0000],[0,0,0,0],[9E9,9E9,9E9,9E9,9E9,9E9]], s_printSpeed, fine, tool0, \WObj:=ob_RRC_workplace;
        MoveL [[544.1, 96.3, -389.5],[0.0000, 0.7071, 0.7071, 0.0000],[0,0,0,0],[9E9,9E9,9E9,9E9,9E9,9E9]], s_printSpeed, fine, tool0, \WObj:=ob_RRC_workplace;
        MoveL [[556.1, 96.3, -389.8],[0.0000, 0.7071, 0.7071, 0.0000],[0,0,0,0],[9E9,9E9,9E9,9E9,9E9,9E9]], s_printSpeed, fine, tool0, \WObj:=ob_RRC_workplace;
        MoveL [[567.6, 96.8, -386.8],[0.0000, 0.7071, 0.7071, 0.0000],[0,0,0,0],[9E9,9E9,9E9,9E9,9E9,9E9]], s_printSpeed, fine, tool0, \WObj:=ob_RRC_workplace;
        MoveL [[574.9, 98.5, -377.3],[0.0000, 0.7071, 0.7071, 0.0000],[0,0,0,0],[9E9,9E9,9E9,9E9,9E9,9E9]], s_printSpeed, fine, tool0, \WObj:=ob_RRC_workplace;
        MoveL [[577.8, 100.5, -365.9],[0.0000, 0.7071, 0.7071, 0.0000],[0,0,0,0],[9E9,9E9,9E9,9E9,9E9,9E9]], s_printSpeed, fine, tool0, \WObj:=ob_RRC_workplace;
        MoveL [[579.1, 102.6, -354.1],[0.0000, 0.7071, 0.7071, 0.0000],[0,0,0,0],[9E9,9E9,9E9,9E9,9E9,9E9]], s_printSpeed, fine, tool0, \WObj:=ob_RRC_workplace;
        MoveL [[580.0, 104.7, -342.3],[0.0000, 0.7071, 0.7071, 0.0000],[0,0,0,0],[9E9,9E9,9E9,9E9,9E9,9E9]], s_printSpeed, fine, tool0, \WObj:=ob_RRC_workplace;
        MoveL [[583.2, 106.7, -330.9],[0.0000, 0.7071, 0.7071, 0.0000],[0,0,0,0],[9E9,9E9,9E9,9E9,9E9,9E9]], s_printSpeed, fine, tool0, \WObj:=ob_RRC_workplace;
        MoveL [[594.9, 106.2, -333.7],[0.0000, 0.7071, 0.7071, 0.0000],[0,0,0,0],[9E9,9E9,9E9,9E9,9E9,9E9]], s_printSpeed, fine, tool0, \WObj:=ob_RRC_workplace;
        MoveL [[604.6, 105.0, -340.6],[0.0000, 0.7071, 0.7071, 0.0000],[0,0,0,0],[9E9,9E9,9E9,9E9,9E9,9E9]], s_printSpeed, fine, tool0, \WObj:=ob_RRC_workplace;
        MoveL [[614.5, 103.8, -347.2],[0.0000, 0.7071, 0.7071, 0.0000],[0,0,0,0],[9E9,9E9,9E9,9E9,9E9,9E9]], s_printSpeed, fine, tool0, \WObj:=ob_RRC_workplace;
        MoveL [[625.3, 102.9, -352.4],[0.0000, 0.7071, 0.7071, 0.0000],[0,0,0,0],[9E9,9E9,9E9,9E9,9E9,9E9]], s_printSpeed, fine, tool0, \WObj:=ob_RRC_workplace;
        MoveL [[637.2, 102.6, -354.1],[0.0000, 0.7071, 0.7071, 0.0000],[0,0,0,0],[9E9,9E9,9E9,9E9,9E9,9E9]], s_printSpeed, fine, tool0, \WObj:=ob_RRC_workplace;
        MoveL [[648.8, 103.1, -351.0],[0.0000, 0.7071, 0.7071, 0.0000],[0,0,0,0],[9E9,9E9,9E9,9E9,9E9,9E9]], s_printSpeed, fine, tool0, \WObj:=ob_RRC_workplace;
        MoveL [[659.2, 104.2, -345.2],[0.0000, 0.7071, 0.7071, 0.0000],[0,0,0,0],[9E9,9E9,9E9,9E9,9E9,9E9]], s_printSpeed, fine, tool0, \WObj:=ob_RRC_workplace;
        MoveL [[669.0, 105.4, -338.3],[0.0000, 0.7071, 0.7071, 0.0000],[0,0,0,0],[9E9,9E9,9E9,9E9,9E9,9E9]], s_printSpeed, fine, tool0, \WObj:=ob_RRC_workplace;
        MoveL [[678.9, 106.5, -331.6],[0.0000, 0.7071, 0.7071, 0.0000],[0,0,0,0],[9E9,9E9,9E9,9E9,9E9,9E9]], s_printSpeed, fine, tool0, \WObj:=ob_RRC_workplace;
        MoveL [[689.6, 105.6, -336.9],[0.0000, 0.7071, 0.7071, 0.0000],[0,0,0,0],[9E9,9E9,9E9,9E9,9E9,9E9]], s_printSpeed, fine, tool0, \WObj:=ob_RRC_workplace;
        MoveL [[690.9, 103.5, -348.7],[0.0000, 0.7071, 0.7071, 0.0000],[0,0,0,0],[9E9,9E9,9E9,9E9,9E9,9E9]], s_printSpeed, fine, tool0, \WObj:=ob_RRC_workplace;
        MoveL [[691.9, 101.5, -360.4],[0.0000, 0.7071, 0.7071, 0.0000],[0,0,0,0],[9E9,9E9,9E9,9E9,9E9,9E9]], s_printSpeed, fine, tool0, \WObj:=ob_RRC_workplace;
        MoveL [[693.8, 99.4, -372.1],[0.0000, 0.7071, 0.7071, 0.0000],[0,0,0,0],[9E9,9E9,9E9,9E9,9E9,9E9]], s_printSpeed, fine, tool0, \WObj:=ob_RRC_workplace;
        MoveL [[698.6, 97.5, -383.0],[0.0000, 0.7071, 0.7071, 0.0000],[0,0,0,0],[9E9,9E9,9E9,9E9,9E9,9E9]], s_printSpeed, fine, tool0, \WObj:=ob_RRC_workplace;
        MoveL [[708.8, 96.4, -389.1],[0.0000, 0.7071, 0.7071, 0.0000],[0,0,0,0],[9E9,9E9,9E9,9E9,9E9,9E9]], s_printSpeed, fine, tool0, \WObj:=ob_RRC_workplace;
        MoveL [[720.8, 96.3, -389.9],[0.0000, 0.7071, 0.7071, 0.0000],[0,0,0,0],[9E9,9E9,9E9,9E9,9E9,9E9]], s_printSpeed, fine, tool0, \WObj:=ob_RRC_workplace;
        MoveL [[732.8, 96.5, -388.8],[0.0000, 0.7071, 0.7071, 0.0000],[0,0,0,0],[9E9,9E9,9E9,9E9,9E9,9E9]], s_printSpeed, fine, tool0, \WObj:=ob_RRC_workplace;
        MoveL [[744.7, 96.6, -387.9],[0.0000, 0.7071, 0.7071, 0.0000],[0,0,0,0],[9E9,9E9,9E9,9E9,9E9,9E9]], s_printSpeed, fine, tool0, \WObj:=ob_RRC_workplace;
        MoveL [[756.5, 96.2, -390.3],[0.0000, 0.7071, 0.7071, 0.0000],[0,0,0,0],[9E9,9E9,9E9,9E9,9E9,9E9]], s_printSpeed, fine, tool0, \WObj:=ob_RRC_workplace;
        MoveL [[761.5, 94.3, -401.0],[0.0000, 0.7071, 0.7071, 0.0000],[0,0,0,0],[9E9,9E9,9E9,9E9,9E9,9E9]], s_printSpeed, fine, tool0, \WObj:=ob_RRC_workplace;
        MoveL [[761.3, 92.2, -412.9],[0.0000, 0.7071, 0.7071, 0.0000],[0,0,0,0],[9E9,9E9,9E9,9E9,9E9,9E9]], s_printSpeed, fine, tool0, \WObj:=ob_RRC_workplace;
        MoveL [[760.3, 90.1, -424.6],[0.0000, 0.7071, 0.7071, 0.0000],[0,0,0,0],[9E9,9E9,9E9,9E9,9E9,9E9]], s_printSpeed, fine, tool0, \WObj:=ob_RRC_workplace;
        MoveL [[760.1, 88.1, -436.4],[0.0000, 0.7071, 0.7071, 0.0000],[0,0,0,0],[9E9,9E9,9E9,9E9,9E9,9E9]], s_printSpeed, fine, tool0, \WObj:=ob_RRC_workplace;
        MoveL [[764.1, 86.1, -447.6],[0.0000, 0.7071, 0.7071, 0.0000],[0,0,0,0],[9E9,9E9,9E9,9E9,9E9,9E9]], s_printSpeed, fine, tool0, \WObj:=ob_RRC_workplace;
        MoveL [[775.3, 85.4, -451.7],[0.0000, 0.7071, 0.7071, 0.0000],[0,0,0,0],[9E9,9E9,9E9,9E9,9E9,9E9]], s_printSpeed, fine, tool0, \WObj:=ob_RRC_workplace;
        MoveL [[787.3, 85.4, -451.4],[0.0000, 0.7071, 0.7071, 0.0000],[0,0,0,0],[9E9,9E9,9E9,9E9,9E9,9E9]], s_printSpeed, fine, tool0, \WObj:=ob_RRC_workplace;
        MoveL [[799.3, 85.6, -450.3],[0.0000, 0.7071, 0.7071, 0.0000],[0,0,0,0],[9E9,9E9,9E9,9E9,9E9,9E9]], s_printSpeed, fine, tool0, \WObj:=ob_RRC_workplace;
        MoveL [[811.3, 85.6, -450.2],[0.0000, 0.7071, 0.7071, 0.0000],[0,0,0,0],[9E9,9E9,9E9,9E9,9E9,9E9]], s_printSpeed, fine, tool0, \WObj:=ob_RRC_workplace;
        MoveL [[822.3, 84.8, -454.9],[0.0000, 0.7071, 0.7071, 0.0000],[0,0,0,0],[9E9,9E9,9E9,9E9,9E9,9E9]], s_printSpeed, fine, tool0, \WObj:=ob_RRC_workplace;
        MoveL [[825.3, 82.8, -466.4],[0.0000, 0.7071, 0.7071, 0.0000],[0,0,0,0],[9E9,9E9,9E9,9E9,9E9,9E9]], s_printSpeed, fine, tool0, \WObj:=ob_RRC_workplace;
        MoveL [[824.8, 80.7, -478.2],[0.0000, 0.7071, 0.7071, 0.0000],[0,0,0,0],[9E9,9E9,9E9,9E9,9E9,9E9]], s_printSpeed, fine, tool0, \WObj:=ob_RRC_workplace;
        MoveL [[823.8, 78.6, -490.0],[0.0000, 0.7071, 0.7071, 0.0000],[0,0,0,0],[9E9,9E9,9E9,9E9,9E9,9E9]], s_printSpeed, fine, tool0, \WObj:=ob_RRC_workplace;
        MoveL [[824.0, 76.5, -501.8],[0.0000, 0.7071, 0.7071, 0.0000],[0,0,0,0],[9E9,9E9,9E9,9E9,9E9,9E9]], s_printSpeed, fine, tool0, \WObj:=ob_RRC_workplace;
        MoveL [[830.0, 74.7, -512.0],[0.0000, 0.7071, 0.7071, 0.0000],[0,0,0,0],[9E9,9E9,9E9,9E9,9E9,9E9]], s_printSpeed, fine, tool0, \WObj:=ob_RRC_workplace;
        MoveL [[841.8, 74.3, -514.4],[0.0000, 0.7071, 0.7071, 0.0000],[0,0,0,0],[9E9,9E9,9E9,9E9,9E9,9E9]], s_printSpeed, fine, tool0, \WObj:=ob_RRC_workplace;
        MoveL [[853.8, 74.4, -513.8],[0.0000, 0.7071, 0.7071, 0.0000],[0,0,0,0],[9E9,9E9,9E9,9E9,9E9,9E9]], s_printSpeed, fine, tool0, \WObj:=ob_RRC_workplace;
        MoveL [[865.7, 74.6, -512.9],[0.0000, 0.7071, 0.7071, 0.0000],[0,0,0,0],[9E9,9E9,9E9,9E9,9E9,9E9]], s_printSpeed, fine, tool0, \WObj:=ob_RRC_workplace;
        MoveL [[877.7, 74.5, -513.3],[0.0000, 0.7071, 0.7071, 0.0000],[0,0,0,0],[9E9,9E9,9E9,9E9,9E9,9E9]], s_printSpeed, fine, tool0, \WObj:=ob_RRC_workplace;
        MoveL [[887.5, 73.3, -520.2],[0.0000, 0.7071, 0.7071, 0.0000],[0,0,0,0],[9E9,9E9,9E9,9E9,9E9,9E9]], s_printSpeed, fine, tool0, \WObj:=ob_RRC_workplace;
        MoveL [[889.3, 71.2, -531.8],[0.0000, 0.7071, 0.7071, 0.0000],[0,0,0,0],[9E9,9E9,9E9,9E9,9E9,9E9]], s_printSpeed, fine, tool0, \WObj:=ob_RRC_workplace;
        MoveL [[888.7, 69.2, -543.6],[0.0000, 0.7071, 0.7071, 0.0000],[0,0,0,0],[9E9,9E9,9E9,9E9,9E9,9E9]], s_printSpeed, fine, tool0, \WObj:=ob_RRC_workplace;
        MoveL [[887.9, 67.1, -555.4],[0.0000, 0.7071, 0.7071, 0.0000],[0,0,0,0],[9E9,9E9,9E9,9E9,9E9,9E9]], s_printSpeed, fine, tool0, \WObj:=ob_RRC_workplace;
        MoveL [[888.8, 65.0, -567.2],[0.0000, 0.7071, 0.7071, 0.0000],[0,0,0,0],[9E9,9E9,9E9,9E9,9E9,9E9]], s_printSpeed, fine, tool0, \WObj:=ob_RRC_workplace;
        MoveL [[895.2, 63.2, -577.2],[0.0000, 0.7071, 0.7071, 0.0000],[0,0,0,0],[9E9,9E9,9E9,9E9,9E9,9E9]], s_printSpeed, fine, tool0, \WObj:=ob_RRC_workplace;
        MoveL [[906.4, 62.5, -581.6],[0.0000, 0.7071, 0.7071, 0.0000],[0,0,0,0],[9E9,9E9,9E9,9E9,9E9,9E9]], s_printSpeed, fine, tool0, \WObj:=ob_RRC_workplace;
        MoveL [[918.3, 62.3, -582.5],[0.0000, 0.7071, 0.7071, 0.0000],[0,0,0,0],[9E9,9E9,9E9,9E9,9E9,9E9]], s_printSpeed, fine, tool0, \WObj:=ob_RRC_workplace;
        MoveL [[930.3, 62.5, -581.7],[0.0000, 0.7071, 0.7071, 0.0000],[0,0,0,0],[9E9,9E9,9E9,9E9,9E9,9E9]], s_printSpeed, fine, tool0, \WObj:=ob_RRC_workplace;
        MoveL [[942.1, 62.8, -579.8],[0.0000, 0.7071, 0.7071, 0.0000],[0,0,0,0],[9E9,9E9,9E9,9E9,9E9,9E9]], s_printSpeed, fine, tool0, \WObj:=ob_RRC_workplace;
    ! layer end
        MoveL [[322.5, 63.3, -578.6],[0.0000, 0.7071, 0.7071, 0.0000],[0,0,0,0],[9E9,9E9,9E9,9E9,9E9,9E9]], s_printSpeed, fine, tool0, \WObj:=ob_RRC_workplace;
        MoveL [[334.2, 62.9, -580.9],[0.0000, 0.7071, 0.7071, 0.0000],[0,0,0,0],[9E9,9E9,9E9,9E9,9E9,9E9]], s_printSpeed, fine, tool0, \WObj:=ob_RRC_workplace;
        MoveL [[346.2, 62.7, -582.3],[0.0000, 0.7071, 0.7071, 0.0000],[0,0,0,0],[9E9,9E9,9E9,9E9,9E9,9E9]], s_printSpeed, fine, tool0, \WObj:=ob_RRC_workplace;
        MoveL [[358.2, 62.6, -582.3],[0.0000, 0.7071, 0.7071, 0.0000],[0,0,0,0],[9E9,9E9,9E9,9E9,9E9,9E9]], s_printSpeed, fine, tool0, \WObj:=ob_RRC_workplace;
        MoveL [[369.9, 63.1, -580.0],[0.0000, 0.7071, 0.7071, 0.0000],[0,0,0,0],[9E9,9E9,9E9,9E9,9E9,9E9]], s_printSpeed, fine, tool0, \WObj:=ob_RRC_workplace;
        MoveL [[379.4, 64.4, -572.8],[0.0000, 0.7071, 0.7071, 0.0000],[0,0,0,0],[9E9,9E9,9E9,9E9,9E9,9E9]], s_printSpeed, fine, tool0, \WObj:=ob_RRC_workplace;
        MoveL [[382.4, 66.5, -561.3],[0.0000, 0.7071, 0.7071, 0.0000],[0,0,0,0],[9E9,9E9,9E9,9E9,9E9,9E9]], s_printSpeed, fine, tool0, \WObj:=ob_RRC_workplace;
        MoveL [[382.2, 68.7, -549.5],[0.0000, 0.7071, 0.7071, 0.0000],[0,0,0,0],[9E9,9E9,9E9,9E9,9E9,9E9]], s_printSpeed, fine, tool0, \WObj:=ob_RRC_workplace;
        MoveL [[381.3, 70.9, -537.8],[0.0000, 0.7071, 0.7071, 0.0000],[0,0,0,0],[9E9,9E9,9E9,9E9,9E9,9E9]], s_printSpeed, fine, tool0, \WObj:=ob_RRC_workplace;
        MoveL [[381.4, 73.1, -526.0],[0.0000, 0.7071, 0.7071, 0.0000],[0,0,0,0],[9E9,9E9,9E9,9E9,9E9,9E9]], s_printSpeed, fine, tool0, \WObj:=ob_RRC_workplace;
        MoveL [[386.9, 75.0, -515.5],[0.0000, 0.7071, 0.7071, 0.0000],[0,0,0,0],[9E9,9E9,9E9,9E9,9E9,9E9]], s_printSpeed, fine, tool0, \WObj:=ob_RRC_workplace;
        MoveL [[398.6, 75.5, -512.9],[0.0000, 0.7071, 0.7071, 0.0000],[0,0,0,0],[9E9,9E9,9E9,9E9,9E9,9E9]], s_printSpeed, fine, tool0, \WObj:=ob_RRC_workplace;
        MoveL [[410.6, 75.4, -513.4],[0.0000, 0.7071, 0.7071, 0.0000],[0,0,0,0],[9E9,9E9,9E9,9E9,9E9,9E9]], s_printSpeed, fine, tool0, \WObj:=ob_RRC_workplace;
        MoveL [[422.6, 75.2, -514.4],[0.0000, 0.7071, 0.7071, 0.0000],[0,0,0,0],[9E9,9E9,9E9,9E9,9E9,9E9]], s_printSpeed, fine, tool0, \WObj:=ob_RRC_workplace;
        MoveL [[434.6, 75.3, -514.0],[0.0000, 0.7071, 0.7071, 0.0000],[0,0,0,0],[9E9,9E9,9E9,9E9,9E9,9E9]], s_printSpeed, fine, tool0, \WObj:=ob_RRC_workplace;
        MoveL [[444.7, 76.5, -507.7],[0.0000, 0.7071, 0.7071, 0.0000],[0,0,0,0],[9E9,9E9,9E9,9E9,9E9,9E9]], s_printSpeed, fine, tool0, \WObj:=ob_RRC_workplace;
        MoveL [[446.8, 78.6, -496.0],[0.0000, 0.7071, 0.7071, 0.0000],[0,0,0,0],[9E9,9E9,9E9,9E9,9E9,9E9]], s_printSpeed, fine, tool0, \WObj:=ob_RRC_workplace;
        MoveL [[446.1, 80.8, -484.3],[0.0000, 0.7071, 0.7071, 0.0000],[0,0,0,0],[9E9,9E9,9E9,9E9,9E9,9E9]], s_printSpeed, fine, tool0, \WObj:=ob_RRC_workplace;
        MoveL [[445.2, 83.0, -472.5],[0.0000, 0.7071, 0.7071, 0.0000],[0,0,0,0],[9E9,9E9,9E9,9E9,9E9,9E9]], s_printSpeed, fine, tool0, \WObj:=ob_RRC_workplace;
        MoveL [[445.7, 85.2, -460.7],[0.0000, 0.7071, 0.7071, 0.0000],[0,0,0,0],[9E9,9E9,9E9,9E9,9E9,9E9]], s_printSpeed, fine, tool0, \WObj:=ob_RRC_workplace;
        MoveL [[453.3, 86.9, -451.6],[0.0000, 0.7071, 0.7071, 0.0000],[0,0,0,0],[9E9,9E9,9E9,9E9,9E9,9E9]], s_printSpeed, fine, tool0, \WObj:=ob_RRC_workplace;
        MoveL [[465.2, 87.1, -450.2],[0.0000, 0.7071, 0.7071, 0.0000],[0,0,0,0],[9E9,9E9,9E9,9E9,9E9,9E9]], s_printSpeed, fine, tool0, \WObj:=ob_RRC_workplace;
        MoveL [[477.2, 87.0, -451.1],[0.0000, 0.7071, 0.7071, 0.0000],[0,0,0,0],[9E9,9E9,9E9,9E9,9E9,9E9]], s_printSpeed, fine, tool0, \WObj:=ob_RRC_workplace;
        MoveL [[489.2, 86.8, -452.0],[0.0000, 0.7071, 0.7071, 0.0000],[0,0,0,0],[9E9,9E9,9E9,9E9,9E9,9E9]], s_printSpeed, fine, tool0, \WObj:=ob_RRC_workplace;
        MoveL [[501.1, 87.0, -450.8],[0.0000, 0.7071, 0.7071, 0.0000],[0,0,0,0],[9E9,9E9,9E9,9E9,9E9,9E9]], s_printSpeed, fine, tool0, \WObj:=ob_RRC_workplace;
        MoveL [[509.3, 88.6, -442.2],[0.0000, 0.7071, 0.7071, 0.0000],[0,0,0,0],[9E9,9E9,9E9,9E9,9E9,9E9]], s_printSpeed, fine, tool0, \WObj:=ob_RRC_workplace;
        MoveL [[510.4, 90.8, -430.5],[0.0000, 0.7071, 0.7071, 0.0000],[0,0,0,0],[9E9,9E9,9E9,9E9,9E9,9E9]], s_printSpeed, fine, tool0, \WObj:=ob_RRC_workplace;
        MoveL [[509.5, 93.0, -418.7],[0.0000, 0.7071, 0.7071, 0.0000],[0,0,0,0],[9E9,9E9,9E9,9E9,9E9,9E9]], s_printSpeed, fine, tool0, \WObj:=ob_RRC_workplace;
        MoveL [[508.8, 95.2, -406.9],[0.0000, 0.7071, 0.7071, 0.0000],[0,0,0,0],[9E9,9E9,9E9,9E9,9E9,9E9]], s_printSpeed, fine, tool0, \WObj:=ob_RRC_workplace;
        MoveL [[510.2, 97.3, -395.2],[0.0000, 0.7071, 0.7071, 0.0000],[0,0,0,0],[9E9,9E9,9E9,9E9,9E9,9E9]], s_printSpeed, fine, tool0, \WObj:=ob_RRC_workplace;
        MoveL [[520.1, 98.6, -388.5],[0.0000, 0.7071, 0.7071, 0.0000],[0,0,0,0],[9E9,9E9,9E9,9E9,9E9,9E9]], s_printSpeed, fine, tool0, \WObj:=ob_RRC_workplace;
        MoveL [[532.1, 98.6, -388.6],[0.0000, 0.7071, 0.7071, 0.0000],[0,0,0,0],[9E9,9E9,9E9,9E9,9E9,9E9]], s_printSpeed, fine, tool0, \WObj:=ob_RRC_workplace;
        MoveL [[544.1, 98.3, -389.8],[0.0000, 0.7071, 0.7071, 0.0000],[0,0,0,0],[9E9,9E9,9E9,9E9,9E9,9E9]], s_printSpeed, fine, tool0, \WObj:=ob_RRC_workplace;
        MoveL [[556.1, 98.3, -390.1],[0.0000, 0.7071, 0.7071, 0.0000],[0,0,0,0],[9E9,9E9,9E9,9E9,9E9,9E9]], s_printSpeed, fine, tool0, \WObj:=ob_RRC_workplace;
        MoveL [[567.6, 98.8, -387.1],[0.0000, 0.7071, 0.7071, 0.0000],[0,0,0,0],[9E9,9E9,9E9,9E9,9E9,9E9]], s_printSpeed, fine, tool0, \WObj:=ob_RRC_workplace;
        MoveL [[574.9, 100.6, -377.7],[0.0000, 0.7071, 0.7071, 0.0000],[0,0,0,0],[9E9,9E9,9E9,9E9,9E9,9E9]], s_printSpeed, fine, tool0, \WObj:=ob_RRC_workplace;
        MoveL [[577.8, 102.7, -366.2],[0.0000, 0.7071, 0.7071, 0.0000],[0,0,0,0],[9E9,9E9,9E9,9E9,9E9,9E9]], s_printSpeed, fine, tool0, \WObj:=ob_RRC_workplace;
        MoveL [[579.1, 104.9, -354.5],[0.0000, 0.7071, 0.7071, 0.0000],[0,0,0,0],[9E9,9E9,9E9,9E9,9E9,9E9]], s_printSpeed, fine, tool0, \WObj:=ob_RRC_workplace;
        MoveL [[580.0, 107.1, -342.7],[0.0000, 0.7071, 0.7071, 0.0000],[0,0,0,0],[9E9,9E9,9E9,9E9,9E9,9E9]], s_printSpeed, fine, tool0, \WObj:=ob_RRC_workplace;
        MoveL [[583.2, 109.2, -331.3],[0.0000, 0.7071, 0.7071, 0.0000],[0,0,0,0],[9E9,9E9,9E9,9E9,9E9,9E9]], s_printSpeed, fine, tool0, \WObj:=ob_RRC_workplace;
        MoveL [[594.9, 108.7, -334.1],[0.0000, 0.7071, 0.7071, 0.0000],[0,0,0,0],[9E9,9E9,9E9,9E9,9E9,9E9]], s_printSpeed, fine, tool0, \WObj:=ob_RRC_workplace;
        MoveL [[604.6, 107.4, -341.0],[0.0000, 0.7071, 0.7071, 0.0000],[0,0,0,0],[9E9,9E9,9E9,9E9,9E9,9E9]], s_printSpeed, fine, tool0, \WObj:=ob_RRC_workplace;
        MoveL [[614.5, 106.2, -347.6],[0.0000, 0.7071, 0.7071, 0.0000],[0,0,0,0],[9E9,9E9,9E9,9E9,9E9,9E9]], s_printSpeed, fine, tool0, \WObj:=ob_RRC_workplace;
        MoveL [[625.3, 105.2, -352.8],[0.0000, 0.7071, 0.7071, 0.0000],[0,0,0,0],[9E9,9E9,9E9,9E9,9E9,9E9]], s_printSpeed, fine, tool0, \WObj:=ob_RRC_workplace;
        MoveL [[637.2, 104.9, -354.4],[0.0000, 0.7071, 0.7071, 0.0000],[0,0,0,0],[9E9,9E9,9E9,9E9,9E9,9E9]], s_printSpeed, fine, tool0, \WObj:=ob_RRC_workplace;
        MoveL [[648.8, 105.5, -351.3],[0.0000, 0.7071, 0.7071, 0.0000],[0,0,0,0],[9E9,9E9,9E9,9E9,9E9,9E9]], s_printSpeed, fine, tool0, \WObj:=ob_RRC_workplace;
        MoveL [[659.2, 106.5, -345.5],[0.0000, 0.7071, 0.7071, 0.0000],[0,0,0,0],[9E9,9E9,9E9,9E9,9E9,9E9]], s_printSpeed, fine, tool0, \WObj:=ob_RRC_workplace;
        MoveL [[669.0, 107.8, -338.7],[0.0000, 0.7071, 0.7071, 0.0000],[0,0,0,0],[9E9,9E9,9E9,9E9,9E9,9E9]], s_printSpeed, fine, tool0, \WObj:=ob_RRC_workplace;
        MoveL [[678.9, 109.1, -332.0],[0.0000, 0.7071, 0.7071, 0.0000],[0,0,0,0],[9E9,9E9,9E9,9E9,9E9,9E9]], s_printSpeed, fine, tool0, \WObj:=ob_RRC_workplace;
        MoveL [[689.6, 108.1, -337.3],[0.0000, 0.7071, 0.7071, 0.0000],[0,0,0,0],[9E9,9E9,9E9,9E9,9E9,9E9]], s_printSpeed, fine, tool0, \WObj:=ob_RRC_workplace;
        MoveL [[690.9, 105.9, -349.0],[0.0000, 0.7071, 0.7071, 0.0000],[0,0,0,0],[9E9,9E9,9E9,9E9,9E9,9E9]], s_printSpeed, fine, tool0, \WObj:=ob_RRC_workplace;
        MoveL [[691.9, 103.7, -360.8],[0.0000, 0.7071, 0.7071, 0.0000],[0,0,0,0],[9E9,9E9,9E9,9E9,9E9,9E9]], s_printSpeed, fine, tool0, \WObj:=ob_RRC_workplace;
        MoveL [[693.8, 101.6, -372.4],[0.0000, 0.7071, 0.7071, 0.0000],[0,0,0,0],[9E9,9E9,9E9,9E9,9E9,9E9]], s_printSpeed, fine, tool0, \WObj:=ob_RRC_workplace;
        MoveL [[698.6, 99.5, -383.3],[0.0000, 0.7071, 0.7071, 0.0000],[0,0,0,0],[9E9,9E9,9E9,9E9,9E9,9E9]], s_printSpeed, fine, tool0, \WObj:=ob_RRC_workplace;
        MoveL [[708.8, 98.4, -389.4],[0.0000, 0.7071, 0.7071, 0.0000],[0,0,0,0],[9E9,9E9,9E9,9E9,9E9,9E9]], s_printSpeed, fine, tool0, \WObj:=ob_RRC_workplace;
        MoveL [[720.8, 98.3, -390.2],[0.0000, 0.7071, 0.7071, 0.0000],[0,0,0,0],[9E9,9E9,9E9,9E9,9E9,9E9]], s_printSpeed, fine, tool0, \WObj:=ob_RRC_workplace;
        MoveL [[732.8, 98.5, -389.1],[0.0000, 0.7071, 0.7071, 0.0000],[0,0,0,0],[9E9,9E9,9E9,9E9,9E9,9E9]], s_printSpeed, fine, tool0, \WObj:=ob_RRC_workplace;
        MoveL [[744.7, 98.6, -388.2],[0.0000, 0.7071, 0.7071, 0.0000],[0,0,0,0],[9E9,9E9,9E9,9E9,9E9,9E9]], s_printSpeed, fine, tool0, \WObj:=ob_RRC_workplace;
        MoveL [[756.5, 98.2, -390.6],[0.0000, 0.7071, 0.7071, 0.0000],[0,0,0,0],[9E9,9E9,9E9,9E9,9E9,9E9]], s_printSpeed, fine, tool0, \WObj:=ob_RRC_workplace;
        MoveL [[761.5, 96.2, -401.3],[0.0000, 0.7071, 0.7071, 0.0000],[0,0,0,0],[9E9,9E9,9E9,9E9,9E9,9E9]], s_printSpeed, fine, tool0, \WObj:=ob_RRC_workplace;
        MoveL [[761.3, 94.0, -413.1],[0.0000, 0.7071, 0.7071, 0.0000],[0,0,0,0],[9E9,9E9,9E9,9E9,9E9,9E9]], s_printSpeed, fine, tool0, \WObj:=ob_RRC_workplace;
        MoveL [[760.3, 91.8, -424.9],[0.0000, 0.7071, 0.7071, 0.0000],[0,0,0,0],[9E9,9E9,9E9,9E9,9E9,9E9]], s_printSpeed, fine, tool0, \WObj:=ob_RRC_workplace;
        MoveL [[760.1, 89.6, -436.7],[0.0000, 0.7071, 0.7071, 0.0000],[0,0,0,0],[9E9,9E9,9E9,9E9,9E9,9E9]], s_printSpeed, fine, tool0, \WObj:=ob_RRC_workplace;
        MoveL [[764.1, 87.6, -447.8],[0.0000, 0.7071, 0.7071, 0.0000],[0,0,0,0],[9E9,9E9,9E9,9E9,9E9,9E9]], s_printSpeed, fine, tool0, \WObj:=ob_RRC_workplace;
        MoveL [[775.3, 86.8, -451.9],[0.0000, 0.7071, 0.7071, 0.0000],[0,0,0,0],[9E9,9E9,9E9,9E9,9E9,9E9]], s_printSpeed, fine, tool0, \WObj:=ob_RRC_workplace;
        MoveL [[787.3, 86.9, -451.6],[0.0000, 0.7071, 0.7071, 0.0000],[0,0,0,0],[9E9,9E9,9E9,9E9,9E9,9E9]], s_printSpeed, fine, tool0, \WObj:=ob_RRC_workplace;
        MoveL [[799.3, 87.1, -450.6],[0.0000, 0.7071, 0.7071, 0.0000],[0,0,0,0],[9E9,9E9,9E9,9E9,9E9,9E9]], s_printSpeed, fine, tool0, \WObj:=ob_RRC_workplace;
        MoveL [[811.3, 87.1, -450.4],[0.0000, 0.7071, 0.7071, 0.0000],[0,0,0,0],[9E9,9E9,9E9,9E9,9E9,9E9]], s_printSpeed, fine, tool0, \WObj:=ob_RRC_workplace;
        MoveL [[822.3, 86.2, -455.1],[0.0000, 0.7071, 0.7071, 0.0000],[0,0,0,0],[9E9,9E9,9E9,9E9,9E9,9E9]], s_printSpeed, fine, tool0, \WObj:=ob_RRC_workplace;
        MoveL [[825.3, 84.1, -466.6],[0.0000, 0.7071, 0.7071, 0.0000],[0,0,0,0],[9E9,9E9,9E9,9E9,9E9,9E9]], s_printSpeed, fine, tool0, \WObj:=ob_RRC_workplace;
        MoveL [[824.8, 81.9, -478.3],[0.0000, 0.7071, 0.7071, 0.0000],[0,0,0,0],[9E9,9E9,9E9,9E9,9E9,9E9]], s_printSpeed, fine, tool0, \WObj:=ob_RRC_workplace;
        MoveL [[823.8, 79.7, -490.1],[0.0000, 0.7071, 0.7071, 0.0000],[0,0,0,0],[9E9,9E9,9E9,9E9,9E9,9E9]], s_printSpeed, fine, tool0, \WObj:=ob_RRC_workplace;
        MoveL [[824.0, 77.6, -501.9],[0.0000, 0.7071, 0.7071, 0.0000],[0,0,0,0],[9E9,9E9,9E9,9E9,9E9,9E9]], s_printSpeed, fine, tool0, \WObj:=ob_RRC_workplace;
        MoveL [[830.0, 75.7, -512.1],[0.0000, 0.7071, 0.7071, 0.0000],[0,0,0,0],[9E9,9E9,9E9,9E9,9E9,9E9]], s_printSpeed, fine, tool0, \WObj:=ob_RRC_workplace;
        MoveL [[841.8, 75.2, -514.5],[0.0000, 0.7071, 0.7071, 0.0000],[0,0,0,0],[9E9,9E9,9E9,9E9,9E9,9E9]], s_printSpeed, fine, tool0, \WObj:=ob_RRC_workplace;
        MoveL [[853.8, 75.3, -514.0],[0.0000, 0.7071, 0.7071, 0.0000],[0,0,0,0],[9E9,9E9,9E9,9E9,9E9,9E9]], s_printSpeed, fine, tool0, \WObj:=ob_RRC_workplace;
        MoveL [[865.7, 75.5, -513.0],[0.0000, 0.7071, 0.7071, 0.0000],[0,0,0,0],[9E9,9E9,9E9,9E9,9E9,9E9]], s_printSpeed, fine, tool0, \WObj:=ob_RRC_workplace;
        MoveL [[877.7, 75.4, -513.5],[0.0000, 0.7071, 0.7071, 0.0000],[0,0,0,0],[9E9,9E9,9E9,9E9,9E9,9E9]], s_printSpeed, fine, tool0, \WObj:=ob_RRC_workplace;
        MoveL [[887.5, 74.1, -520.3],[0.0000, 0.7071, 0.7071, 0.0000],[0,0,0,0],[9E9,9E9,9E9,9E9,9E9,9E9]], s_printSpeed, fine, tool0, \WObj:=ob_RRC_workplace;
        MoveL [[889.3, 72.0, -531.9],[0.0000, 0.7071, 0.7071, 0.0000],[0,0,0,0],[9E9,9E9,9E9,9E9,9E9,9E9]], s_printSpeed, fine, tool0, \WObj:=ob_RRC_workplace;
        MoveL [[888.7, 69.8, -543.7],[0.0000, 0.7071, 0.7071, 0.0000],[0,0,0,0],[9E9,9E9,9E9,9E9,9E9,9E9]], s_printSpeed, fine, tool0, \WObj:=ob_RRC_workplace;
        MoveL [[887.9, 67.6, -555.5],[0.0000, 0.7071, 0.7071, 0.0000],[0,0,0,0],[9E9,9E9,9E9,9E9,9E9,9E9]], s_printSpeed, fine, tool0, \WObj:=ob_RRC_workplace;
        MoveL [[888.8, 65.4, -567.2],[0.0000, 0.7071, 0.7071, 0.0000],[0,0,0,0],[9E9,9E9,9E9,9E9,9E9,9E9]], s_printSpeed, fine, tool0, \WObj:=ob_RRC_workplace;
        MoveL [[895.2, 63.6, -577.2],[0.0000, 0.7071, 0.7071, 0.0000],[0,0,0,0],[9E9,9E9,9E9,9E9,9E9,9E9]], s_printSpeed, fine, tool0, \WObj:=ob_RRC_workplace;
        MoveL [[906.4, 62.8, -581.6],[0.0000, 0.7071, 0.7071, 0.0000],[0,0,0,0],[9E9,9E9,9E9,9E9,9E9,9E9]], s_printSpeed, fine, tool0, \WObj:=ob_RRC_workplace;
        MoveL [[918.3, 62.6, -582.5],[0.0000, 0.7071, 0.7071, 0.0000],[0,0,0,0],[9E9,9E9,9E9,9E9,9E9,9E9]], s_printSpeed, fine, tool0, \WObj:=ob_RRC_workplace;
        MoveL [[930.3, 62.8, -581.7],[0.0000, 0.7071, 0.7071, 0.0000],[0,0,0,0],[9E9,9E9,9E9,9E9,9E9,9E9]], s_printSpeed, fine, tool0, \WObj:=ob_RRC_workplace;
        MoveL [[942.1, 63.1, -579.8],[0.0000, 0.7071, 0.7071, 0.0000],[0,0,0,0],[9E9,9E9,9E9,9E9,9E9,9E9]], s_printSpeed, fine, tool0, \WObj:=ob_RRC_workplace;
    ! layer end
        MoveL [[322.5, 63.7, -578.6],[0.0000, 0.7071, 0.7071, 0.0000],[0,0,0,0],[9E9,9E9,9E9,9E9,9E9,9E9]], s_printSpeed, fine, tool0, \WObj:=ob_RRC_workplace;
        MoveL [[334.2, 63.2, -580.9],[0.0000, 0.7071, 0.7071, 0.0000],[0,0,0,0],[9E9,9E9,9E9,9E9,9E9,9E9]], s_printSpeed, fine, tool0, \WObj:=ob_RRC_workplace;
        MoveL [[346.2, 63.0, -582.3],[0.0000, 0.7071, 0.7071, 0.0000],[0,0,0,0],[9E9,9E9,9E9,9E9,9E9,9E9]], s_printSpeed, fine, tool0, \WObj:=ob_RRC_workplace;
        MoveL [[358.2, 62.9, -582.3],[0.0000, 0.7071, 0.7071, 0.0000],[0,0,0,0],[9E9,9E9,9E9,9E9,9E9,9E9]], s_printSpeed, fine, tool0, \WObj:=ob_RRC_workplace;
        MoveL [[369.9, 63.4, -580.0],[0.0000, 0.7071, 0.7071, 0.0000],[0,0,0,0],[9E9,9E9,9E9,9E9,9E9,9E9]], s_printSpeed, fine, tool0, \WObj:=ob_RRC_workplace;
        MoveL [[379.4, 64.8, -572.8],[0.0000, 0.7071, 0.7071, 0.0000],[0,0,0,0],[9E9,9E9,9E9,9E9,9E9,9E9]], s_printSpeed, fine, tool0, \WObj:=ob_RRC_workplace;
        MoveL [[382.4, 67.0, -561.4],[0.0000, 0.7071, 0.7071, 0.0000],[0,0,0,0],[9E9,9E9,9E9,9E9,9E9,9E9]], s_printSpeed, fine, tool0, \WObj:=ob_RRC_workplace;
        MoveL [[382.2, 69.3, -549.6],[0.0000, 0.7071, 0.7071, 0.0000],[0,0,0,0],[9E9,9E9,9E9,9E9,9E9,9E9]], s_printSpeed, fine, tool0, \WObj:=ob_RRC_workplace;
        MoveL [[381.3, 71.6, -537.8],[0.0000, 0.7071, 0.7071, 0.0000],[0,0,0,0],[9E9,9E9,9E9,9E9,9E9,9E9]], s_printSpeed, fine, tool0, \WObj:=ob_RRC_workplace;
        MoveL [[381.4, 73.9, -526.1],[0.0000, 0.7071, 0.7071, 0.0000],[0,0,0,0],[9E9,9E9,9E9,9E9,9E9,9E9]], s_printSpeed, fine, tool0, \WObj:=ob_RRC_workplace;
        MoveL [[386.9, 75.9, -515.6],[0.0000, 0.7071, 0.7071, 0.0000],[0,0,0,0],[9E9,9E9,9E9,9E9,9E9,9E9]], s_printSpeed, fine, tool0, \WObj:=ob_RRC_workplace;
        MoveL [[398.6, 76.4, -513.0],[0.0000, 0.7071, 0.7071, 0.0000],[0,0,0,0],[9E9,9E9,9E9,9E9,9E9,9E9]], s_printSpeed, fine, tool0, \WObj:=ob_RRC_workplace;
        MoveL [[410.6, 76.3, -513.6],[0.0000, 0.7071, 0.7071, 0.0000],[0,0,0,0],[9E9,9E9,9E9,9E9,9E9,9E9]], s_printSpeed, fine, tool0, \WObj:=ob_RRC_workplace;
        MoveL [[422.6, 76.1, -514.5],[0.0000, 0.7071, 0.7071, 0.0000],[0,0,0,0],[9E9,9E9,9E9,9E9,9E9,9E9]], s_printSpeed, fine, tool0, \WObj:=ob_RRC_workplace;
        MoveL [[434.6, 76.2, -514.1],[0.0000, 0.7071, 0.7071, 0.0000],[0,0,0,0],[9E9,9E9,9E9,9E9,9E9,9E9]], s_printSpeed, fine, tool0, \WObj:=ob_RRC_workplace;
        MoveL [[444.7, 77.4, -507.8],[0.0000, 0.7071, 0.7071, 0.0000],[0,0,0,0],[9E9,9E9,9E9,9E9,9E9,9E9]], s_printSpeed, fine, tool0, \WObj:=ob_RRC_workplace;
        MoveL [[446.8, 79.7, -496.2],[0.0000, 0.7071, 0.7071, 0.0000],[0,0,0,0],[9E9,9E9,9E9,9E9,9E9,9E9]], s_printSpeed, fine, tool0, \WObj:=ob_RRC_workplace;
        MoveL [[446.1, 82.0, -484.4],[0.0000, 0.7071, 0.7071, 0.0000],[0,0,0,0],[9E9,9E9,9E9,9E9,9E9,9E9]], s_printSpeed, fine, tool0, \WObj:=ob_RRC_workplace;
        MoveL [[445.2, 84.3, -472.7],[0.0000, 0.7071, 0.7071, 0.0000],[0,0,0,0],[9E9,9E9,9E9,9E9,9E9,9E9]], s_printSpeed, fine, tool0, \WObj:=ob_RRC_workplace;
        MoveL [[445.7, 86.6, -460.9],[0.0000, 0.7071, 0.7071, 0.0000],[0,0,0,0],[9E9,9E9,9E9,9E9,9E9,9E9]], s_printSpeed, fine, tool0, \WObj:=ob_RRC_workplace;
        MoveL [[453.3, 88.3, -451.8],[0.0000, 0.7071, 0.7071, 0.0000],[0,0,0,0],[9E9,9E9,9E9,9E9,9E9,9E9]], s_printSpeed, fine, tool0, \WObj:=ob_RRC_workplace;
        MoveL [[465.2, 88.6, -450.5],[0.0000, 0.7071, 0.7071, 0.0000],[0,0,0,0],[9E9,9E9,9E9,9E9,9E9,9E9]], s_printSpeed, fine, tool0, \WObj:=ob_RRC_workplace;
        MoveL [[477.2, 88.4, -451.3],[0.0000, 0.7071, 0.7071, 0.0000],[0,0,0,0],[9E9,9E9,9E9,9E9,9E9,9E9]], s_printSpeed, fine, tool0, \WObj:=ob_RRC_workplace;
        MoveL [[489.2, 88.3, -452.2],[0.0000, 0.7071, 0.7071, 0.0000],[0,0,0,0],[9E9,9E9,9E9,9E9,9E9,9E9]], s_printSpeed, fine, tool0, \WObj:=ob_RRC_workplace;
        MoveL [[501.1, 88.5, -451.0],[0.0000, 0.7071, 0.7071, 0.0000],[0,0,0,0],[9E9,9E9,9E9,9E9,9E9,9E9]], s_printSpeed, fine, tool0, \WObj:=ob_RRC_workplace;
        MoveL [[509.3, 90.1, -442.5],[0.0000, 0.7071, 0.7071, 0.0000],[0,0,0,0],[9E9,9E9,9E9,9E9,9E9,9E9]], s_printSpeed, fine, tool0, \WObj:=ob_RRC_workplace;
        MoveL [[510.4, 92.4, -430.7],[0.0000, 0.7071, 0.7071, 0.0000],[0,0,0,0],[9E9,9E9,9E9,9E9,9E9,9E9]], s_printSpeed, fine, tool0, \WObj:=ob_RRC_workplace;
        MoveL [[509.5, 94.7, -419.0],[0.0000, 0.7071, 0.7071, 0.0000],[0,0,0,0],[9E9,9E9,9E9,9E9,9E9,9E9]], s_printSpeed, fine, tool0, \WObj:=ob_RRC_workplace;
        MoveL [[508.8, 97.0, -407.2],[0.0000, 0.7071, 0.7071, 0.0000],[0,0,0,0],[9E9,9E9,9E9,9E9,9E9,9E9]], s_printSpeed, fine, tool0, \WObj:=ob_RRC_workplace;
        MoveL [[510.2, 99.3, -395.5],[0.0000, 0.7071, 0.7071, 0.0000],[0,0,0,0],[9E9,9E9,9E9,9E9,9E9,9E9]], s_printSpeed, fine, tool0, \WObj:=ob_RRC_workplace;
        MoveL [[520.1, 100.6, -388.9],[0.0000, 0.7071, 0.7071, 0.0000],[0,0,0,0],[9E9,9E9,9E9,9E9,9E9,9E9]], s_printSpeed, fine, tool0, \WObj:=ob_RRC_workplace;
        MoveL [[532.1, 100.6, -388.9],[0.0000, 0.7071, 0.7071, 0.0000],[0,0,0,0],[9E9,9E9,9E9,9E9,9E9,9E9]], s_printSpeed, fine, tool0, \WObj:=ob_RRC_workplace;
        MoveL [[544.1, 100.3, -390.1],[0.0000, 0.7071, 0.7071, 0.0000],[0,0,0,0],[9E9,9E9,9E9,9E9,9E9,9E9]], s_printSpeed, fine, tool0, \WObj:=ob_RRC_workplace;
        MoveL [[556.1, 100.3, -390.5],[0.0000, 0.7071, 0.7071, 0.0000],[0,0,0,0],[9E9,9E9,9E9,9E9,9E9,9E9]], s_printSpeed, fine, tool0, \WObj:=ob_RRC_workplace;
        MoveL [[567.6, 100.9, -387.4],[0.0000, 0.7071, 0.7071, 0.0000],[0,0,0,0],[9E9,9E9,9E9,9E9,9E9,9E9]], s_printSpeed, fine, tool0, \WObj:=ob_RRC_workplace;
        MoveL [[574.9, 102.7, -378.0],[0.0000, 0.7071, 0.7071, 0.0000],[0,0,0,0],[9E9,9E9,9E9,9E9,9E9,9E9]], s_printSpeed, fine, tool0, \WObj:=ob_RRC_workplace;
        MoveL [[577.8, 104.9, -366.6],[0.0000, 0.7071, 0.7071, 0.0000],[0,0,0,0],[9E9,9E9,9E9,9E9,9E9,9E9]], s_printSpeed, fine, tool0, \WObj:=ob_RRC_workplace;
        MoveL [[579.1, 107.2, -354.9],[0.0000, 0.7071, 0.7071, 0.0000],[0,0,0,0],[9E9,9E9,9E9,9E9,9E9,9E9]], s_printSpeed, fine, tool0, \WObj:=ob_RRC_workplace;
        MoveL [[580.0, 109.5, -343.1],[0.0000, 0.7071, 0.7071, 0.0000],[0,0,0,0],[9E9,9E9,9E9,9E9,9E9,9E9]], s_printSpeed, fine, tool0, \WObj:=ob_RRC_workplace;
        MoveL [[583.2, 111.7, -331.8],[0.0000, 0.7071, 0.7071, 0.0000],[0,0,0,0],[9E9,9E9,9E9,9E9,9E9,9E9]], s_printSpeed, fine, tool0, \WObj:=ob_RRC_workplace;
        MoveL [[594.9, 111.1, -334.5],[0.0000, 0.7071, 0.7071, 0.0000],[0,0,0,0],[9E9,9E9,9E9,9E9,9E9,9E9]], s_printSpeed, fine, tool0, \WObj:=ob_RRC_workplace;
        MoveL [[604.6, 109.8, -341.4],[0.0000, 0.7071, 0.7071, 0.0000],[0,0,0,0],[9E9,9E9,9E9,9E9,9E9,9E9]], s_printSpeed, fine, tool0, \WObj:=ob_RRC_workplace;
        MoveL [[614.5, 108.5, -348.0],[0.0000, 0.7071, 0.7071, 0.0000],[0,0,0,0],[9E9,9E9,9E9,9E9,9E9,9E9]], s_printSpeed, fine, tool0, \WObj:=ob_RRC_workplace;
        MoveL [[625.3, 107.5, -353.1],[0.0000, 0.7071, 0.7071, 0.0000],[0,0,0,0],[9E9,9E9,9E9,9E9,9E9,9E9]], s_printSpeed, fine, tool0, \WObj:=ob_RRC_workplace;
        MoveL [[637.2, 107.2, -354.8],[0.0000, 0.7071, 0.7071, 0.0000],[0,0,0,0],[9E9,9E9,9E9,9E9,9E9,9E9]], s_printSpeed, fine, tool0, \WObj:=ob_RRC_workplace;
        MoveL [[648.8, 107.8, -351.7],[0.0000, 0.7071, 0.7071, 0.0000],[0,0,0,0],[9E9,9E9,9E9,9E9,9E9,9E9]], s_printSpeed, fine, tool0, \WObj:=ob_RRC_workplace;
        MoveL [[659.2, 108.9, -345.9],[0.0000, 0.7071, 0.7071, 0.0000],[0,0,0,0],[9E9,9E9,9E9,9E9,9E9,9E9]], s_printSpeed, fine, tool0, \WObj:=ob_RRC_workplace;
        MoveL [[669.0, 110.2, -339.1],[0.0000, 0.7071, 0.7071, 0.0000],[0,0,0,0],[9E9,9E9,9E9,9E9,9E9,9E9]], s_printSpeed, fine, tool0, \WObj:=ob_RRC_workplace;
        MoveL [[678.9, 111.5, -332.4],[0.0000, 0.7071, 0.7071, 0.0000],[0,0,0,0],[9E9,9E9,9E9,9E9,9E9,9E9]], s_printSpeed, fine, tool0, \WObj:=ob_RRC_workplace;
        MoveL [[689.6, 110.5, -337.7],[0.0000, 0.7071, 0.7071, 0.0000],[0,0,0,0],[9E9,9E9,9E9,9E9,9E9,9E9]], s_printSpeed, fine, tool0, \WObj:=ob_RRC_workplace;
        MoveL [[690.9, 108.2, -349.4],[0.0000, 0.7071, 0.7071, 0.0000],[0,0,0,0],[9E9,9E9,9E9,9E9,9E9,9E9]], s_printSpeed, fine, tool0, \WObj:=ob_RRC_workplace;
        MoveL [[691.9, 106.0, -361.2],[0.0000, 0.7071, 0.7071, 0.0000],[0,0,0,0],[9E9,9E9,9E9,9E9,9E9,9E9]], s_printSpeed, fine, tool0, \WObj:=ob_RRC_workplace;
        MoveL [[693.8, 103.7, -372.8],[0.0000, 0.7071, 0.7071, 0.0000],[0,0,0,0],[9E9,9E9,9E9,9E9,9E9,9E9]], s_printSpeed, fine, tool0, \WObj:=ob_RRC_workplace;
        MoveL [[698.6, 101.6, -383.6],[0.0000, 0.7071, 0.7071, 0.0000],[0,0,0,0],[9E9,9E9,9E9,9E9,9E9,9E9]], s_printSpeed, fine, tool0, \WObj:=ob_RRC_workplace;
        MoveL [[708.8, 100.4, -389.7],[0.0000, 0.7071, 0.7071, 0.0000],[0,0,0,0],[9E9,9E9,9E9,9E9,9E9,9E9]], s_printSpeed, fine, tool0, \WObj:=ob_RRC_workplace;
        MoveL [[720.8, 100.3, -390.5],[0.0000, 0.7071, 0.7071, 0.0000],[0,0,0,0],[9E9,9E9,9E9,9E9,9E9,9E9]], s_printSpeed, fine, tool0, \WObj:=ob_RRC_workplace;
        MoveL [[732.8, 100.5, -389.5],[0.0000, 0.7071, 0.7071, 0.0000],[0,0,0,0],[9E9,9E9,9E9,9E9,9E9,9E9]], s_printSpeed, fine, tool0, \WObj:=ob_RRC_workplace;
        MoveL [[744.7, 100.6, -388.6],[0.0000, 0.7071, 0.7071, 0.0000],[0,0,0,0],[9E9,9E9,9E9,9E9,9E9,9E9]], s_printSpeed, fine, tool0, \WObj:=ob_RRC_workplace;
        MoveL [[756.5, 100.2, -390.9],[0.0000, 0.7071, 0.7071, 0.0000],[0,0,0,0],[9E9,9E9,9E9,9E9,9E9,9E9]], s_printSpeed, fine, tool0, \WObj:=ob_RRC_workplace;
        MoveL [[761.5, 98.1, -401.6],[0.0000, 0.7071, 0.7071, 0.0000],[0,0,0,0],[9E9,9E9,9E9,9E9,9E9,9E9]], s_printSpeed, fine, tool0, \WObj:=ob_RRC_workplace;
        MoveL [[761.3, 95.8, -413.4],[0.0000, 0.7071, 0.7071, 0.0000],[0,0,0,0],[9E9,9E9,9E9,9E9,9E9,9E9]], s_printSpeed, fine, tool0, \WObj:=ob_RRC_workplace;
        MoveL [[760.3, 93.5, -425.1],[0.0000, 0.7071, 0.7071, 0.0000],[0,0,0,0],[9E9,9E9,9E9,9E9,9E9,9E9]], s_printSpeed, fine, tool0, \WObj:=ob_RRC_workplace;
        MoveL [[760.1, 91.2, -436.9],[0.0000, 0.7071, 0.7071, 0.0000],[0,0,0,0],[9E9,9E9,9E9,9E9,9E9,9E9]], s_printSpeed, fine, tool0, \WObj:=ob_RRC_workplace;
        MoveL [[764.1, 89.1, -448.1],[0.0000, 0.7071, 0.7071, 0.0000],[0,0,0,0],[9E9,9E9,9E9,9E9,9E9,9E9]], s_printSpeed, fine, tool0, \WObj:=ob_RRC_workplace;
        MoveL [[775.3, 88.3, -452.1],[0.0000, 0.7071, 0.7071, 0.0000],[0,0,0,0],[9E9,9E9,9E9,9E9,9E9,9E9]], s_printSpeed, fine, tool0, \WObj:=ob_RRC_workplace;
        MoveL [[787.3, 88.3, -451.8],[0.0000, 0.7071, 0.7071, 0.0000],[0,0,0,0],[9E9,9E9,9E9,9E9,9E9,9E9]], s_printSpeed, fine, tool0, \WObj:=ob_RRC_workplace;
        MoveL [[799.3, 88.5, -450.8],[0.0000, 0.7071, 0.7071, 0.0000],[0,0,0,0],[9E9,9E9,9E9,9E9,9E9,9E9]], s_printSpeed, fine, tool0, \WObj:=ob_RRC_workplace;
        MoveL [[811.3, 88.6, -450.6],[0.0000, 0.7071, 0.7071, 0.0000],[0,0,0,0],[9E9,9E9,9E9,9E9,9E9,9E9]], s_printSpeed, fine, tool0, \WObj:=ob_RRC_workplace;
        MoveL [[822.3, 87.6, -455.4],[0.0000, 0.7071, 0.7071, 0.0000],[0,0,0,0],[9E9,9E9,9E9,9E9,9E9,9E9]], s_printSpeed, fine, tool0, \WObj:=ob_RRC_workplace;
        MoveL [[825.3, 85.4, -466.7],[0.0000, 0.7071, 0.7071, 0.0000],[0,0,0,0],[9E9,9E9,9E9,9E9,9E9,9E9]], s_printSpeed, fine, tool0, \WObj:=ob_RRC_workplace;
        MoveL [[824.8, 83.1, -478.5],[0.0000, 0.7071, 0.7071, 0.0000],[0,0,0,0],[9E9,9E9,9E9,9E9,9E9,9E9]], s_printSpeed, fine, tool0, \WObj:=ob_RRC_workplace;
        MoveL [[823.8, 80.8, -490.3],[0.0000, 0.7071, 0.7071, 0.0000],[0,0,0,0],[9E9,9E9,9E9,9E9,9E9,9E9]], s_printSpeed, fine, tool0, \WObj:=ob_RRC_workplace;
        MoveL [[824.0, 78.6, -502.0],[0.0000, 0.7071, 0.7071, 0.0000],[0,0,0,0],[9E9,9E9,9E9,9E9,9E9,9E9]], s_printSpeed, fine, tool0, \WObj:=ob_RRC_workplace;
        MoveL [[830.0, 76.6, -512.2],[0.0000, 0.7071, 0.7071, 0.0000],[0,0,0,0],[9E9,9E9,9E9,9E9,9E9,9E9]], s_printSpeed, fine, tool0, \WObj:=ob_RRC_workplace;
        MoveL [[841.8, 76.1, -514.6],[0.0000, 0.7071, 0.7071, 0.0000],[0,0,0,0],[9E9,9E9,9E9,9E9,9E9,9E9]], s_printSpeed, fine, tool0, \WObj:=ob_RRC_workplace;
        MoveL [[853.8, 76.2, -514.1],[0.0000, 0.7071, 0.7071, 0.0000],[0,0,0,0],[9E9,9E9,9E9,9E9,9E9,9E9]], s_printSpeed, fine, tool0, \WObj:=ob_RRC_workplace;
        MoveL [[865.7, 76.4, -513.2],[0.0000, 0.7071, 0.7071, 0.0000],[0,0,0,0],[9E9,9E9,9E9,9E9,9E9,9E9]], s_printSpeed, fine, tool0, \WObj:=ob_RRC_workplace;
        MoveL [[877.7, 76.3, -513.6],[0.0000, 0.7071, 0.7071, 0.0000],[0,0,0,0],[9E9,9E9,9E9,9E9,9E9,9E9]], s_printSpeed, fine, tool0, \WObj:=ob_RRC_workplace;
        MoveL [[887.5, 75.0, -520.4],[0.0000, 0.7071, 0.7071, 0.0000],[0,0,0,0],[9E9,9E9,9E9,9E9,9E9,9E9]], s_printSpeed, fine, tool0, \WObj:=ob_RRC_workplace;
        MoveL [[889.3, 72.7, -532.0],[0.0000, 0.7071, 0.7071, 0.0000],[0,0,0,0],[9E9,9E9,9E9,9E9,9E9,9E9]], s_printSpeed, fine, tool0, \WObj:=ob_RRC_workplace;
        MoveL [[888.7, 70.4, -543.8],[0.0000, 0.7071, 0.7071, 0.0000],[0,0,0,0],[9E9,9E9,9E9,9E9,9E9,9E9]], s_printSpeed, fine, tool0, \WObj:=ob_RRC_workplace;
        MoveL [[887.9, 68.2, -555.5],[0.0000, 0.7071, 0.7071, 0.0000],[0,0,0,0],[9E9,9E9,9E9,9E9,9E9,9E9]], s_printSpeed, fine, tool0, \WObj:=ob_RRC_workplace;
        MoveL [[888.8, 65.9, -567.3],[0.0000, 0.7071, 0.7071, 0.0000],[0,0,0,0],[9E9,9E9,9E9,9E9,9E9,9E9]], s_printSpeed, fine, tool0, \WObj:=ob_RRC_workplace;
        MoveL [[895.2, 63.9, -577.2],[0.0000, 0.7071, 0.7071, 0.0000],[0,0,0,0],[9E9,9E9,9E9,9E9,9E9,9E9]], s_printSpeed, fine, tool0, \WObj:=ob_RRC_workplace;
        MoveL [[906.4, 63.1, -581.6],[0.0000, 0.7071, 0.7071, 0.0000],[0,0,0,0],[9E9,9E9,9E9,9E9,9E9,9E9]], s_printSpeed, fine, tool0, \WObj:=ob_RRC_workplace;
        MoveL [[918.3, 62.9, -582.5],[0.0000, 0.7071, 0.7071, 0.0000],[0,0,0,0],[9E9,9E9,9E9,9E9,9E9,9E9]], s_printSpeed, fine, tool0, \WObj:=ob_RRC_workplace;
        MoveL [[930.3, 63.1, -581.7],[0.0000, 0.7071, 0.7071, 0.0000],[0,0,0,0],[9E9,9E9,9E9,9E9,9E9,9E9]], s_printSpeed, fine, tool0, \WObj:=ob_RRC_workplace;
        MoveL [[942.1, 63.4, -579.8],[0.0000, 0.7071, 0.7071, 0.0000],[0,0,0,0],[9E9,9E9,9E9,9E9,9E9,9E9]], s_printSpeed, fine, tool0, \WObj:=ob_RRC_workplace;
    ! layer end
        MoveL [[322.5, 64.0, -578.6],[0.0000, 0.7071, 0.7071, 0.0000],[0,0,0,0],[9E9,9E9,9E9,9E9,9E9,9E9]], s_printSpeed, fine, tool0, \WObj:=ob_RRC_workplace;
        MoveL [[334.2, 63.5, -580.9],[0.0000, 0.7071, 0.7071, 0.0000],[0,0,0,0],[9E9,9E9,9E9,9E9,9E9,9E9]], s_printSpeed, fine, tool0, \WObj:=ob_RRC_workplace;
        MoveL [[346.2, 63.3, -582.3],[0.0000, 0.7071, 0.7071, 0.0000],[0,0,0,0],[9E9,9E9,9E9,9E9,9E9,9E9]], s_printSpeed, fine, tool0, \WObj:=ob_RRC_workplace;
        MoveL [[358.2, 63.2, -582.3],[0.0000, 0.7071, 0.7071, 0.0000],[0,0,0,0],[9E9,9E9,9E9,9E9,9E9,9E9]], s_printSpeed, fine, tool0, \WObj:=ob_RRC_workplace;
        MoveL [[369.9, 63.7, -580.0],[0.0000, 0.7071, 0.7071, 0.0000],[0,0,0,0],[9E9,9E9,9E9,9E9,9E9,9E9]], s_printSpeed, fine, tool0, \WObj:=ob_RRC_workplace;
        MoveL [[379.4, 65.2, -572.8],[0.0000, 0.7071, 0.7071, 0.0000],[0,0,0,0],[9E9,9E9,9E9,9E9,9E9,9E9]], s_printSpeed, fine, tool0, \WObj:=ob_RRC_workplace;
        MoveL [[382.4, 67.5, -561.4],[0.0000, 0.7071, 0.7071, 0.0000],[0,0,0,0],[9E9,9E9,9E9,9E9,9E9,9E9]], s_printSpeed, fine, tool0, \WObj:=ob_RRC_workplace;
        MoveL [[382.2, 69.9, -549.7],[0.0000, 0.7071, 0.7071, 0.0000],[0,0,0,0],[9E9,9E9,9E9,9E9,9E9,9E9]], s_printSpeed, fine, tool0, \WObj:=ob_RRC_workplace;
        MoveL [[381.3, 72.3, -537.9],[0.0000, 0.7071, 0.7071, 0.0000],[0,0,0,0],[9E9,9E9,9E9,9E9,9E9,9E9]], s_printSpeed, fine, tool0, \WObj:=ob_RRC_workplace;
        MoveL [[381.4, 74.7, -526.2],[0.0000, 0.7071, 0.7071, 0.0000],[0,0,0,0],[9E9,9E9,9E9,9E9,9E9,9E9]], s_printSpeed, fine, tool0, \WObj:=ob_RRC_workplace;
        MoveL [[386.9, 76.8, -515.7],[0.0000, 0.7071, 0.7071, 0.0000],[0,0,0,0],[9E9,9E9,9E9,9E9,9E9,9E9]], s_printSpeed, fine, tool0, \WObj:=ob_RRC_workplace;
        MoveL [[398.6, 77.3, -513.2],[0.0000, 0.7071, 0.7071, 0.0000],[0,0,0,0],[9E9,9E9,9E9,9E9,9E9,9E9]], s_printSpeed, fine, tool0, \WObj:=ob_RRC_workplace;
        MoveL [[410.6, 77.2, -513.7],[0.0000, 0.7071, 0.7071, 0.0000],[0,0,0,0],[9E9,9E9,9E9,9E9,9E9,9E9]], s_printSpeed, fine, tool0, \WObj:=ob_RRC_workplace;
        MoveL [[422.6, 77.0, -514.6],[0.0000, 0.7071, 0.7071, 0.0000],[0,0,0,0],[9E9,9E9,9E9,9E9,9E9,9E9]], s_printSpeed, fine, tool0, \WObj:=ob_RRC_workplace;
        MoveL [[434.6, 77.1, -514.2],[0.0000, 0.7071, 0.7071, 0.0000],[0,0,0,0],[9E9,9E9,9E9,9E9,9E9,9E9]], s_printSpeed, fine, tool0, \WObj:=ob_RRC_workplace;
        MoveL [[444.7, 78.4, -507.9],[0.0000, 0.7071, 0.7071, 0.0000],[0,0,0,0],[9E9,9E9,9E9,9E9,9E9,9E9]], s_printSpeed, fine, tool0, \WObj:=ob_RRC_workplace;
        MoveL [[446.8, 80.8, -496.3],[0.0000, 0.7071, 0.7071, 0.0000],[0,0,0,0],[9E9,9E9,9E9,9E9,9E9,9E9]], s_printSpeed, fine, tool0, \WObj:=ob_RRC_workplace;
        MoveL [[446.1, 83.1, -484.6],[0.0000, 0.7071, 0.7071, 0.0000],[0,0,0,0],[9E9,9E9,9E9,9E9,9E9,9E9]], s_printSpeed, fine, tool0, \WObj:=ob_RRC_workplace;
        MoveL [[445.2, 85.5, -472.9],[0.0000, 0.7071, 0.7071, 0.0000],[0,0,0,0],[9E9,9E9,9E9,9E9,9E9,9E9]], s_printSpeed, fine, tool0, \WObj:=ob_RRC_workplace;
        MoveL [[445.7, 87.9, -461.1],[0.0000, 0.7071, 0.7071, 0.0000],[0,0,0,0],[9E9,9E9,9E9,9E9,9E9,9E9]], s_printSpeed, fine, tool0, \WObj:=ob_RRC_workplace;
        MoveL [[453.3, 89.8, -452.0],[0.0000, 0.7071, 0.7071, 0.0000],[0,0,0,0],[9E9,9E9,9E9,9E9,9E9,9E9]], s_printSpeed, fine, tool0, \WObj:=ob_RRC_workplace;
        MoveL [[465.2, 90.0, -450.7],[0.0000, 0.7071, 0.7071, 0.0000],[0,0,0,0],[9E9,9E9,9E9,9E9,9E9,9E9]], s_printSpeed, fine, tool0, \WObj:=ob_RRC_workplace;
        MoveL [[477.2, 89.9, -451.5],[0.0000, 0.7071, 0.7071, 0.0000],[0,0,0,0],[9E9,9E9,9E9,9E9,9E9,9E9]], s_printSpeed, fine, tool0, \WObj:=ob_RRC_workplace;
        MoveL [[489.2, 89.7, -452.4],[0.0000, 0.7071, 0.7071, 0.0000],[0,0,0,0],[9E9,9E9,9E9,9E9,9E9,9E9]], s_printSpeed, fine, tool0, \WObj:=ob_RRC_workplace;
        MoveL [[501.1, 89.9, -451.3],[0.0000, 0.7071, 0.7071, 0.0000],[0,0,0,0],[9E9,9E9,9E9,9E9,9E9,9E9]], s_printSpeed, fine, tool0, \WObj:=ob_RRC_workplace;
        MoveL [[509.3, 91.7, -442.7],[0.0000, 0.7071, 0.7071, 0.0000],[0,0,0,0],[9E9,9E9,9E9,9E9,9E9,9E9]], s_printSpeed, fine, tool0, \WObj:=ob_RRC_workplace;
        MoveL [[510.4, 94.1, -431.0],[0.0000, 0.7071, 0.7071, 0.0000],[0,0,0,0],[9E9,9E9,9E9,9E9,9E9,9E9]], s_printSpeed, fine, tool0, \WObj:=ob_RRC_workplace;
        MoveL [[509.5, 96.4, -419.3],[0.0000, 0.7071, 0.7071, 0.0000],[0,0,0,0],[9E9,9E9,9E9,9E9,9E9,9E9]], s_printSpeed, fine, tool0, \WObj:=ob_RRC_workplace;
        MoveL [[508.8, 98.8, -407.5],[0.0000, 0.7071, 0.7071, 0.0000],[0,0,0,0],[9E9,9E9,9E9,9E9,9E9,9E9]], s_printSpeed, fine, tool0, \WObj:=ob_RRC_workplace;
        MoveL [[510.2, 101.2, -395.9],[0.0000, 0.7071, 0.7071, 0.0000],[0,0,0,0],[9E9,9E9,9E9,9E9,9E9,9E9]], s_printSpeed, fine, tool0, \WObj:=ob_RRC_workplace;
        MoveL [[520.1, 102.6, -389.2],[0.0000, 0.7071, 0.7071, 0.0000],[0,0,0,0],[9E9,9E9,9E9,9E9,9E9,9E9]], s_printSpeed, fine, tool0, \WObj:=ob_RRC_workplace;
        MoveL [[532.1, 102.6, -389.3],[0.0000, 0.7071, 0.7071, 0.0000],[0,0,0,0],[9E9,9E9,9E9,9E9,9E9,9E9]], s_printSpeed, fine, tool0, \WObj:=ob_RRC_workplace;
        MoveL [[544.1, 102.3, -390.4],[0.0000, 0.7071, 0.7071, 0.0000],[0,0,0,0],[9E9,9E9,9E9,9E9,9E9,9E9]], s_printSpeed, fine, tool0, \WObj:=ob_RRC_workplace;
        MoveL [[556.1, 102.2, -390.8],[0.0000, 0.7071, 0.7071, 0.0000],[0,0,0,0],[9E9,9E9,9E9,9E9,9E9,9E9]], s_printSpeed, fine, tool0, \WObj:=ob_RRC_workplace;
        MoveL [[567.6, 102.9, -387.7],[0.0000, 0.7071, 0.7071, 0.0000],[0,0,0,0],[9E9,9E9,9E9,9E9,9E9,9E9]], s_printSpeed, fine, tool0, \WObj:=ob_RRC_workplace;
        MoveL [[574.9, 104.8, -378.4],[0.0000, 0.7071, 0.7071, 0.0000],[0,0,0,0],[9E9,9E9,9E9,9E9,9E9,9E9]], s_printSpeed, fine, tool0, \WObj:=ob_RRC_workplace;
        MoveL [[577.8, 107.1, -367.0],[0.0000, 0.7071, 0.7071, 0.0000],[0,0,0,0],[9E9,9E9,9E9,9E9,9E9,9E9]], s_printSpeed, fine, tool0, \WObj:=ob_RRC_workplace;
        MoveL [[579.1, 109.5, -355.3],[0.0000, 0.7071, 0.7071, 0.0000],[0,0,0,0],[9E9,9E9,9E9,9E9,9E9,9E9]], s_printSpeed, fine, tool0, \WObj:=ob_RRC_workplace;
        MoveL [[580.0, 111.9, -343.5],[0.0000, 0.7071, 0.7071, 0.0000],[0,0,0,0],[9E9,9E9,9E9,9E9,9E9,9E9]], s_printSpeed, fine, tool0, \WObj:=ob_RRC_workplace;
        MoveL [[583.2, 114.2, -332.2],[0.0000, 0.7071, 0.7071, 0.0000],[0,0,0,0],[9E9,9E9,9E9,9E9,9E9,9E9]], s_printSpeed, fine, tool0, \WObj:=ob_RRC_workplace;
        MoveL [[594.9, 113.6, -334.9],[0.0000, 0.7071, 0.7071, 0.0000],[0,0,0,0],[9E9,9E9,9E9,9E9,9E9,9E9]], s_printSpeed, fine, tool0, \WObj:=ob_RRC_workplace;
        MoveL [[604.6, 112.2, -341.8],[0.0000, 0.7071, 0.7071, 0.0000],[0,0,0,0],[9E9,9E9,9E9,9E9,9E9,9E9]], s_printSpeed, fine, tool0, \WObj:=ob_RRC_workplace;
        MoveL [[614.5, 110.9, -348.4],[0.0000, 0.7071, 0.7071, 0.0000],[0,0,0,0],[9E9,9E9,9E9,9E9,9E9,9E9]], s_printSpeed, fine, tool0, \WObj:=ob_RRC_workplace;
        MoveL [[625.3, 109.8, -353.5],[0.0000, 0.7071, 0.7071, 0.0000],[0,0,0,0],[9E9,9E9,9E9,9E9,9E9,9E9]], s_printSpeed, fine, tool0, \WObj:=ob_RRC_workplace;
        MoveL [[637.2, 109.5, -355.2],[0.0000, 0.7071, 0.7071, 0.0000],[0,0,0,0],[9E9,9E9,9E9,9E9,9E9,9E9]], s_printSpeed, fine, tool0, \WObj:=ob_RRC_workplace;
        MoveL [[648.8, 110.1, -352.1],[0.0000, 0.7071, 0.7071, 0.0000],[0,0,0,0],[9E9,9E9,9E9,9E9,9E9,9E9]], s_printSpeed, fine, tool0, \WObj:=ob_RRC_workplace;
        MoveL [[659.2, 111.3, -346.4],[0.0000, 0.7071, 0.7071, 0.0000],[0,0,0,0],[9E9,9E9,9E9,9E9,9E9,9E9]], s_printSpeed, fine, tool0, \WObj:=ob_RRC_workplace;
        MoveL [[669.0, 112.7, -339.5],[0.0000, 0.7071, 0.7071, 0.0000],[0,0,0,0],[9E9,9E9,9E9,9E9,9E9,9E9]], s_printSpeed, fine, tool0, \WObj:=ob_RRC_workplace;
        MoveL [[678.9, 114.0, -332.8],[0.0000, 0.7071, 0.7071, 0.0000],[0,0,0,0],[9E9,9E9,9E9,9E9,9E9,9E9]], s_printSpeed, fine, tool0, \WObj:=ob_RRC_workplace;
        MoveL [[689.6, 113.0, -338.2],[0.0000, 0.7071, 0.7071, 0.0000],[0,0,0,0],[9E9,9E9,9E9,9E9,9E9,9E9]], s_printSpeed, fine, tool0, \WObj:=ob_RRC_workplace;
        MoveL [[690.9, 110.6, -349.8],[0.0000, 0.7071, 0.7071, 0.0000],[0,0,0,0],[9E9,9E9,9E9,9E9,9E9,9E9]], s_printSpeed, fine, tool0, \WObj:=ob_RRC_workplace;
        MoveL [[691.9, 108.2, -361.6],[0.0000, 0.7071, 0.7071, 0.0000],[0,0,0,0],[9E9,9E9,9E9,9E9,9E9,9E9]], s_printSpeed, fine, tool0, \WObj:=ob_RRC_workplace;
        MoveL [[693.8, 105.8, -373.2],[0.0000, 0.7071, 0.7071, 0.0000],[0,0,0,0],[9E9,9E9,9E9,9E9,9E9,9E9]], s_printSpeed, fine, tool0, \WObj:=ob_RRC_workplace;
        MoveL [[698.6, 103.6, -384.0],[0.0000, 0.7071, 0.7071, 0.0000],[0,0,0,0],[9E9,9E9,9E9,9E9,9E9,9E9]], s_printSpeed, fine, tool0, \WObj:=ob_RRC_workplace;
        MoveL [[708.8, 102.4, -390.1],[0.0000, 0.7071, 0.7071, 0.0000],[0,0,0,0],[9E9,9E9,9E9,9E9,9E9,9E9]], s_printSpeed, fine, tool0, \WObj:=ob_RRC_workplace;
        MoveL [[720.8, 102.2, -390.8],[0.0000, 0.7071, 0.7071, 0.0000],[0,0,0,0],[9E9,9E9,9E9,9E9,9E9,9E9]], s_printSpeed, fine, tool0, \WObj:=ob_RRC_workplace;
        MoveL [[732.8, 102.4, -389.8],[0.0000, 0.7071, 0.7071, 0.0000],[0,0,0,0],[9E9,9E9,9E9,9E9,9E9,9E9]], s_printSpeed, fine, tool0, \WObj:=ob_RRC_workplace;
        MoveL [[744.7, 102.6, -388.9],[0.0000, 0.7071, 0.7071, 0.0000],[0,0,0,0],[9E9,9E9,9E9,9E9,9E9,9E9]], s_printSpeed, fine, tool0, \WObj:=ob_RRC_workplace;
        MoveL [[756.5, 102.2, -391.2],[0.0000, 0.7071, 0.7071, 0.0000],[0,0,0,0],[9E9,9E9,9E9,9E9,9E9,9E9]], s_printSpeed, fine, tool0, \WObj:=ob_RRC_workplace;
        MoveL [[761.5, 100.0, -401.9],[0.0000, 0.7071, 0.7071, 0.0000],[0,0,0,0],[9E9,9E9,9E9,9E9,9E9,9E9]], s_printSpeed, fine, tool0, \WObj:=ob_RRC_workplace;
        MoveL [[761.3, 97.6, -413.7],[0.0000, 0.7071, 0.7071, 0.0000],[0,0,0,0],[9E9,9E9,9E9,9E9,9E9,9E9]], s_printSpeed, fine, tool0, \WObj:=ob_RRC_workplace;
        MoveL [[760.3, 95.2, -425.4],[0.0000, 0.7071, 0.7071, 0.0000],[0,0,0,0],[9E9,9E9,9E9,9E9,9E9,9E9]], s_printSpeed, fine, tool0, \WObj:=ob_RRC_workplace;
        MoveL [[760.1, 92.8, -437.2],[0.0000, 0.7071, 0.7071, 0.0000],[0,0,0,0],[9E9,9E9,9E9,9E9,9E9,9E9]], s_printSpeed, fine, tool0, \WObj:=ob_RRC_workplace;
        MoveL [[764.1, 90.5, -448.3],[0.0000, 0.7071, 0.7071, 0.0000],[0,0,0,0],[9E9,9E9,9E9,9E9,9E9,9E9]], s_printSpeed, fine, tool0, \WObj:=ob_RRC_workplace;
        MoveL [[775.3, 89.7, -452.3],[0.0000, 0.7071, 0.7071, 0.0000],[0,0,0,0],[9E9,9E9,9E9,9E9,9E9,9E9]], s_printSpeed, fine, tool0, \WObj:=ob_RRC_workplace;
        MoveL [[787.3, 89.8, -452.0],[0.0000, 0.7071, 0.7071, 0.0000],[0,0,0,0],[9E9,9E9,9E9,9E9,9E9,9E9]], s_printSpeed, fine, tool0, \WObj:=ob_RRC_workplace;
        MoveL [[799.3, 90.0, -451.0],[0.0000, 0.7071, 0.7071, 0.0000],[0,0,0,0],[9E9,9E9,9E9,9E9,9E9,9E9]], s_printSpeed, fine, tool0, \WObj:=ob_RRC_workplace;
        MoveL [[811.3, 90.0, -450.8],[0.0000, 0.7071, 0.7071, 0.0000],[0,0,0,0],[9E9,9E9,9E9,9E9,9E9,9E9]], s_printSpeed, fine, tool0, \WObj:=ob_RRC_workplace;
        MoveL [[822.3, 89.1, -455.6],[0.0000, 0.7071, 0.7071, 0.0000],[0,0,0,0],[9E9,9E9,9E9,9E9,9E9,9E9]], s_printSpeed, fine, tool0, \WObj:=ob_RRC_workplace;
        MoveL [[825.3, 86.7, -467.0],[0.0000, 0.7071, 0.7071, 0.0000],[0,0,0,0],[9E9,9E9,9E9,9E9,9E9,9E9]], s_printSpeed, fine, tool0, \WObj:=ob_RRC_workplace;
        MoveL [[824.8, 84.3, -478.7],[0.0000, 0.7071, 0.7071, 0.0000],[0,0,0,0],[9E9,9E9,9E9,9E9,9E9,9E9]], s_printSpeed, fine, tool0, \WObj:=ob_RRC_workplace;
        MoveL [[823.8, 82.0, -490.4],[0.0000, 0.7071, 0.7071, 0.0000],[0,0,0,0],[9E9,9E9,9E9,9E9,9E9,9E9]], s_printSpeed, fine, tool0, \WObj:=ob_RRC_workplace;
        MoveL [[824.0, 79.6, -502.2],[0.0000, 0.7071, 0.7071, 0.0000],[0,0,0,0],[9E9,9E9,9E9,9E9,9E9,9E9]], s_printSpeed, fine, tool0, \WObj:=ob_RRC_workplace;
        MoveL [[830.0, 77.5, -512.3],[0.0000, 0.7071, 0.7071, 0.0000],[0,0,0,0],[9E9,9E9,9E9,9E9,9E9,9E9]], s_printSpeed, fine, tool0, \WObj:=ob_RRC_workplace;
        MoveL [[841.8, 77.0, -514.7],[0.0000, 0.7071, 0.7071, 0.0000],[0,0,0,0],[9E9,9E9,9E9,9E9,9E9,9E9]], s_printSpeed, fine, tool0, \WObj:=ob_RRC_workplace;
        MoveL [[853.8, 77.1, -514.2],[0.0000, 0.7071, 0.7071, 0.0000],[0,0,0,0],[9E9,9E9,9E9,9E9,9E9,9E9]], s_printSpeed, fine, tool0, \WObj:=ob_RRC_workplace;
        MoveL [[865.7, 77.3, -513.3],[0.0000, 0.7071, 0.7071, 0.0000],[0,0,0,0],[9E9,9E9,9E9,9E9,9E9,9E9]], s_printSpeed, fine, tool0, \WObj:=ob_RRC_workplace;
        MoveL [[877.7, 77.2, -513.7],[0.0000, 0.7071, 0.7071, 0.0000],[0,0,0,0],[9E9,9E9,9E9,9E9,9E9,9E9]], s_printSpeed, fine, tool0, \WObj:=ob_RRC_workplace;
        MoveL [[887.5, 75.8, -520.5],[0.0000, 0.7071, 0.7071, 0.0000],[0,0,0,0],[9E9,9E9,9E9,9E9,9E9,9E9]], s_printSpeed, fine, tool0, \WObj:=ob_RRC_workplace;
        MoveL [[889.3, 73.5, -532.1],[0.0000, 0.7071, 0.7071, 0.0000],[0,0,0,0],[9E9,9E9,9E9,9E9,9E9,9E9]], s_printSpeed, fine, tool0, \WObj:=ob_RRC_workplace;
        MoveL [[888.7, 71.1, -543.8],[0.0000, 0.7071, 0.7071, 0.0000],[0,0,0,0],[9E9,9E9,9E9,9E9,9E9,9E9]], s_printSpeed, fine, tool0, \WObj:=ob_RRC_workplace;
        MoveL [[887.9, 68.7, -555.6],[0.0000, 0.7071, 0.7071, 0.0000],[0,0,0,0],[9E9,9E9,9E9,9E9,9E9,9E9]], s_printSpeed, fine, tool0, \WObj:=ob_RRC_workplace;
        MoveL [[888.8, 66.3, -567.3],[0.0000, 0.7071, 0.7071, 0.0000],[0,0,0,0],[9E9,9E9,9E9,9E9,9E9,9E9]], s_printSpeed, fine, tool0, \WObj:=ob_RRC_workplace;
        MoveL [[895.2, 64.3, -577.2],[0.0000, 0.7071, 0.7071, 0.0000],[0,0,0,0],[9E9,9E9,9E9,9E9,9E9,9E9]], s_printSpeed, fine, tool0, \WObj:=ob_RRC_workplace;
        MoveL [[906.4, 63.4, -581.6],[0.0000, 0.7071, 0.7071, 0.0000],[0,0,0,0],[9E9,9E9,9E9,9E9,9E9,9E9]], s_printSpeed, fine, tool0, \WObj:=ob_RRC_workplace;
        MoveL [[918.3, 63.2, -582.5],[0.0000, 0.7071, 0.7071, 0.0000],[0,0,0,0],[9E9,9E9,9E9,9E9,9E9,9E9]], s_printSpeed, fine, tool0, \WObj:=ob_RRC_workplace;
        MoveL [[930.3, 63.4, -581.7],[0.0000, 0.7071, 0.7071, 0.0000],[0,0,0,0],[9E9,9E9,9E9,9E9,9E9,9E9]], s_printSpeed, fine, tool0, \WObj:=ob_RRC_workplace;
        MoveL [[942.1, 63.8, -579.8],[0.0000, 0.7071, 0.7071, 0.0000],[0,0,0,0],[9E9,9E9,9E9,9E9,9E9,9E9]], s_printSpeed, fine, tool0, \WObj:=ob_RRC_workplace;
    ! layer end
        MoveL [[322.5, 64.3, -578.6],[0.0000, 0.7071, 0.7071, 0.0000],[0,0,0,0],[9E9,9E9,9E9,9E9,9E9,9E9]], s_printSpeed, fine, tool0, \WObj:=ob_RRC_workplace;
        MoveL [[334.2, 63.9, -580.9],[0.0000, 0.7071, 0.7071, 0.0000],[0,0,0,0],[9E9,9E9,9E9,9E9,9E9,9E9]], s_printSpeed, fine, tool0, \WObj:=ob_RRC_workplace;
        MoveL [[346.2, 63.6, -582.3],[0.0000, 0.7071, 0.7071, 0.0000],[0,0,0,0],[9E9,9E9,9E9,9E9,9E9,9E9]], s_printSpeed, fine, tool0, \WObj:=ob_RRC_workplace;
        MoveL [[358.2, 63.5, -582.3],[0.0000, 0.7071, 0.7071, 0.0000],[0,0,0,0],[9E9,9E9,9E9,9E9,9E9,9E9]], s_printSpeed, fine, tool0, \WObj:=ob_RRC_workplace;
        MoveL [[369.9, 64.0, -580.0],[0.0000, 0.7071, 0.7071, 0.0000],[0,0,0,0],[9E9,9E9,9E9,9E9,9E9,9E9]], s_printSpeed, fine, tool0, \WObj:=ob_RRC_workplace;
        MoveL [[379.4, 65.6, -572.8],[0.0000, 0.7071, 0.7071, 0.0000],[0,0,0,0],[9E9,9E9,9E9,9E9,9E9,9E9]], s_printSpeed, fine, tool0, \WObj:=ob_RRC_workplace;
        MoveL [[382.4, 68.0, -561.4],[0.0000, 0.7071, 0.7071, 0.0000],[0,0,0,0],[9E9,9E9,9E9,9E9,9E9,9E9]], s_printSpeed, fine, tool0, \WObj:=ob_RRC_workplace;
        MoveL [[382.2, 70.5, -549.7],[0.0000, 0.7071, 0.7071, 0.0000],[0,0,0,0],[9E9,9E9,9E9,9E9,9E9,9E9]], s_printSpeed, fine, tool0, \WObj:=ob_RRC_workplace;
        MoveL [[381.3, 73.0, -538.0],[0.0000, 0.7071, 0.7071, 0.0000],[0,0,0,0],[9E9,9E9,9E9,9E9,9E9,9E9]], s_printSpeed, fine, tool0, \WObj:=ob_RRC_workplace;
        MoveL [[381.4, 75.5, -526.3],[0.0000, 0.7071, 0.7071, 0.0000],[0,0,0,0],[9E9,9E9,9E9,9E9,9E9,9E9]], s_printSpeed, fine, tool0, \WObj:=ob_RRC_workplace;
        MoveL [[386.9, 77.7, -515.8],[0.0000, 0.7071, 0.7071, 0.0000],[0,0,0,0],[9E9,9E9,9E9,9E9,9E9,9E9]], s_printSpeed, fine, tool0, \WObj:=ob_RRC_workplace;
        MoveL [[398.6, 78.2, -513.3],[0.0000, 0.7071, 0.7071, 0.0000],[0,0,0,0],[9E9,9E9,9E9,9E9,9E9,9E9]], s_printSpeed, fine, tool0, \WObj:=ob_RRC_workplace;
        MoveL [[410.6, 78.1, -513.8],[0.0000, 0.7071, 0.7071, 0.0000],[0,0,0,0],[9E9,9E9,9E9,9E9,9E9,9E9]], s_printSpeed, fine, tool0, \WObj:=ob_RRC_workplace;
        MoveL [[422.6, 77.9, -514.7],[0.0000, 0.7071, 0.7071, 0.0000],[0,0,0,0],[9E9,9E9,9E9,9E9,9E9,9E9]], s_printSpeed, fine, tool0, \WObj:=ob_RRC_workplace;
        MoveL [[434.6, 78.0, -514.3],[0.0000, 0.7071, 0.7071, 0.0000],[0,0,0,0],[9E9,9E9,9E9,9E9,9E9,9E9]], s_printSpeed, fine, tool0, \WObj:=ob_RRC_workplace;
        MoveL [[444.7, 79.4, -508.0],[0.0000, 0.7071, 0.7071, 0.0000],[0,0,0,0],[9E9,9E9,9E9,9E9,9E9,9E9]], s_printSpeed, fine, tool0, \WObj:=ob_RRC_workplace;
        MoveL [[446.8, 81.8, -496.5],[0.0000, 0.7071, 0.7071, 0.0000],[0,0,0,0],[9E9,9E9,9E9,9E9,9E9,9E9]], s_printSpeed, fine, tool0, \WObj:=ob_RRC_workplace;
        MoveL [[446.1, 84.3, -484.8],[0.0000, 0.7071, 0.7071, 0.0000],[0,0,0,0],[9E9,9E9,9E9,9E9,9E9,9E9]], s_printSpeed, fine, tool0, \WObj:=ob_RRC_workplace;
        MoveL [[445.2, 86.8, -473.1],[0.0000, 0.7071, 0.7071, 0.0000],[0,0,0,0],[9E9,9E9,9E9,9E9,9E9,9E9]], s_printSpeed, fine, tool0, \WObj:=ob_RRC_workplace;
        MoveL [[445.7, 89.3, -461.3],[0.0000, 0.7071, 0.7071, 0.0000],[0,0,0,0],[9E9,9E9,9E9,9E9,9E9,9E9]], s_printSpeed, fine, tool0, \WObj:=ob_RRC_workplace;
        MoveL [[453.3, 91.2, -452.2],[0.0000, 0.7071, 0.7071, 0.0000],[0,0,0,0],[9E9,9E9,9E9,9E9,9E9,9E9]], s_printSpeed, fine, tool0, \WObj:=ob_RRC_workplace;
        MoveL [[465.2, 91.5, -450.9],[0.0000, 0.7071, 0.7071, 0.0000],[0,0,0,0],[9E9,9E9,9E9,9E9,9E9,9E9]], s_printSpeed, fine, tool0, \WObj:=ob_RRC_workplace;
        MoveL [[477.2, 91.3, -451.8],[0.0000, 0.7071, 0.7071, 0.0000],[0,0,0,0],[9E9,9E9,9E9,9E9,9E9,9E9]], s_printSpeed, fine, tool0, \WObj:=ob_RRC_workplace;
        MoveL [[489.2, 91.1, -452.6],[0.0000, 0.7071, 0.7071, 0.0000],[0,0,0,0],[9E9,9E9,9E9,9E9,9E9,9E9]], s_printSpeed, fine, tool0, \WObj:=ob_RRC_workplace;
        MoveL [[501.1, 91.4, -451.5],[0.0000, 0.7071, 0.7071, 0.0000],[0,0,0,0],[9E9,9E9,9E9,9E9,9E9,9E9]], s_printSpeed, fine, tool0, \WObj:=ob_RRC_workplace;
        MoveL [[509.3, 93.2, -443.0],[0.0000, 0.7071, 0.7071, 0.0000],[0,0,0,0],[9E9,9E9,9E9,9E9,9E9,9E9]], s_printSpeed, fine, tool0, \WObj:=ob_RRC_workplace;
        MoveL [[510.4, 95.7, -431.3],[0.0000, 0.7071, 0.7071, 0.0000],[0,0,0,0],[9E9,9E9,9E9,9E9,9E9,9E9]], s_printSpeed, fine, tool0, \WObj:=ob_RRC_workplace;
        MoveL [[509.5, 98.2, -419.6],[0.0000, 0.7071, 0.7071, 0.0000],[0,0,0,0],[9E9,9E9,9E9,9E9,9E9,9E9]], s_printSpeed, fine, tool0, \WObj:=ob_RRC_workplace;
        MoveL [[508.8, 100.7, -407.9],[0.0000, 0.7071, 0.7071, 0.0000],[0,0,0,0],[9E9,9E9,9E9,9E9,9E9,9E9]], s_printSpeed, fine, tool0, \WObj:=ob_RRC_workplace;
        MoveL [[510.2, 103.1, -396.2],[0.0000, 0.7071, 0.7071, 0.0000],[0,0,0,0],[9E9,9E9,9E9,9E9,9E9,9E9]], s_printSpeed, fine, tool0, \WObj:=ob_RRC_workplace;
        MoveL [[520.1, 104.6, -389.5],[0.0000, 0.7071, 0.7071, 0.0000],[0,0,0,0],[9E9,9E9,9E9,9E9,9E9,9E9]], s_printSpeed, fine, tool0, \WObj:=ob_RRC_workplace;
        MoveL [[532.1, 104.5, -389.6],[0.0000, 0.7071, 0.7071, 0.0000],[0,0,0,0],[9E9,9E9,9E9,9E9,9E9,9E9]], s_printSpeed, fine, tool0, \WObj:=ob_RRC_workplace;
        MoveL [[544.1, 104.3, -390.8],[0.0000, 0.7071, 0.7071, 0.0000],[0,0,0,0],[9E9,9E9,9E9,9E9,9E9,9E9]], s_printSpeed, fine, tool0, \WObj:=ob_RRC_workplace;
        MoveL [[556.1, 104.2, -391.2],[0.0000, 0.7071, 0.7071, 0.0000],[0,0,0,0],[9E9,9E9,9E9,9E9,9E9,9E9]], s_printSpeed, fine, tool0, \WObj:=ob_RRC_workplace;
        MoveL [[567.6, 104.9, -388.1],[0.0000, 0.7071, 0.7071, 0.0000],[0,0,0,0],[9E9,9E9,9E9,9E9,9E9,9E9]], s_printSpeed, fine, tool0, \WObj:=ob_RRC_workplace;
        MoveL [[574.9, 106.9, -378.7],[0.0000, 0.7071, 0.7071, 0.0000],[0,0,0,0],[9E9,9E9,9E9,9E9,9E9,9E9]], s_printSpeed, fine, tool0, \WObj:=ob_RRC_workplace;
        MoveL [[577.8, 109.3, -367.3],[0.0000, 0.7071, 0.7071, 0.0000],[0,0,0,0],[9E9,9E9,9E9,9E9,9E9,9E9]], s_printSpeed, fine, tool0, \WObj:=ob_RRC_workplace;
        MoveL [[579.1, 111.8, -355.7],[0.0000, 0.7071, 0.7071, 0.0000],[0,0,0,0],[9E9,9E9,9E9,9E9,9E9,9E9]], s_printSpeed, fine, tool0, \WObj:=ob_RRC_workplace;
        MoveL [[580.0, 114.3, -344.0],[0.0000, 0.7071, 0.7071, 0.0000],[0,0,0,0],[9E9,9E9,9E9,9E9,9E9,9E9]], s_printSpeed, fine, tool0, \WObj:=ob_RRC_workplace;
        MoveL [[583.2, 116.7, -332.7],[0.0000, 0.7071, 0.7071, 0.0000],[0,0,0,0],[9E9,9E9,9E9,9E9,9E9,9E9]], s_printSpeed, fine, tool0, \WObj:=ob_RRC_workplace;
        MoveL [[594.9, 116.1, -335.4],[0.0000, 0.7071, 0.7071, 0.0000],[0,0,0,0],[9E9,9E9,9E9,9E9,9E9,9E9]], s_printSpeed, fine, tool0, \WObj:=ob_RRC_workplace;
        MoveL [[604.6, 114.6, -342.3],[0.0000, 0.7071, 0.7071, 0.0000],[0,0,0,0],[9E9,9E9,9E9,9E9,9E9,9E9]], s_printSpeed, fine, tool0, \WObj:=ob_RRC_workplace;
        MoveL [[614.5, 113.2, -348.8],[0.0000, 0.7071, 0.7071, 0.0000],[0,0,0,0],[9E9,9E9,9E9,9E9,9E9,9E9]], s_printSpeed, fine, tool0, \WObj:=ob_RRC_workplace;
        MoveL [[625.3, 112.1, -354.0],[0.0000, 0.7071, 0.7071, 0.0000],[0,0,0,0],[9E9,9E9,9E9,9E9,9E9,9E9]], s_printSpeed, fine, tool0, \WObj:=ob_RRC_workplace;
        MoveL [[637.2, 111.8, -355.6],[0.0000, 0.7071, 0.7071, 0.0000],[0,0,0,0],[9E9,9E9,9E9,9E9,9E9,9E9]], s_printSpeed, fine, tool0, \WObj:=ob_RRC_workplace;
        MoveL [[648.8, 112.4, -352.5],[0.0000, 0.7071, 0.7071, 0.0000],[0,0,0,0],[9E9,9E9,9E9,9E9,9E9,9E9]], s_printSpeed, fine, tool0, \WObj:=ob_RRC_workplace;
        MoveL [[659.2, 113.7, -346.8],[0.0000, 0.7071, 0.7071, 0.0000],[0,0,0,0],[9E9,9E9,9E9,9E9,9E9,9E9]], s_printSpeed, fine, tool0, \WObj:=ob_RRC_workplace;
        MoveL [[669.0, 115.1, -340.0],[0.0000, 0.7071, 0.7071, 0.0000],[0,0,0,0],[9E9,9E9,9E9,9E9,9E9,9E9]], s_printSpeed, fine, tool0, \WObj:=ob_RRC_workplace;
        MoveL [[678.9, 116.5, -333.3],[0.0000, 0.7071, 0.7071, 0.0000],[0,0,0,0],[9E9,9E9,9E9,9E9,9E9,9E9]], s_printSpeed, fine, tool0, \WObj:=ob_RRC_workplace;
        MoveL [[689.6, 115.4, -338.6],[0.0000, 0.7071, 0.7071, 0.0000],[0,0,0,0],[9E9,9E9,9E9,9E9,9E9,9E9]], s_printSpeed, fine, tool0, \WObj:=ob_RRC_workplace;
        MoveL [[690.9, 112.9, -350.3],[0.0000, 0.7071, 0.7071, 0.0000],[0,0,0,0],[9E9,9E9,9E9,9E9,9E9,9E9]], s_printSpeed, fine, tool0, \WObj:=ob_RRC_workplace;
        MoveL [[691.9, 110.4, -362.0],[0.0000, 0.7071, 0.7071, 0.0000],[0,0,0,0],[9E9,9E9,9E9,9E9,9E9,9E9]], s_printSpeed, fine, tool0, \WObj:=ob_RRC_workplace;
        MoveL [[693.8, 108.0, -373.5],[0.0000, 0.7071, 0.7071, 0.0000],[0,0,0,0],[9E9,9E9,9E9,9E9,9E9,9E9]], s_printSpeed, fine, tool0, \WObj:=ob_RRC_workplace;
        MoveL [[698.6, 105.7, -384.3],[0.0000, 0.7071, 0.7071, 0.0000],[0,0,0,0],[9E9,9E9,9E9,9E9,9E9,9E9]], s_printSpeed, fine, tool0, \WObj:=ob_RRC_workplace;
        MoveL [[708.8, 104.4, -390.4],[0.0000, 0.7071, 0.7071, 0.0000],[0,0,0,0],[9E9,9E9,9E9,9E9,9E9,9E9]], s_printSpeed, fine, tool0, \WObj:=ob_RRC_workplace;
        MoveL [[720.8, 104.2, -391.2],[0.0000, 0.7071, 0.7071, 0.0000],[0,0,0,0],[9E9,9E9,9E9,9E9,9E9,9E9]], s_printSpeed, fine, tool0, \WObj:=ob_RRC_workplace;
        MoveL [[732.8, 104.4, -390.2],[0.0000, 0.7071, 0.7071, 0.0000],[0,0,0,0],[9E9,9E9,9E9,9E9,9E9,9E9]], s_printSpeed, fine, tool0, \WObj:=ob_RRC_workplace;
        MoveL [[744.7, 104.6, -389.3],[0.0000, 0.7071, 0.7071, 0.0000],[0,0,0,0],[9E9,9E9,9E9,9E9,9E9,9E9]], s_printSpeed, fine, tool0, \WObj:=ob_RRC_workplace;
        MoveL [[756.5, 104.1, -391.6],[0.0000, 0.7071, 0.7071, 0.0000],[0,0,0,0],[9E9,9E9,9E9,9E9,9E9,9E9]], s_printSpeed, fine, tool0, \WObj:=ob_RRC_workplace;
        MoveL [[761.5, 101.9, -402.3],[0.0000, 0.7071, 0.7071, 0.0000],[0,0,0,0],[9E9,9E9,9E9,9E9,9E9,9E9]], s_printSpeed, fine, tool0, \WObj:=ob_RRC_workplace;
        MoveL [[761.3, 99.4, -414.0],[0.0000, 0.7071, 0.7071, 0.0000],[0,0,0,0],[9E9,9E9,9E9,9E9,9E9,9E9]], s_printSpeed, fine, tool0, \WObj:=ob_RRC_workplace;
        MoveL [[760.3, 96.9, -425.7],[0.0000, 0.7071, 0.7071, 0.0000],[0,0,0,0],[9E9,9E9,9E9,9E9,9E9,9E9]], s_printSpeed, fine, tool0, \WObj:=ob_RRC_workplace;
        MoveL [[760.1, 94.4, -437.4],[0.0000, 0.7071, 0.7071, 0.0000],[0,0,0,0],[9E9,9E9,9E9,9E9,9E9,9E9]], s_printSpeed, fine, tool0, \WObj:=ob_RRC_workplace;
        MoveL [[764.1, 92.0, -448.5],[0.0000, 0.7071, 0.7071, 0.0000],[0,0,0,0],[9E9,9E9,9E9,9E9,9E9,9E9]], s_printSpeed, fine, tool0, \WObj:=ob_RRC_workplace;
        MoveL [[775.3, 91.2, -452.6],[0.0000, 0.7071, 0.7071, 0.0000],[0,0,0,0],[9E9,9E9,9E9,9E9,9E9,9E9]], s_printSpeed, fine, tool0, \WObj:=ob_RRC_workplace;
        MoveL [[787.3, 91.2, -452.3],[0.0000, 0.7071, 0.7071, 0.0000],[0,0,0,0],[9E9,9E9,9E9,9E9,9E9,9E9]], s_printSpeed, fine, tool0, \WObj:=ob_RRC_workplace;
        MoveL [[799.3, 91.4, -451.2],[0.0000, 0.7071, 0.7071, 0.0000],[0,0,0,0],[9E9,9E9,9E9,9E9,9E9,9E9]], s_printSpeed, fine, tool0, \WObj:=ob_RRC_workplace;
        MoveL [[811.3, 91.5, -451.1],[0.0000, 0.7071, 0.7071, 0.0000],[0,0,0,0],[9E9,9E9,9E9,9E9,9E9,9E9]], s_printSpeed, fine, tool0, \WObj:=ob_RRC_workplace;
        MoveL [[822.3, 90.5, -455.8],[0.0000, 0.7071, 0.7071, 0.0000],[0,0,0,0],[9E9,9E9,9E9,9E9,9E9,9E9]], s_printSpeed, fine, tool0, \WObj:=ob_RRC_workplace;
        MoveL [[825.3, 88.0, -467.2],[0.0000, 0.7071, 0.7071, 0.0000],[0,0,0,0],[9E9,9E9,9E9,9E9,9E9,9E9]], s_printSpeed, fine, tool0, \WObj:=ob_RRC_workplace;
        MoveL [[824.8, 85.6, -478.9],[0.0000, 0.7071, 0.7071, 0.0000],[0,0,0,0],[9E9,9E9,9E9,9E9,9E9,9E9]], s_printSpeed, fine, tool0, \WObj:=ob_RRC_workplace;
        MoveL [[823.8, 83.1, -490.6],[0.0000, 0.7071, 0.7071, 0.0000],[0,0,0,0],[9E9,9E9,9E9,9E9,9E9,9E9]], s_printSpeed, fine, tool0, \WObj:=ob_RRC_workplace;
        MoveL [[824.0, 80.6, -502.3],[0.0000, 0.7071, 0.7071, 0.0000],[0,0,0,0],[9E9,9E9,9E9,9E9,9E9,9E9]], s_printSpeed, fine, tool0, \WObj:=ob_RRC_workplace;
        MoveL [[830.0, 78.4, -512.5],[0.0000, 0.7071, 0.7071, 0.0000],[0,0,0,0],[9E9,9E9,9E9,9E9,9E9,9E9]], s_printSpeed, fine, tool0, \WObj:=ob_RRC_workplace;
        MoveL [[841.8, 77.9, -514.8],[0.0000, 0.7071, 0.7071, 0.0000],[0,0,0,0],[9E9,9E9,9E9,9E9,9E9,9E9]], s_printSpeed, fine, tool0, \WObj:=ob_RRC_workplace;
        MoveL [[853.8, 78.0, -514.3],[0.0000, 0.7071, 0.7071, 0.0000],[0,0,0,0],[9E9,9E9,9E9,9E9,9E9,9E9]], s_printSpeed, fine, tool0, \WObj:=ob_RRC_workplace;
        MoveL [[865.7, 78.2, -513.4],[0.0000, 0.7071, 0.7071, 0.0000],[0,0,0,0],[9E9,9E9,9E9,9E9,9E9,9E9]], s_printSpeed, fine, tool0, \WObj:=ob_RRC_workplace;
        MoveL [[877.7, 78.1, -513.8],[0.0000, 0.7071, 0.7071, 0.0000],[0,0,0,0],[9E9,9E9,9E9,9E9,9E9,9E9]], s_printSpeed, fine, tool0, \WObj:=ob_RRC_workplace;
        MoveL [[887.5, 76.7, -520.6],[0.0000, 0.7071, 0.7071, 0.0000],[0,0,0,0],[9E9,9E9,9E9,9E9,9E9,9E9]], s_printSpeed, fine, tool0, \WObj:=ob_RRC_workplace;
        MoveL [[889.3, 74.2, -532.2],[0.0000, 0.7071, 0.7071, 0.0000],[0,0,0,0],[9E9,9E9,9E9,9E9,9E9,9E9]], s_printSpeed, fine, tool0, \WObj:=ob_RRC_workplace;
        MoveL [[888.7, 71.7, -543.9],[0.0000, 0.7071, 0.7071, 0.0000],[0,0,0,0],[9E9,9E9,9E9,9E9,9E9,9E9]], s_printSpeed, fine, tool0, \WObj:=ob_RRC_workplace;
        MoveL [[887.9, 69.2, -555.6],[0.0000, 0.7071, 0.7071, 0.0000],[0,0,0,0],[9E9,9E9,9E9,9E9,9E9,9E9]], s_printSpeed, fine, tool0, \WObj:=ob_RRC_workplace;
        MoveL [[888.8, 66.7, -567.3],[0.0000, 0.7071, 0.7071, 0.0000],[0,0,0,0],[9E9,9E9,9E9,9E9,9E9,9E9]], s_printSpeed, fine, tool0, \WObj:=ob_RRC_workplace;
        MoveL [[895.2, 64.6, -577.3],[0.0000, 0.7071, 0.7071, 0.0000],[0,0,0,0],[9E9,9E9,9E9,9E9,9E9,9E9]], s_printSpeed, fine, tool0, \WObj:=ob_RRC_workplace;
        MoveL [[906.4, 63.7, -581.6],[0.0000, 0.7071, 0.7071, 0.0000],[0,0,0,0],[9E9,9E9,9E9,9E9,9E9,9E9]], s_printSpeed, fine, tool0, \WObj:=ob_RRC_workplace;
        MoveL [[918.3, 63.5, -582.5],[0.0000, 0.7071, 0.7071, 0.0000],[0,0,0,0],[9E9,9E9,9E9,9E9,9E9,9E9]], s_printSpeed, fine, tool0, \WObj:=ob_RRC_workplace;
        MoveL [[930.3, 63.7, -581.7],[0.0000, 0.7071, 0.7071, 0.0000],[0,0,0,0],[9E9,9E9,9E9,9E9,9E9,9E9]], s_printSpeed, fine, tool0, \WObj:=ob_RRC_workplace;
        MoveL [[942.1, 64.1, -579.8],[0.0000, 0.7071, 0.7071, 0.0000],[0,0,0,0],[9E9,9E9,9E9,9E9,9E9,9E9]], s_printSpeed, fine, tool0, \WObj:=ob_RRC_workplace;
    ! layer end
        MoveL [[322.5, 64.7, -578.6],[0.0000, 0.7071, 0.7071, 0.0000],[0,0,0,0],[9E9,9E9,9E9,9E9,9E9,9E9]], s_printSpeed, fine, tool0, \WObj:=ob_RRC_workplace;
        MoveL [[334.2, 64.2, -580.9],[0.0000, 0.7071, 0.7071, 0.0000],[0,0,0,0],[9E9,9E9,9E9,9E9,9E9,9E9]], s_printSpeed, fine, tool0, \WObj:=ob_RRC_workplace;
        MoveL [[346.2, 63.9, -582.3],[0.0000, 0.7071, 0.7071, 0.0000],[0,0,0,0],[9E9,9E9,9E9,9E9,9E9,9E9]], s_printSpeed, fine, tool0, \WObj:=ob_RRC_workplace;
        MoveL [[358.2, 63.8, -582.3],[0.0000, 0.7071, 0.7071, 0.0000],[0,0,0,0],[9E9,9E9,9E9,9E9,9E9,9E9]], s_printSpeed, fine, tool0, \WObj:=ob_RRC_workplace;
        MoveL [[369.9, 64.4, -580.0],[0.0000, 0.7071, 0.7071, 0.0000],[0,0,0,0],[9E9,9E9,9E9,9E9,9E9,9E9]], s_printSpeed, fine, tool0, \WObj:=ob_RRC_workplace;
        MoveL [[379.4, 66.0, -572.8],[0.0000, 0.7071, 0.7071, 0.0000],[0,0,0,0],[9E9,9E9,9E9,9E9,9E9,9E9]], s_printSpeed, fine, tool0, \WObj:=ob_RRC_workplace;
        MoveL [[382.4, 68.5, -561.5],[0.0000, 0.7071, 0.7071, 0.0000],[0,0,0,0],[9E9,9E9,9E9,9E9,9E9,9E9]], s_printSpeed, fine, tool0, \WObj:=ob_RRC_workplace;
        MoveL [[382.2, 71.1, -549.8],[0.0000, 0.7071, 0.7071, 0.0000],[0,0,0,0],[9E9,9E9,9E9,9E9,9E9,9E9]], s_printSpeed, fine, tool0, \WObj:=ob_RRC_workplace;
        MoveL [[381.3, 73.7, -538.1],[0.0000, 0.7071, 0.7071, 0.0000],[0,0,0,0],[9E9,9E9,9E9,9E9,9E9,9E9]], s_printSpeed, fine, tool0, \WObj:=ob_RRC_workplace;
        MoveL [[381.4, 76.3, -526.4],[0.0000, 0.7071, 0.7071, 0.0000],[0,0,0,0],[9E9,9E9,9E9,9E9,9E9,9E9]], s_printSpeed, fine, tool0, \WObj:=ob_RRC_workplace;
        MoveL [[386.9, 78.6, -516.0],[0.0000, 0.7071, 0.7071, 0.0000],[0,0,0,0],[9E9,9E9,9E9,9E9,9E9,9E9]], s_printSpeed, fine, tool0, \WObj:=ob_RRC_workplace;
        MoveL [[398.6, 79.1, -513.4],[0.0000, 0.7071, 0.7071, 0.0000],[0,0,0,0],[9E9,9E9,9E9,9E9,9E9,9E9]], s_printSpeed, fine, tool0, \WObj:=ob_RRC_workplace;
        MoveL [[410.6, 79.0, -513.9],[0.0000, 0.7071, 0.7071, 0.0000],[0,0,0,0],[9E9,9E9,9E9,9E9,9E9,9E9]], s_printSpeed, fine, tool0, \WObj:=ob_RRC_workplace;
        MoveL [[422.6, 78.8, -514.8],[0.0000, 0.7071, 0.7071, 0.0000],[0,0,0,0],[9E9,9E9,9E9,9E9,9E9,9E9]], s_printSpeed, fine, tool0, \WObj:=ob_RRC_workplace;
        MoveL [[434.6, 78.9, -514.5],[0.0000, 0.7071, 0.7071, 0.0000],[0,0,0,0],[9E9,9E9,9E9,9E9,9E9,9E9]], s_printSpeed, fine, tool0, \WObj:=ob_RRC_workplace;
        MoveL [[444.7, 80.3, -508.2],[0.0000, 0.7071, 0.7071, 0.0000],[0,0,0,0],[9E9,9E9,9E9,9E9,9E9,9E9]], s_printSpeed, fine, tool0, \WObj:=ob_RRC_workplace;
        MoveL [[446.8, 82.9, -496.7],[0.0000, 0.7071, 0.7071, 0.0000],[0,0,0,0],[9E9,9E9,9E9,9E9,9E9,9E9]], s_printSpeed, fine, tool0, \WObj:=ob_RRC_workplace;
        MoveL [[446.1, 85.5, -485.0],[0.0000, 0.7071, 0.7071, 0.0000],[0,0,0,0],[9E9,9E9,9E9,9E9,9E9,9E9]], s_printSpeed, fine, tool0, \WObj:=ob_RRC_workplace;
        MoveL [[445.2, 88.1, -473.3],[0.0000, 0.7071, 0.7071, 0.0000],[0,0,0,0],[9E9,9E9,9E9,9E9,9E9,9E9]], s_printSpeed, fine, tool0, \WObj:=ob_RRC_workplace;
        MoveL [[445.7, 90.6, -461.6],[0.0000, 0.7071, 0.7071, 0.0000],[0,0,0,0],[9E9,9E9,9E9,9E9,9E9,9E9]], s_printSpeed, fine, tool0, \WObj:=ob_RRC_workplace;
        MoveL [[453.3, 92.7, -452.5],[0.0000, 0.7071, 0.7071, 0.0000],[0,0,0,0],[9E9,9E9,9E9,9E9,9E9,9E9]], s_printSpeed, fine, tool0, \WObj:=ob_RRC_workplace;
        MoveL [[465.2, 93.0, -451.2],[0.0000, 0.7071, 0.7071, 0.0000],[0,0,0,0],[9E9,9E9,9E9,9E9,9E9,9E9]], s_printSpeed, fine, tool0, \WObj:=ob_RRC_workplace;
        MoveL [[477.2, 92.8, -452.0],[0.0000, 0.7071, 0.7071, 0.0000],[0,0,0,0],[9E9,9E9,9E9,9E9,9E9,9E9]], s_printSpeed, fine, tool0, \WObj:=ob_RRC_workplace;
        MoveL [[489.2, 92.6, -452.9],[0.0000, 0.7071, 0.7071, 0.0000],[0,0,0,0],[9E9,9E9,9E9,9E9,9E9,9E9]], s_printSpeed, fine, tool0, \WObj:=ob_RRC_workplace;
        MoveL [[501.1, 92.8, -451.8],[0.0000, 0.7071, 0.7071, 0.0000],[0,0,0,0],[9E9,9E9,9E9,9E9,9E9,9E9]], s_printSpeed, fine, tool0, \WObj:=ob_RRC_workplace;
        MoveL [[509.3, 94.7, -443.2],[0.0000, 0.7071, 0.7071, 0.0000],[0,0,0,0],[9E9,9E9,9E9,9E9,9E9,9E9]], s_printSpeed, fine, tool0, \WObj:=ob_RRC_workplace;
        MoveL [[510.4, 97.3, -431.6],[0.0000, 0.7071, 0.7071, 0.0000],[0,0,0,0],[9E9,9E9,9E9,9E9,9E9,9E9]], s_printSpeed, fine, tool0, \WObj:=ob_RRC_workplace;
        MoveL [[509.5, 99.9, -419.9],[0.0000, 0.7071, 0.7071, 0.0000],[0,0,0,0],[9E9,9E9,9E9,9E9,9E9,9E9]], s_printSpeed, fine, tool0, \WObj:=ob_RRC_workplace;
        MoveL [[508.8, 102.5, -408.2],[0.0000, 0.7071, 0.7071, 0.0000],[0,0,0,0],[9E9,9E9,9E9,9E9,9E9,9E9]], s_printSpeed, fine, tool0, \WObj:=ob_RRC_workplace;
        MoveL [[510.2, 105.1, -396.6],[0.0000, 0.7071, 0.7071, 0.0000],[0,0,0,0],[9E9,9E9,9E9,9E9,9E9,9E9]], s_printSpeed, fine, tool0, \WObj:=ob_RRC_workplace;
        MoveL [[520.1, 106.6, -389.9],[0.0000, 0.7071, 0.7071, 0.0000],[0,0,0,0],[9E9,9E9,9E9,9E9,9E9,9E9]], s_printSpeed, fine, tool0, \WObj:=ob_RRC_workplace;
        MoveL [[532.1, 106.5, -390.0],[0.0000, 0.7071, 0.7071, 0.0000],[0,0,0,0],[9E9,9E9,9E9,9E9,9E9,9E9]], s_printSpeed, fine, tool0, \WObj:=ob_RRC_workplace;
        MoveL [[544.1, 106.3, -391.2],[0.0000, 0.7071, 0.7071, 0.0000],[0,0,0,0],[9E9,9E9,9E9,9E9,9E9,9E9]], s_printSpeed, fine, tool0, \WObj:=ob_RRC_workplace;
        MoveL [[556.1, 106.2, -391.5],[0.0000, 0.7071, 0.7071, 0.0000],[0,0,0,0],[9E9,9E9,9E9,9E9,9E9,9E9]], s_printSpeed, fine, tool0, \WObj:=ob_RRC_workplace;
        MoveL [[567.6, 106.9, -388.5],[0.0000, 0.7071, 0.7071, 0.0000],[0,0,0,0],[9E9,9E9,9E9,9E9,9E9,9E9]], s_printSpeed, fine, tool0, \WObj:=ob_RRC_workplace;
        MoveL [[574.9, 109.0, -379.1],[0.0000, 0.7071, 0.7071, 0.0000],[0,0,0,0],[9E9,9E9,9E9,9E9,9E9,9E9]], s_printSpeed, fine, tool0, \WObj:=ob_RRC_workplace;
        MoveL [[577.8, 111.5, -367.8],[0.0000, 0.7071, 0.7071, 0.0000],[0,0,0,0],[9E9,9E9,9E9,9E9,9E9,9E9]], s_printSpeed, fine, tool0, \WObj:=ob_RRC_workplace;
        MoveL [[579.1, 114.1, -356.1],[0.0000, 0.7071, 0.7071, 0.0000],[0,0,0,0],[9E9,9E9,9E9,9E9,9E9,9E9]], s_printSpeed, fine, tool0, \WObj:=ob_RRC_workplace;
        MoveL [[580.0, 116.7, -344.4],[0.0000, 0.7071, 0.7071, 0.0000],[0,0,0,0],[9E9,9E9,9E9,9E9,9E9,9E9]], s_printSpeed, fine, tool0, \WObj:=ob_RRC_workplace;
        MoveL [[583.2, 119.2, -333.1],[0.0000, 0.7071, 0.7071, 0.0000],[0,0,0,0],[9E9,9E9,9E9,9E9,9E9,9E9]], s_printSpeed, fine, tool0, \WObj:=ob_RRC_workplace;
        MoveL [[594.9, 118.6, -335.8],[0.0000, 0.7071, 0.7071, 0.0000],[0,0,0,0],[9E9,9E9,9E9,9E9,9E9,9E9]], s_printSpeed, fine, tool0, \WObj:=ob_RRC_workplace;
        MoveL [[604.6, 117.0, -342.7],[0.0000, 0.7071, 0.7071, 0.0000],[0,0,0,0],[9E9,9E9,9E9,9E9,9E9,9E9]], s_printSpeed, fine, tool0, \WObj:=ob_RRC_workplace;
        MoveL [[614.5, 115.6, -349.3],[0.0000, 0.7071, 0.7071, 0.0000],[0,0,0,0],[9E9,9E9,9E9,9E9,9E9,9E9]], s_printSpeed, fine, tool0, \WObj:=ob_RRC_workplace;
        MoveL [[625.3, 114.4, -354.4],[0.0000, 0.7071, 0.7071, 0.0000],[0,0,0,0],[9E9,9E9,9E9,9E9,9E9,9E9]], s_printSpeed, fine, tool0, \WObj:=ob_RRC_workplace;
        MoveL [[637.2, 114.1, -356.1],[0.0000, 0.7071, 0.7071, 0.0000],[0,0,0,0],[9E9,9E9,9E9,9E9,9E9,9E9]], s_printSpeed, fine, tool0, \WObj:=ob_RRC_workplace;
        MoveL [[648.8, 114.8, -353.0],[0.0000, 0.7071, 0.7071, 0.0000],[0,0,0,0],[9E9,9E9,9E9,9E9,9E9,9E9]], s_printSpeed, fine, tool0, \WObj:=ob_RRC_workplace;
        MoveL [[659.2, 116.0, -347.2],[0.0000, 0.7071, 0.7071, 0.0000],[0,0,0,0],[9E9,9E9,9E9,9E9,9E9,9E9]], s_printSpeed, fine, tool0, \WObj:=ob_RRC_workplace;
        MoveL [[669.0, 117.5, -340.4],[0.0000, 0.7071, 0.7071, 0.0000],[0,0,0,0],[9E9,9E9,9E9,9E9,9E9,9E9]], s_printSpeed, fine, tool0, \WObj:=ob_RRC_workplace;
        MoveL [[678.9, 119.0, -333.8],[0.0000, 0.7071, 0.7071, 0.0000],[0,0,0,0],[9E9,9E9,9E9,9E9,9E9,9E9]], s_printSpeed, fine, tool0, \WObj:=ob_RRC_workplace;
        MoveL [[689.6, 117.8, -339.1],[0.0000, 0.7071, 0.7071, 0.0000],[0,0,0,0],[9E9,9E9,9E9,9E9,9E9,9E9]], s_printSpeed, fine, tool0, \WObj:=ob_RRC_workplace;
        MoveL [[690.9, 115.3, -350.7],[0.0000, 0.7071, 0.7071, 0.0000],[0,0,0,0],[9E9,9E9,9E9,9E9,9E9,9E9]], s_printSpeed, fine, tool0, \WObj:=ob_RRC_workplace;
        MoveL [[691.9, 112.7, -362.4],[0.0000, 0.7071, 0.7071, 0.0000],[0,0,0,0],[9E9,9E9,9E9,9E9,9E9,9E9]], s_printSpeed, fine, tool0, \WObj:=ob_RRC_workplace;
        MoveL [[693.8, 110.1, -373.9],[0.0000, 0.7071, 0.7071, 0.0000],[0,0,0,0],[9E9,9E9,9E9,9E9,9E9,9E9]], s_printSpeed, fine, tool0, \WObj:=ob_RRC_workplace;
        MoveL [[698.6, 107.7, -384.7],[0.0000, 0.7071, 0.7071, 0.0000],[0,0,0,0],[9E9,9E9,9E9,9E9,9E9,9E9]], s_printSpeed, fine, tool0, \WObj:=ob_RRC_workplace;
        MoveL [[708.8, 106.4, -390.8],[0.0000, 0.7071, 0.7071, 0.0000],[0,0,0,0],[9E9,9E9,9E9,9E9,9E9,9E9]], s_printSpeed, fine, tool0, \WObj:=ob_RRC_workplace;
        MoveL [[720.8, 106.2, -391.5],[0.0000, 0.7071, 0.7071, 0.0000],[0,0,0,0],[9E9,9E9,9E9,9E9,9E9,9E9]], s_printSpeed, fine, tool0, \WObj:=ob_RRC_workplace;
        MoveL [[732.8, 106.4, -390.5],[0.0000, 0.7071, 0.7071, 0.0000],[0,0,0,0],[9E9,9E9,9E9,9E9,9E9,9E9]], s_printSpeed, fine, tool0, \WObj:=ob_RRC_workplace;
        MoveL [[744.7, 106.6, -389.6],[0.0000, 0.7071, 0.7071, 0.0000],[0,0,0,0],[9E9,9E9,9E9,9E9,9E9,9E9]], s_printSpeed, fine, tool0, \WObj:=ob_RRC_workplace;
        MoveL [[756.5, 106.1, -392.0],[0.0000, 0.7071, 0.7071, 0.0000],[0,0,0,0],[9E9,9E9,9E9,9E9,9E9,9E9]], s_printSpeed, fine, tool0, \WObj:=ob_RRC_workplace;
        MoveL [[761.5, 103.7, -402.6],[0.0000, 0.7071, 0.7071, 0.0000],[0,0,0,0],[9E9,9E9,9E9,9E9,9E9,9E9]], s_printSpeed, fine, tool0, \WObj:=ob_RRC_workplace;
        MoveL [[761.3, 101.1, -414.3],[0.0000, 0.7071, 0.7071, 0.0000],[0,0,0,0],[9E9,9E9,9E9,9E9,9E9,9E9]], s_printSpeed, fine, tool0, \WObj:=ob_RRC_workplace;
        MoveL [[760.3, 98.5, -426.0],[0.0000, 0.7071, 0.7071, 0.0000],[0,0,0,0],[9E9,9E9,9E9,9E9,9E9,9E9]], s_printSpeed, fine, tool0, \WObj:=ob_RRC_workplace;
        MoveL [[760.1, 95.9, -437.7],[0.0000, 0.7071, 0.7071, 0.0000],[0,0,0,0],[9E9,9E9,9E9,9E9,9E9,9E9]], s_printSpeed, fine, tool0, \WObj:=ob_RRC_workplace;
        MoveL [[764.1, 93.5, -448.8],[0.0000, 0.7071, 0.7071, 0.0000],[0,0,0,0],[9E9,9E9,9E9,9E9,9E9,9E9]], s_printSpeed, fine, tool0, \WObj:=ob_RRC_workplace;
        MoveL [[775.3, 92.6, -452.8],[0.0000, 0.7071, 0.7071, 0.0000],[0,0,0,0],[9E9,9E9,9E9,9E9,9E9,9E9]], s_printSpeed, fine, tool0, \WObj:=ob_RRC_workplace;
        MoveL [[787.3, 92.7, -452.5],[0.0000, 0.7071, 0.7071, 0.0000],[0,0,0,0],[9E9,9E9,9E9,9E9,9E9,9E9]], s_printSpeed, fine, tool0, \WObj:=ob_RRC_workplace;
        MoveL [[799.3, 92.9, -451.5],[0.0000, 0.7071, 0.7071, 0.0000],[0,0,0,0],[9E9,9E9,9E9,9E9,9E9,9E9]], s_printSpeed, fine, tool0, \WObj:=ob_RRC_workplace;
        MoveL [[811.3, 92.9, -451.3],[0.0000, 0.7071, 0.7071, 0.0000],[0,0,0,0],[9E9,9E9,9E9,9E9,9E9,9E9]], s_printSpeed, fine, tool0, \WObj:=ob_RRC_workplace;
        MoveL [[822.3, 91.9, -456.1],[0.0000, 0.7071, 0.7071, 0.0000],[0,0,0,0],[9E9,9E9,9E9,9E9,9E9,9E9]], s_printSpeed, fine, tool0, \WObj:=ob_RRC_workplace;
        MoveL [[825.3, 89.4, -467.4],[0.0000, 0.7071, 0.7071, 0.0000],[0,0,0,0],[9E9,9E9,9E9,9E9,9E9,9E9]], s_printSpeed, fine, tool0, \WObj:=ob_RRC_workplace;
        MoveL [[824.8, 86.8, -479.1],[0.0000, 0.7071, 0.7071, 0.0000],[0,0,0,0],[9E9,9E9,9E9,9E9,9E9,9E9]], s_printSpeed, fine, tool0, \WObj:=ob_RRC_workplace;
        MoveL [[823.8, 84.2, -490.8],[0.0000, 0.7071, 0.7071, 0.0000],[0,0,0,0],[9E9,9E9,9E9,9E9,9E9,9E9]], s_printSpeed, fine, tool0, \WObj:=ob_RRC_workplace;
        MoveL [[824.0, 81.6, -502.5],[0.0000, 0.7071, 0.7071, 0.0000],[0,0,0,0],[9E9,9E9,9E9,9E9,9E9,9E9]], s_printSpeed, fine, tool0, \WObj:=ob_RRC_workplace;
        MoveL [[830.0, 79.3, -512.6],[0.0000, 0.7071, 0.7071, 0.0000],[0,0,0,0],[9E9,9E9,9E9,9E9,9E9,9E9]], s_printSpeed, fine, tool0, \WObj:=ob_RRC_workplace;
        MoveL [[841.8, 78.8, -515.0],[0.0000, 0.7071, 0.7071, 0.0000],[0,0,0,0],[9E9,9E9,9E9,9E9,9E9,9E9]], s_printSpeed, fine, tool0, \WObj:=ob_RRC_workplace;
        MoveL [[853.8, 78.9, -514.4],[0.0000, 0.7071, 0.7071, 0.0000],[0,0,0,0],[9E9,9E9,9E9,9E9,9E9,9E9]], s_printSpeed, fine, tool0, \WObj:=ob_RRC_workplace;
        MoveL [[865.7, 79.1, -513.5],[0.0000, 0.7071, 0.7071, 0.0000],[0,0,0,0],[9E9,9E9,9E9,9E9,9E9,9E9]], s_printSpeed, fine, tool0, \WObj:=ob_RRC_workplace;
        MoveL [[877.7, 79.0, -513.9],[0.0000, 0.7071, 0.7071, 0.0000],[0,0,0,0],[9E9,9E9,9E9,9E9,9E9,9E9]], s_printSpeed, fine, tool0, \WObj:=ob_RRC_workplace;
        MoveL [[887.5, 77.5, -520.7],[0.0000, 0.7071, 0.7071, 0.0000],[0,0,0,0],[9E9,9E9,9E9,9E9,9E9,9E9]], s_printSpeed, fine, tool0, \WObj:=ob_RRC_workplace;
        MoveL [[889.3, 75.0, -532.3],[0.0000, 0.7071, 0.7071, 0.0000],[0,0,0,0],[9E9,9E9,9E9,9E9,9E9,9E9]], s_printSpeed, fine, tool0, \WObj:=ob_RRC_workplace;
        MoveL [[888.7, 72.4, -544.0],[0.0000, 0.7071, 0.7071, 0.0000],[0,0,0,0],[9E9,9E9,9E9,9E9,9E9,9E9]], s_printSpeed, fine, tool0, \WObj:=ob_RRC_workplace;
        MoveL [[887.9, 69.8, -555.7],[0.0000, 0.7071, 0.7071, 0.0000],[0,0,0,0],[9E9,9E9,9E9,9E9,9E9,9E9]], s_printSpeed, fine, tool0, \WObj:=ob_RRC_workplace;
        MoveL [[888.8, 67.2, -567.4],[0.0000, 0.7071, 0.7071, 0.0000],[0,0,0,0],[9E9,9E9,9E9,9E9,9E9,9E9]], s_printSpeed, fine, tool0, \WObj:=ob_RRC_workplace;
        MoveL [[895.2, 65.0, -577.3],[0.0000, 0.7071, 0.7071, 0.0000],[0,0,0,0],[9E9,9E9,9E9,9E9,9E9,9E9]], s_printSpeed, fine, tool0, \WObj:=ob_RRC_workplace;
        MoveL [[906.4, 64.0, -581.6],[0.0000, 0.7071, 0.7071, 0.0000],[0,0,0,0],[9E9,9E9,9E9,9E9,9E9,9E9]], s_printSpeed, fine, tool0, \WObj:=ob_RRC_workplace;
        MoveL [[918.3, 63.8, -582.5],[0.0000, 0.7071, 0.7071, 0.0000],[0,0,0,0],[9E9,9E9,9E9,9E9,9E9,9E9]], s_printSpeed, fine, tool0, \WObj:=ob_RRC_workplace;
        MoveL [[930.3, 64.0, -581.7],[0.0000, 0.7071, 0.7071, 0.0000],[0,0,0,0],[9E9,9E9,9E9,9E9,9E9,9E9]], s_printSpeed, fine, tool0, \WObj:=ob_RRC_workplace;
        MoveL [[942.1, 64.4, -579.8],[0.0000, 0.7071, 0.7071, 0.0000],[0,0,0,0],[9E9,9E9,9E9,9E9,9E9,9E9]], s_printSpeed, fine, tool0, \WObj:=ob_RRC_workplace;
    ! layer end
        MoveL [[322.5, 65.0, -578.6],[0.0000, 0.7071, 0.7071, 0.0000],[0,0,0,0],[9E9,9E9,9E9,9E9,9E9,9E9]], s_printSpeed, fine, tool0, \WObj:=ob_RRC_workplace;
        MoveL [[334.2, 64.5, -580.9],[0.0000, 0.7071, 0.7071, 0.0000],[0,0,0,0],[9E9,9E9,9E9,9E9,9E9,9E9]], s_printSpeed, fine, tool0, \WObj:=ob_RRC_workplace;
        MoveL [[346.2, 64.2, -582.3],[0.0000, 0.7071, 0.7071, 0.0000],[0,0,0,0],[9E9,9E9,9E9,9E9,9E9,9E9]], s_printSpeed, fine, tool0, \WObj:=ob_RRC_workplace;
        MoveL [[358.2, 64.1, -582.3],[0.0000, 0.7071, 0.7071, 0.0000],[0,0,0,0],[9E9,9E9,9E9,9E9,9E9,9E9]], s_printSpeed, fine, tool0, \WObj:=ob_RRC_workplace;
        MoveL [[369.9, 64.7, -580.0],[0.0000, 0.7071, 0.7071, 0.0000],[0,0,0,0],[9E9,9E9,9E9,9E9,9E9,9E9]], s_printSpeed, fine, tool0, \WObj:=ob_RRC_workplace;
        MoveL [[379.4, 66.3, -572.8],[0.0000, 0.7071, 0.7071, 0.0000],[0,0,0,0],[9E9,9E9,9E9,9E9,9E9,9E9]], s_printSpeed, fine, tool0, \WObj:=ob_RRC_workplace;
        MoveL [[382.4, 69.0, -561.5],[0.0000, 0.7071, 0.7071, 0.0000],[0,0,0,0],[9E9,9E9,9E9,9E9,9E9,9E9]], s_printSpeed, fine, tool0, \WObj:=ob_RRC_workplace;
        MoveL [[382.2, 71.7, -549.8],[0.0000, 0.7071, 0.7071, 0.0000],[0,0,0,0],[9E9,9E9,9E9,9E9,9E9,9E9]], s_printSpeed, fine, tool0, \WObj:=ob_RRC_workplace;
        MoveL [[381.3, 74.4, -538.2],[0.0000, 0.7071, 0.7071, 0.0000],[0,0,0,0],[9E9,9E9,9E9,9E9,9E9,9E9]], s_printSpeed, fine, tool0, \WObj:=ob_RRC_workplace;
        MoveL [[381.4, 77.1, -526.5],[0.0000, 0.7071, 0.7071, 0.0000],[0,0,0,0],[9E9,9E9,9E9,9E9,9E9,9E9]], s_printSpeed, fine, tool0, \WObj:=ob_RRC_workplace;
        MoveL [[386.9, 79.5, -516.1],[0.0000, 0.7071, 0.7071, 0.0000],[0,0,0,0],[9E9,9E9,9E9,9E9,9E9,9E9]], s_printSpeed, fine, tool0, \WObj:=ob_RRC_workplace;
        MoveL [[398.6, 80.0, -513.6],[0.0000, 0.7071, 0.7071, 0.0000],[0,0,0,0],[9E9,9E9,9E9,9E9,9E9,9E9]], s_printSpeed, fine, tool0, \WObj:=ob_RRC_workplace;
        MoveL [[410.6, 79.9, -514.1],[0.0000, 0.7071, 0.7071, 0.0000],[0,0,0,0],[9E9,9E9,9E9,9E9,9E9,9E9]], s_printSpeed, fine, tool0, \WObj:=ob_RRC_workplace;
        MoveL [[422.6, 79.7, -515.0],[0.0000, 0.7071, 0.7071, 0.0000],[0,0,0,0],[9E9,9E9,9E9,9E9,9E9,9E9]], s_printSpeed, fine, tool0, \WObj:=ob_RRC_workplace;
        MoveL [[434.6, 79.8, -514.6],[0.0000, 0.7071, 0.7071, 0.0000],[0,0,0,0],[9E9,9E9,9E9,9E9,9E9,9E9]], s_printSpeed, fine, tool0, \WObj:=ob_RRC_workplace;
        MoveL [[444.7, 81.3, -508.3],[0.0000, 0.7071, 0.7071, 0.0000],[0,0,0,0],[9E9,9E9,9E9,9E9,9E9,9E9]], s_printSpeed, fine, tool0, \WObj:=ob_RRC_workplace;
        MoveL [[446.8, 83.9, -496.8],[0.0000, 0.7071, 0.7071, 0.0000],[0,0,0,0],[9E9,9E9,9E9,9E9,9E9,9E9]], s_printSpeed, fine, tool0, \WObj:=ob_RRC_workplace;
        MoveL [[446.1, 86.6, -485.2],[0.0000, 0.7071, 0.7071, 0.0000],[0,0,0,0],[9E9,9E9,9E9,9E9,9E9,9E9]], s_printSpeed, fine, tool0, \WObj:=ob_RRC_workplace;
        MoveL [[445.2, 89.3, -473.5],[0.0000, 0.7071, 0.7071, 0.0000],[0,0,0,0],[9E9,9E9,9E9,9E9,9E9,9E9]], s_printSpeed, fine, tool0, \WObj:=ob_RRC_workplace;
        MoveL [[445.7, 92.0, -461.8],[0.0000, 0.7071, 0.7071, 0.0000],[0,0,0,0],[9E9,9E9,9E9,9E9,9E9,9E9]], s_printSpeed, fine, tool0, \WObj:=ob_RRC_workplace;
        MoveL [[453.3, 94.1, -452.8],[0.0000, 0.7071, 0.7071, 0.0000],[0,0,0,0],[9E9,9E9,9E9,9E9,9E9,9E9]], s_printSpeed, fine, tool0, \WObj:=ob_RRC_workplace;
        MoveL [[465.2, 94.4, -451.4],[0.0000, 0.7071, 0.7071, 0.0000],[0,0,0,0],[9E9,9E9,9E9,9E9,9E9,9E9]], s_printSpeed, fine, tool0, \WObj:=ob_RRC_workplace;
        MoveL [[477.2, 94.2, -452.3],[0.0000, 0.7071, 0.7071, 0.0000],[0,0,0,0],[9E9,9E9,9E9,9E9,9E9,9E9]], s_printSpeed, fine, tool0, \WObj:=ob_RRC_workplace;
        MoveL [[489.2, 94.0, -453.1],[0.0000, 0.7071, 0.7071, 0.0000],[0,0,0,0],[9E9,9E9,9E9,9E9,9E9,9E9]], s_printSpeed, fine, tool0, \WObj:=ob_RRC_workplace;
        MoveL [[501.1, 94.3, -452.0],[0.0000, 0.7071, 0.7071, 0.0000],[0,0,0,0],[9E9,9E9,9E9,9E9,9E9,9E9]], s_printSpeed, fine, tool0, \WObj:=ob_RRC_workplace;
        MoveL [[509.3, 96.2, -443.5],[0.0000, 0.7071, 0.7071, 0.0000],[0,0,0,0],[9E9,9E9,9E9,9E9,9E9,9E9]], s_printSpeed, fine, tool0, \WObj:=ob_RRC_workplace;
        MoveL [[510.4, 98.9, -431.9],[0.0000, 0.7071, 0.7071, 0.0000],[0,0,0,0],[9E9,9E9,9E9,9E9,9E9,9E9]], s_printSpeed, fine, tool0, \WObj:=ob_RRC_workplace;
        MoveL [[509.5, 101.6, -420.2],[0.0000, 0.7071, 0.7071, 0.0000],[0,0,0,0],[9E9,9E9,9E9,9E9,9E9,9E9]], s_printSpeed, fine, tool0, \WObj:=ob_RRC_workplace;
        MoveL [[508.8, 104.3, -408.5],[0.0000, 0.7071, 0.7071, 0.0000],[0,0,0,0],[9E9,9E9,9E9,9E9,9E9,9E9]], s_printSpeed, fine, tool0, \WObj:=ob_RRC_workplace;
        MoveL [[510.2, 107.0, -396.9],[0.0000, 0.7071, 0.7071, 0.0000],[0,0,0,0],[9E9,9E9,9E9,9E9,9E9,9E9]], s_printSpeed, fine, tool0, \WObj:=ob_RRC_workplace;
        MoveL [[520.1, 108.5, -390.3],[0.0000, 0.7071, 0.7071, 0.0000],[0,0,0,0],[9E9,9E9,9E9,9E9,9E9,9E9]], s_printSpeed, fine, tool0, \WObj:=ob_RRC_workplace;
        MoveL [[532.1, 108.5, -390.4],[0.0000, 0.7071, 0.7071, 0.0000],[0,0,0,0],[9E9,9E9,9E9,9E9,9E9,9E9]], s_printSpeed, fine, tool0, \WObj:=ob_RRC_workplace;
        MoveL [[544.1, 108.3, -391.5],[0.0000, 0.7071, 0.7071, 0.0000],[0,0,0,0],[9E9,9E9,9E9,9E9,9E9,9E9]], s_printSpeed, fine, tool0, \WObj:=ob_RRC_workplace;
        MoveL [[556.1, 108.2, -391.9],[0.0000, 0.7071, 0.7071, 0.0000],[0,0,0,0],[9E9,9E9,9E9,9E9,9E9,9E9]], s_printSpeed, fine, tool0, \WObj:=ob_RRC_workplace;
        MoveL [[567.6, 108.9, -388.9],[0.0000, 0.7071, 0.7071, 0.0000],[0,0,0,0],[9E9,9E9,9E9,9E9,9E9,9E9]], s_printSpeed, fine, tool0, \WObj:=ob_RRC_workplace;
        MoveL [[574.9, 111.0, -379.5],[0.0000, 0.7071, 0.7071, 0.0000],[0,0,0,0],[9E9,9E9,9E9,9E9,9E9,9E9]], s_printSpeed, fine, tool0, \WObj:=ob_RRC_workplace;
        MoveL [[577.8, 113.7, -368.2],[0.0000, 0.7071, 0.7071, 0.0000],[0,0,0,0],[9E9,9E9,9E9,9E9,9E9,9E9]], s_printSpeed, fine, tool0, \WObj:=ob_RRC_workplace;
        MoveL [[579.1, 116.3, -356.6],[0.0000, 0.7071, 0.7071, 0.0000],[0,0,0,0],[9E9,9E9,9E9,9E9,9E9,9E9]], s_printSpeed, fine, tool0, \WObj:=ob_RRC_workplace;
        MoveL [[580.0, 119.0, -344.9],[0.0000, 0.7071, 0.7071, 0.0000],[0,0,0,0],[9E9,9E9,9E9,9E9,9E9,9E9]], s_printSpeed, fine, tool0, \WObj:=ob_RRC_workplace;
        MoveL [[583.2, 121.7, -333.6],[0.0000, 0.7071, 0.7071, 0.0000],[0,0,0,0],[9E9,9E9,9E9,9E9,9E9,9E9]], s_printSpeed, fine, tool0, \WObj:=ob_RRC_workplace;
        MoveL [[594.9, 121.0, -336.3],[0.0000, 0.7071, 0.7071, 0.0000],[0,0,0,0],[9E9,9E9,9E9,9E9,9E9,9E9]], s_printSpeed, fine, tool0, \WObj:=ob_RRC_workplace;
        MoveL [[604.6, 119.4, -343.2],[0.0000, 0.7071, 0.7071, 0.0000],[0,0,0,0],[9E9,9E9,9E9,9E9,9E9,9E9]], s_printSpeed, fine, tool0, \WObj:=ob_RRC_workplace;
        MoveL [[614.5, 117.9, -349.8],[0.0000, 0.7071, 0.7071, 0.0000],[0,0,0,0],[9E9,9E9,9E9,9E9,9E9,9E9]], s_printSpeed, fine, tool0, \WObj:=ob_RRC_workplace;
        MoveL [[625.3, 116.7, -354.8],[0.0000, 0.7071, 0.7071, 0.0000],[0,0,0,0],[9E9,9E9,9E9,9E9,9E9,9E9]], s_printSpeed, fine, tool0, \WObj:=ob_RRC_workplace;
        MoveL [[637.2, 116.4, -356.5],[0.0000, 0.7071, 0.7071, 0.0000],[0,0,0,0],[9E9,9E9,9E9,9E9,9E9,9E9]], s_printSpeed, fine, tool0, \WObj:=ob_RRC_workplace;
        MoveL [[648.8, 117.1, -353.4],[0.0000, 0.7071, 0.7071, 0.0000],[0,0,0,0],[9E9,9E9,9E9,9E9,9E9,9E9]], s_printSpeed, fine, tool0, \WObj:=ob_RRC_workplace;
        MoveL [[659.2, 118.4, -347.7],[0.0000, 0.7071, 0.7071, 0.0000],[0,0,0,0],[9E9,9E9,9E9,9E9,9E9,9E9]], s_printSpeed, fine, tool0, \WObj:=ob_RRC_workplace;
        MoveL [[669.0, 120.0, -340.9],[0.0000, 0.7071, 0.7071, 0.0000],[0,0,0,0],[9E9,9E9,9E9,9E9,9E9,9E9]], s_printSpeed, fine, tool0, \WObj:=ob_RRC_workplace;
        MoveL [[678.9, 121.5, -334.3],[0.0000, 0.7071, 0.7071, 0.0000],[0,0,0,0],[9E9,9E9,9E9,9E9,9E9,9E9]], s_printSpeed, fine, tool0, \WObj:=ob_RRC_workplace;
        MoveL [[689.6, 120.3, -339.5],[0.0000, 0.7071, 0.7071, 0.0000],[0,0,0,0],[9E9,9E9,9E9,9E9,9E9,9E9]], s_printSpeed, fine, tool0, \WObj:=ob_RRC_workplace;
        MoveL [[690.9, 117.6, -351.2],[0.0000, 0.7071, 0.7071, 0.0000],[0,0,0,0],[9E9,9E9,9E9,9E9,9E9,9E9]], s_printSpeed, fine, tool0, \WObj:=ob_RRC_workplace;
        MoveL [[691.9, 114.9, -362.8],[0.0000, 0.7071, 0.7071, 0.0000],[0,0,0,0],[9E9,9E9,9E9,9E9,9E9,9E9]], s_printSpeed, fine, tool0, \WObj:=ob_RRC_workplace;
        MoveL [[693.8, 112.2, -374.4],[0.0000, 0.7071, 0.7071, 0.0000],[0,0,0,0],[9E9,9E9,9E9,9E9,9E9,9E9]], s_printSpeed, fine, tool0, \WObj:=ob_RRC_workplace;
        MoveL [[698.6, 109.8, -385.1],[0.0000, 0.7071, 0.7071, 0.0000],[0,0,0,0],[9E9,9E9,9E9,9E9,9E9,9E9]], s_printSpeed, fine, tool0, \WObj:=ob_RRC_workplace;
        MoveL [[708.8, 108.3, -391.2],[0.0000, 0.7071, 0.7071, 0.0000],[0,0,0,0],[9E9,9E9,9E9,9E9,9E9,9E9]], s_printSpeed, fine, tool0, \WObj:=ob_RRC_workplace;
        MoveL [[720.8, 108.2, -391.9],[0.0000, 0.7071, 0.7071, 0.0000],[0,0,0,0],[9E9,9E9,9E9,9E9,9E9,9E9]], s_printSpeed, fine, tool0, \WObj:=ob_RRC_workplace;
        MoveL [[732.8, 108.4, -390.9],[0.0000, 0.7071, 0.7071, 0.0000],[0,0,0,0],[9E9,9E9,9E9,9E9,9E9,9E9]], s_printSpeed, fine, tool0, \WObj:=ob_RRC_workplace;
        MoveL [[744.7, 108.6, -390.0],[0.0000, 0.7071, 0.7071, 0.0000],[0,0,0,0],[9E9,9E9,9E9,9E9,9E9,9E9]], s_printSpeed, fine, tool0, \WObj:=ob_RRC_workplace;
        MoveL [[756.5, 108.1, -392.3],[0.0000, 0.7071, 0.7071, 0.0000],[0,0,0,0],[9E9,9E9,9E9,9E9,9E9,9E9]], s_printSpeed, fine, tool0, \WObj:=ob_RRC_workplace;
        MoveL [[761.5, 105.6, -403.0],[0.0000, 0.7071, 0.7071, 0.0000],[0,0,0,0],[9E9,9E9,9E9,9E9,9E9,9E9]], s_printSpeed, fine, tool0, \WObj:=ob_RRC_workplace;
        MoveL [[761.3, 102.9, -414.7],[0.0000, 0.7071, 0.7071, 0.0000],[0,0,0,0],[9E9,9E9,9E9,9E9,9E9,9E9]], s_printSpeed, fine, tool0, \WObj:=ob_RRC_workplace;
        MoveL [[760.3, 100.2, -426.3],[0.0000, 0.7071, 0.7071, 0.0000],[0,0,0,0],[9E9,9E9,9E9,9E9,9E9,9E9]], s_printSpeed, fine, tool0, \WObj:=ob_RRC_workplace;
        MoveL [[760.1, 97.5, -438.0],[0.0000, 0.7071, 0.7071, 0.0000],[0,0,0,0],[9E9,9E9,9E9,9E9,9E9,9E9]], s_printSpeed, fine, tool0, \WObj:=ob_RRC_workplace;
        MoveL [[764.1, 95.0, -449.1],[0.0000, 0.7071, 0.7071, 0.0000],[0,0,0,0],[9E9,9E9,9E9,9E9,9E9,9E9]], s_printSpeed, fine, tool0, \WObj:=ob_RRC_workplace;
        MoveL [[775.3, 94.0, -453.1],[0.0000, 0.7071, 0.7071, 0.0000],[0,0,0,0],[9E9,9E9,9E9,9E9,9E9,9E9]], s_printSpeed, fine, tool0, \WObj:=ob_RRC_workplace;
        MoveL [[787.3, 94.1, -452.8],[0.0000, 0.7071, 0.7071, 0.0000],[0,0,0,0],[9E9,9E9,9E9,9E9,9E9,9E9]], s_printSpeed, fine, tool0, \WObj:=ob_RRC_workplace;
        MoveL [[799.3, 94.3, -451.8],[0.0000, 0.7071, 0.7071, 0.0000],[0,0,0,0],[9E9,9E9,9E9,9E9,9E9,9E9]], s_printSpeed, fine, tool0, \WObj:=ob_RRC_workplace;
        MoveL [[811.3, 94.4, -451.6],[0.0000, 0.7071, 0.7071, 0.0000],[0,0,0,0],[9E9,9E9,9E9,9E9,9E9,9E9]], s_printSpeed, fine, tool0, \WObj:=ob_RRC_workplace;
        MoveL [[822.3, 93.3, -456.3],[0.0000, 0.7071, 0.7071, 0.0000],[0,0,0,0],[9E9,9E9,9E9,9E9,9E9,9E9]], s_printSpeed, fine, tool0, \WObj:=ob_RRC_workplace;
        MoveL [[825.3, 90.7, -467.6],[0.0000, 0.7071, 0.7071, 0.0000],[0,0,0,0],[9E9,9E9,9E9,9E9,9E9,9E9]], s_printSpeed, fine, tool0, \WObj:=ob_RRC_workplace;
        MoveL [[824.8, 88.0, -479.3],[0.0000, 0.7071, 0.7071, 0.0000],[0,0,0,0],[9E9,9E9,9E9,9E9,9E9,9E9]], s_printSpeed, fine, tool0, \WObj:=ob_RRC_workplace;
        MoveL [[823.8, 85.3, -490.9],[0.0000, 0.7071, 0.7071, 0.0000],[0,0,0,0],[9E9,9E9,9E9,9E9,9E9,9E9]], s_printSpeed, fine, tool0, \WObj:=ob_RRC_workplace;
        MoveL [[824.0, 82.6, -502.6],[0.0000, 0.7071, 0.7071, 0.0000],[0,0,0,0],[9E9,9E9,9E9,9E9,9E9,9E9]], s_printSpeed, fine, tool0, \WObj:=ob_RRC_workplace;
        MoveL [[830.0, 80.2, -512.7],[0.0000, 0.7071, 0.7071, 0.0000],[0,0,0,0],[9E9,9E9,9E9,9E9,9E9,9E9]], s_printSpeed, fine, tool0, \WObj:=ob_RRC_workplace;
        MoveL [[841.8, 79.7, -515.1],[0.0000, 0.7071, 0.7071, 0.0000],[0,0,0,0],[9E9,9E9,9E9,9E9,9E9,9E9]], s_printSpeed, fine, tool0, \WObj:=ob_RRC_workplace;
        MoveL [[853.8, 79.8, -514.6],[0.0000, 0.7071, 0.7071, 0.0000],[0,0,0,0],[9E9,9E9,9E9,9E9,9E9,9E9]], s_printSpeed, fine, tool0, \WObj:=ob_RRC_workplace;
        MoveL [[865.7, 80.0, -513.7],[0.0000, 0.7071, 0.7071, 0.0000],[0,0,0,0],[9E9,9E9,9E9,9E9,9E9,9E9]], s_printSpeed, fine, tool0, \WObj:=ob_RRC_workplace;
        MoveL [[877.7, 79.9, -514.1],[0.0000, 0.7071, 0.7071, 0.0000],[0,0,0,0],[9E9,9E9,9E9,9E9,9E9,9E9]], s_printSpeed, fine, tool0, \WObj:=ob_RRC_workplace;
        MoveL [[887.5, 78.4, -520.8],[0.0000, 0.7071, 0.7071, 0.0000],[0,0,0,0],[9E9,9E9,9E9,9E9,9E9,9E9]], s_printSpeed, fine, tool0, \WObj:=ob_RRC_workplace;
        MoveL [[889.3, 75.7, -532.4],[0.0000, 0.7071, 0.7071, 0.0000],[0,0,0,0],[9E9,9E9,9E9,9E9,9E9,9E9]], s_printSpeed, fine, tool0, \WObj:=ob_RRC_workplace;
        MoveL [[888.7, 73.0, -544.1],[0.0000, 0.7071, 0.7071, 0.0000],[0,0,0,0],[9E9,9E9,9E9,9E9,9E9,9E9]], s_printSpeed, fine, tool0, \WObj:=ob_RRC_workplace;
        MoveL [[887.9, 70.3, -555.7],[0.0000, 0.7071, 0.7071, 0.0000],[0,0,0,0],[9E9,9E9,9E9,9E9,9E9,9E9]], s_printSpeed, fine, tool0, \WObj:=ob_RRC_workplace;
        MoveL [[888.8, 67.6, -567.4],[0.0000, 0.7071, 0.7071, 0.0000],[0,0,0,0],[9E9,9E9,9E9,9E9,9E9,9E9]], s_printSpeed, fine, tool0, \WObj:=ob_RRC_workplace;
        MoveL [[895.2, 65.3, -577.3],[0.0000, 0.7071, 0.7071, 0.0000],[0,0,0,0],[9E9,9E9,9E9,9E9,9E9,9E9]], s_printSpeed, fine, tool0, \WObj:=ob_RRC_workplace;
        MoveL [[906.4, 64.3, -581.6],[0.0000, 0.7071, 0.7071, 0.0000],[0,0,0,0],[9E9,9E9,9E9,9E9,9E9,9E9]], s_printSpeed, fine, tool0, \WObj:=ob_RRC_workplace;
        MoveL [[918.3, 64.1, -582.5],[0.0000, 0.7071, 0.7071, 0.0000],[0,0,0,0],[9E9,9E9,9E9,9E9,9E9,9E9]], s_printSpeed, fine, tool0, \WObj:=ob_RRC_workplace;
