 MODULE fdm_print
    VAR speeddata s_printSpeed:=v5;
    VAR speeddata s_travelSpeed:=v300;

    PROC Extrude10Sec ()
        SetDO DO_10, 1;
        SetDO\SDelay:=10, DO_10, 0;
    ENDPROC

    PROC main()
        IF RobOS() = FALSE THEN
            s_travelSpeed := vmax; ! run at max speed in robotstudio
            s_printSpeed := vmax;
        ENDIF
        print;
    ENDPROC

    PROC print()
        MoveAbsJ [[0.0,0.0,0.0,0.0,0.0,0.0], [9E9,9E9,9E9,9E9,9E9,9E9]], s_travelSpeed, fine, tool0;
        SetDO DO_1, 1; ! heater on
        TPWrite "Press play when extruder is at right temperature";
        Stop;
        MoveJ [[302.1, 56.3, -0.0],[0.0000, 0.0000, 1.0000, 0.0000],[0,0,0,0],[9E9,9E9,9E9,9E9,9E9,9E9]], s_printSpeed, fine, tool0, \WObj:=ob_RRC_workplace;
        SetDO DO_10, 1; ! stepper off
        MoveL [[302.1, 56.3, -0.0],[0.0000, 0.0000, 1.0000, 0.0000],[0,0,0,0],[9E9,9E9,9E9,9E9,9E9,9E9]], s_printSpeed, fine, tool0, \WObj:=ob_RRC_workplace;
        MoveL [[290.4, 53.6, -0.0],[0.0000, 0.0000, 1.0000, 0.0000],[0,0,0,0],[9E9,9E9,9E9,9E9,9E9,9E9]], s_printSpeed, fine, tool0, \WObj:=ob_RRC_workplace;
        MoveL [[278.5, 52.7, -0.0],[0.0000, 0.0000, 1.0000, 0.0000],[0,0,0,0],[9E9,9E9,9E9,9E9,9E9,9E9]], s_printSpeed, fine, tool0, \WObj:=ob_RRC_workplace;
        MoveL [[267.5, 57.6, -0.0],[0.0000, 0.0000, 1.0000, 0.0000],[0,0,0,0],[9E9,9E9,9E9,9E9,9E9,9E9]], s_printSpeed, fine, tool0, \WObj:=ob_RRC_workplace;
        MoveL [[266.4, 69.6, -0.0],[0.0000, 0.0000, 1.0000, 0.0000],[0,0,0,0],[9E9,9E9,9E9,9E9,9E9,9E9]], s_printSpeed, fine, tool0, \WObj:=ob_RRC_workplace;
        MoveL [[268.6, 81.3, -0.0],[0.0000, 0.0000, 1.0000, 0.0000],[0,0,0,0],[9E9,9E9,9E9,9E9,9E9,9E9]], s_printSpeed, fine, tool0, \WObj:=ob_RRC_workplace;
        MoveL [[270.7, 93.2, -0.0],[0.0000, 0.0000, 1.0000, 0.0000],[0,0,0,0],[9E9,9E9,9E9,9E9,9E9,9E9]], s_printSpeed, fine, tool0, \WObj:=ob_RRC_workplace;
        MoveL [[264.7, 103.6, -0.0],[0.0000, 0.0000, 1.0000, 0.0000],[0,0,0,0],[9E9,9E9,9E9,9E9,9E9,9E9]], s_printSpeed, fine, tool0, \WObj:=ob_RRC_workplace;
        MoveL [[252.8, 102.6, -0.0],[0.0000, 0.0000, 1.0000, 0.0000],[0,0,0,0],[9E9,9E9,9E9,9E9,9E9,9E9]], s_printSpeed, fine, tool0, \WObj:=ob_RRC_workplace;
        MoveL [[241.1, 100.1, -0.0],[0.0000, 0.0000, 1.0000, 0.0000],[0,0,0,0],[9E9,9E9,9E9,9E9,9E9,9E9]], s_printSpeed, fine, tool0, \WObj:=ob_RRC_workplace;
        MoveL [[229.1, 99.0, -0.0],[0.0000, 0.0000, 1.0000, 0.0000],[0,0,0,0],[9E9,9E9,9E9,9E9,9E9,9E9]], s_printSpeed, fine, tool0, \WObj:=ob_RRC_workplace;
        MoveL [[222.5, 109.0, -0.0],[0.0000, 0.0000, 1.0000, 0.0000],[0,0,0,0],[9E9,9E9,9E9,9E9,9E9,9E9]], s_printSpeed, fine, tool0, \WObj:=ob_RRC_workplace;
        MoveL [[224.5, 120.9, -0.0],[0.0000, 0.0000, 1.0000, 0.0000],[0,0,0,0],[9E9,9E9,9E9,9E9,9E9,9E9]], s_printSpeed, fine, tool0, \WObj:=ob_RRC_workplace;
        MoveL [[226.9, 132.6, -0.0],[0.0000, 0.0000, 1.0000, 0.0000],[0,0,0,0],[9E9,9E9,9E9,9E9,9E9,9E9]], s_printSpeed, fine, tool0, \WObj:=ob_RRC_workplace;
        MoveL [[226.0, 144.6, -0.0],[0.0000, 0.0000, 1.0000, 0.0000],[0,0,0,0],[9E9,9E9,9E9,9E9,9E9,9E9]], s_printSpeed, fine, tool0, \WObj:=ob_RRC_workplace;
        MoveL [[214.2, 146.6, -0.0],[0.0000, 0.0000, 1.0000, 0.0000],[0,0,0,0],[9E9,9E9,9E9,9E9,9E9,9E9]], s_printSpeed, fine, tool0, \WObj:=ob_RRC_workplace;
        MoveL [[202.4, 144.3, -0.0],[0.0000, 0.0000, 1.0000, 0.0000],[0,0,0,0],[9E9,9E9,9E9,9E9,9E9,9E9]], s_printSpeed, fine, tool0, \WObj:=ob_RRC_workplace;
        MoveL [[190.6, 142.2, -0.0],[0.0000, 0.0000, 1.0000, 0.0000],[0,0,0,0],[9E9,9E9,9E9,9E9,9E9,9E9]], s_printSpeed, fine, tool0, \WObj:=ob_RRC_workplace;
        MoveL [[179.6, 147.0, -0.0],[0.0000, 0.0000, 1.0000, 0.0000],[0,0,0,0],[9E9,9E9,9E9,9E9,9E9,9E9]], s_printSpeed, fine, tool0, \WObj:=ob_RRC_workplace;
        MoveL [[179.5, 159.0, -0.0],[0.0000, 0.0000, 1.0000, 0.0000],[0,0,0,0],[9E9,9E9,9E9,9E9,9E9,9E9]], s_printSpeed, fine, tool0, \WObj:=ob_RRC_workplace;
        MoveL [[181.8, 170.7, -0.0],[0.0000, 0.0000, 1.0000, 0.0000],[0,0,0,0],[9E9,9E9,9E9,9E9,9E9,9E9]], s_printSpeed, fine, tool0, \WObj:=ob_RRC_workplace;
        MoveL [[183.5, 182.6, -0.0],[0.0000, 0.0000, 1.0000, 0.0000],[0,0,0,0],[9E9,9E9,9E9,9E9,9E9,9E9]], s_printSpeed, fine, tool0, \WObj:=ob_RRC_workplace;
        MoveL [[175.2, 191.3, -0.0],[0.0000, 0.0000, 1.0000, 0.0000],[0,0,0,0],[9E9,9E9,9E9,9E9,9E9,9E9]], s_printSpeed, fine, tool0, \WObj:=ob_RRC_workplace;
        MoveL [[163.3, 189.6, -0.0],[0.0000, 0.0000, 1.0000, 0.0000],[0,0,0,0],[9E9,9E9,9E9,9E9,9E9,9E9]], s_printSpeed, fine, tool0, \WObj:=ob_RRC_workplace;
        MoveL [[151.5, 187.4, -0.0],[0.0000, 0.0000, 1.0000, 0.0000],[0,0,0,0],[9E9,9E9,9E9,9E9,9E9,9E9]], s_printSpeed, fine, tool0, \WObj:=ob_RRC_workplace;
        MoveL [[139.6, 186.6, -0.0],[0.0000, 0.0000, 1.0000, 0.0000],[0,0,0,0],[9E9,9E9,9E9,9E9,9E9,9E9]], s_printSpeed, fine, tool0, \WObj:=ob_RRC_workplace;
        MoveL [[127.6, 188.2, -0.0],[0.0000, 0.0000, 1.0000, 0.0000],[0,0,0,0],[9E9,9E9,9E9,9E9,9E9,9E9]], s_printSpeed, fine, tool0, \WObj:=ob_RRC_workplace;
        MoveL [[115.9, 185.8, -0.0],[0.0000, 0.0000, 1.0000, 0.0000],[0,0,0,0],[9E9,9E9,9E9,9E9,9E9,9E9]], s_printSpeed, fine, tool0, \WObj:=ob_RRC_workplace;
        MoveL [[116.4, 173.9, -0.0],[0.0000, 0.0000, 1.0000, 0.0000],[0,0,0,0],[9E9,9E9,9E9,9E9,9E9,9E9]], s_printSpeed, fine, tool0, \WObj:=ob_RRC_workplace;
        MoveL [[118.9, 162.1, -0.0],[0.0000, 0.0000, 1.0000, 0.0000],[0,0,0,0],[9E9,9E9,9E9,9E9,9E9,9E9]], s_printSpeed, fine, tool0, \WObj:=ob_RRC_workplace;
        MoveL [[120.4, 150.2, -0.0],[0.0000, 0.0000, 1.0000, 0.0000],[0,0,0,0],[9E9,9E9,9E9,9E9,9E9,9E9]], s_printSpeed, fine, tool0, \WObj:=ob_RRC_workplace;
        MoveL [[111.9, 141.7, -0.0],[0.0000, 0.0000, 1.0000, 0.0000],[0,0,0,0],[9E9,9E9,9E9,9E9,9E9,9E9]], s_printSpeed, fine, tool0, \WObj:=ob_RRC_workplace;
        MoveL [[100.1, 143.4, -0.0],[0.0000, 0.0000, 1.0000, 0.0000],[0,0,0,0],[9E9,9E9,9E9,9E9,9E9,9E9]], s_printSpeed, fine, tool0, \WObj:=ob_RRC_workplace;
        MoveL [[88.3, 146.0, -0.0],[0.0000, 0.0000, 1.0000, 0.0000],[0,0,0,0],[9E9,9E9,9E9,9E9,9E9,9E9]], s_printSpeed, fine, tool0, \WObj:=ob_RRC_workplace;
        MoveL [[76.3, 146.2, -0.0],[0.0000, 0.0000, 1.0000, 0.0000],[0,0,0,0],[9E9,9E9,9E9,9E9,9E9,9E9]], s_printSpeed, fine, tool0, \WObj:=ob_RRC_workplace;
        MoveL [[72.7, 134.8, -0.0],[0.0000, 0.0000, 1.0000, 0.0000],[0,0,0,0],[9E9,9E9,9E9,9E9,9E9,9E9]], s_printSpeed, fine, tool0, \WObj:=ob_RRC_workplace;
        MoveL [[75.0, 123.0, -0.0],[0.0000, 0.0000, 1.0000, 0.0000],[0,0,0,0],[9E9,9E9,9E9,9E9,9E9,9E9]], s_printSpeed, fine, tool0, \WObj:=ob_RRC_workplace;
        MoveL [[77.2, 111.2, -0.0],[0.0000, 0.0000, 1.0000, 0.0000],[0,0,0,0],[9E9,9E9,9E9,9E9,9E9,9E9]], s_printSpeed, fine, tool0, \WObj:=ob_RRC_workplace;
        MoveL [[73.8, 99.7, -0.0],[0.0000, 0.0000, 1.0000, 0.0000],[0,0,0,0],[9E9,9E9,9E9,9E9,9E9,9E9]], s_printSpeed, fine, tool0, \WObj:=ob_RRC_workplace;
        MoveL [[61.8, 99.5, -0.0],[0.0000, 0.0000, 1.0000, 0.0000],[0,0,0,0],[9E9,9E9,9E9,9E9,9E9,9E9]], s_printSpeed, fine, tool0, \WObj:=ob_RRC_workplace;
        MoveL [[50.0, 102.0, -0.0],[0.0000, 0.0000, 1.0000, 0.0000],[0,0,0,0],[9E9,9E9,9E9,9E9,9E9,9E9]], s_printSpeed, fine, tool0, \WObj:=ob_RRC_workplace;
        MoveL [[38.2, 103.7, -0.0],[0.0000, 0.0000, 1.0000, 0.0000],[0,0,0,0],[9E9,9E9,9E9,9E9,9E9,9E9]], s_printSpeed, fine, tool0, \WObj:=ob_RRC_workplace;
        MoveL [[29.2, 95.7, -0.0],[0.0000, 0.0000, 1.0000, 0.0000],[0,0,0,0],[9E9,9E9,9E9,9E9,9E9,9E9]], s_printSpeed, fine, tool0, \WObj:=ob_RRC_workplace;
        MoveL [[30.8, 83.8, -0.0],[0.0000, 0.0000, 1.0000, 0.0000],[0,0,0,0],[9E9,9E9,9E9,9E9,9E9,9E9]], s_printSpeed, fine, tool0, \WObj:=ob_RRC_workplace;
        MoveL [[33.2, 72.1, -0.0],[0.0000, 0.0000, 1.0000, 0.0000],[0,0,0,0],[9E9,9E9,9E9,9E9,9E9,9E9]], s_printSpeed, fine, tool0, \WObj:=ob_RRC_workplace;
        MoveL [[33.5, 60.1, -0.0],[0.0000, 0.0000, 1.0000, 0.0000],[0,0,0,0],[9E9,9E9,9E9,9E9,9E9,9E9]], s_printSpeed, fine, tool0, \WObj:=ob_RRC_workplace;
        MoveL [[23.9, 52.9, -0.0],[0.0000, 0.0000, 1.0000, 0.0000],[0,0,0,0],[9E9,9E9,9E9,9E9,9E9,9E9]], s_printSpeed, fine, tool0, \WObj:=ob_RRC_workplace;
        MoveL [[11.9, 53.2, -0.0],[0.0000, 0.0000, 1.0000, 0.0000],[0,0,0,0],[9E9,9E9,9E9,9E9,9E9,9E9]], s_printSpeed, fine, tool0, \WObj:=ob_RRC_workplace;
        MoveL [[0.1, 55.7, -0.0],[0.0000, 0.0000, 1.0000, 0.0000],[0,0,0,0],[9E9,9E9,9E9,9E9,9E9,9E9]], s_printSpeed, fine, tool0, \WObj:=ob_RRC_workplace;
        MoveL [[-11.3, 59.3, -0.0],[0.0000, 0.0000, 1.0000, 0.0000],[0,0,0,0],[9E9,9E9,9E9,9E9,9E9,9E9]], s_printSpeed, fine, tool0, \WObj:=ob_RRC_workplace;
    ! layer end
        MoveL [[302.1, 56.0, 0.0],[-0.4721, 0.5264, 0.5264, 0.4721],[0,0,0,0],[9E9,9E9,9E9,9E9,9E9,9E9]], s_printSpeed, fine, tool0, \WObj:=ob_RRC_workplace;
        MoveL [[290.4, 53.3, 0.0],[-0.4928, 0.5071, 0.5071, 0.4928],[0,0,0,0],[9E9,9E9,9E9,9E9,9E9,9E9]], s_printSpeed, fine, tool0, \WObj:=ob_RRC_workplace;
        MoveL [[278.5, 52.4, 0.0],[-0.4996, 0.5004, 0.5004, 0.4996],[0,0,0,0],[9E9,9E9,9E9,9E9,9E9,9E9]], s_printSpeed, fine, tool0, \WObj:=ob_RRC_workplace;
        MoveL [[267.5, 57.3, 0.0],[-0.4625, 0.5349, 0.5349, 0.4625],[0,0,0,0],[9E9,9E9,9E9,9E9,9E9,9E9]], s_printSpeed, fine, tool0, \WObj:=ob_RRC_workplace;
        MoveL [[266.4, 69.3, 0.1],[-0.3730, 0.6007, 0.6007, 0.3730],[0,0,0,0],[9E9,9E9,9E9,9E9,9E9,9E9]], s_printSpeed, fine, tool0, \WObj:=ob_RRC_workplace;
        MoveL [[268.6, 81.0, 0.3],[-0.2991, 0.6407, 0.6407, 0.2991],[0,0,0,0],[9E9,9E9,9E9,9E9,9E9,9E9]], s_printSpeed, fine, tool0, \WObj:=ob_RRC_workplace;
        MoveL [[270.7, 92.9, 0.4],[-0.2434, 0.6639, -0.6639, -0.2434],[0,0,0,0],[9E9,9E9,9E9,9E9,9E9,9E9]], s_printSpeed, fine, tool0, \WObj:=ob_RRC_workplace;
        MoveL [[264.7, 103.3, 0.4],[-0.2067, 0.6762, -0.6762, -0.2067],[0,0,0,0],[9E9,9E9,9E9,9E9,9E9,9E9]], s_printSpeed, fine, tool0, \WObj:=ob_RRC_workplace;
        MoveL [[252.8, 102.3, 0.4],[-0.2099, 0.6752, -0.6752, -0.2099],[0,0,0,0],[9E9,9E9,9E9,9E9,9E9,9E9]], s_printSpeed, fine, tool0, \WObj:=ob_RRC_workplace;
        MoveL [[241.1, 99.8, 0.4],[-0.2180, 0.6727, -0.6727, -0.2180],[0,0,0,0],[9E9,9E9,9E9,9E9,9E9,9E9]], s_printSpeed, fine, tool0, \WObj:=ob_RRC_workplace;
        MoveL [[229.1, 98.7, 0.4],[-0.2217, 0.6715, -0.6715, -0.2217],[0,0,0,0],[9E9,9E9,9E9,9E9,9E9,9E9]], s_printSpeed, fine, tool0, \WObj:=ob_RRC_workplace;
        MoveL [[222.5, 108.7, 0.5],[0.1913, -0.6808, 0.6808, 0.1913],[0,0,0,0],[9E9,9E9,9E9,9E9,9E9,9E9]], s_printSpeed, fine, tool0, \WObj:=ob_RRC_workplace;
        MoveL [[224.5, 120.6, 0.6],[0.1638, -0.6879, 0.6879, 0.1638],[0,0,0,0],[9E9,9E9,9E9,9E9,9E9,9E9]], s_printSpeed, fine, tool0, \WObj:=ob_RRC_workplace;
        MoveL [[226.9, 132.3, 0.7],[0.1430, -0.6925, 0.6925, 0.1430],[0,0,0,0],[9E9,9E9,9E9,9E9,9E9,9E9]], s_printSpeed, fine, tool0, \WObj:=ob_RRC_workplace;
        MoveL [[226.0, 144.3, 0.8],[-0.1264, 0.6957, -0.6957, -0.1264],[0,0,0,0],[9E9,9E9,9E9,9E9,9E9,9E9]], s_printSpeed, fine, tool0, \WObj:=ob_RRC_workplace;
        MoveL [[214.2, 146.3, 0.8],[-0.1240, 0.6962, -0.6962, -0.1240],[0,0,0,0],[9E9,9E9,9E9,9E9,9E9,9E9]], s_printSpeed, fine, tool0, \WObj:=ob_RRC_workplace;
        MoveL [[202.4, 144.0, 0.8],[-0.1268, 0.6956, -0.6956, -0.1268],[0,0,0,0],[9E9,9E9,9E9,9E9,9E9,9E9]], s_printSpeed, fine, tool0, \WObj:=ob_RRC_workplace;
        MoveL [[190.6, 141.9, 0.8],[-0.1295, 0.6952, -0.6952, -0.1295],[0,0,0,0],[9E9,9E9,9E9,9E9,9E9,9E9]], s_printSpeed, fine, tool0, \WObj:=ob_RRC_workplace;
        MoveL [[179.6, 146.7, 0.8],[-0.1236, 0.6962, -0.6962, -0.1236],[0,0,0,0],[9E9,9E9,9E9,9E9,9E9,9E9]], s_printSpeed, fine, tool0, \WObj:=ob_RRC_workplace;
        MoveL [[179.5, 158.7, 0.9],[0.1109, -0.6984, 0.6984, 0.1109],[0,0,0,0],[9E9,9E9,9E9,9E9,9E9,9E9]], s_printSpeed, fine, tool0, \WObj:=ob_RRC_workplace;
        MoveL [[181.8, 170.4, 1.0],[0.1006, -0.6999, 0.6999, 0.1006],[0,0,0,0],[9E9,9E9,9E9,9E9,9E9,9E9]], s_printSpeed, fine, tool0, \WObj:=ob_RRC_workplace;
        MoveL [[183.5, 182.3, 1.1],[0.0920, -0.7011, 0.7011, 0.0920],[0,0,0,0],[9E9,9E9,9E9,9E9,9E9,9E9]], s_printSpeed, fine, tool0, \WObj:=ob_RRC_workplace;
        MoveL [[175.2, 191.0, 1.2],[-0.0866, 0.7018, -0.7018, -0.0866],[0,0,0,0],[9E9,9E9,9E9,9E9,9E9,9E9]], s_printSpeed, fine, tool0, \WObj:=ob_RRC_workplace;
        MoveL [[163.3, 189.3, 1.2],[-0.0877, 0.7017, -0.7017, -0.0877],[0,0,0,0],[9E9,9E9,9E9,9E9,9E9,9E9]], s_printSpeed, fine, tool0, \WObj:=ob_RRC_workplace;
        MoveL [[151.5, 187.1, 1.2],[-0.0890, 0.7015, -0.7015, -0.0890],[0,0,0,0],[9E9,9E9,9E9,9E9,9E9,9E9]], s_printSpeed, fine, tool0, \WObj:=ob_RRC_workplace;
        MoveL [[139.6, 186.3, 1.2],[0.0895, -0.7014, 0.7014, 0.0895],[0,0,0,0],[9E9,9E9,9E9,9E9,9E9,9E9]], s_printSpeed, fine, tool0, \WObj:=ob_RRC_workplace;
        MoveL [[127.6, 187.9, 1.2],[0.0885, -0.7015, 0.7015, 0.0885],[0,0,0,0],[9E9,9E9,9E9,9E9,9E9,9E9]], s_printSpeed, fine, tool0, \WObj:=ob_RRC_workplace;
        MoveL [[115.9, 185.5, 1.2],[0.0900, -0.7014, 0.7014, 0.0900],[0,0,0,0],[9E9,9E9,9E9,9E9,9E9,9E9]], s_printSpeed, fine, tool0, \WObj:=ob_RRC_workplace;
        MoveL [[116.4, 173.6, 1.1],[0.0982, -0.7003, 0.7003, 0.0982],[0,0,0,0],[9E9,9E9,9E9,9E9,9E9,9E9]], s_printSpeed, fine, tool0, \WObj:=ob_RRC_workplace;
        MoveL [[118.9, 161.8, 1.0],[0.1079, -0.6988, 0.6988, 0.1079],[0,0,0,0],[9E9,9E9,9E9,9E9,9E9,9E9]], s_printSpeed, fine, tool0, \WObj:=ob_RRC_workplace;
        MoveL [[120.4, 149.9, 0.9],[0.1198, -0.6969, 0.6969, 0.1198],[0,0,0,0],[9E9,9E9,9E9,9E9,9E9,9E9]], s_printSpeed, fine, tool0, \WObj:=ob_RRC_workplace;
        MoveL [[111.9, 141.4, 0.8],[-0.1301, 0.6950, -0.6950, -0.1301],[0,0,0,0],[9E9,9E9,9E9,9E9,9E9,9E9]], s_printSpeed, fine, tool0, \WObj:=ob_RRC_workplace;
        MoveL [[100.1, 143.1, 0.8],[0.1279, -0.6954, 0.6954, 0.1279],[0,0,0,0],[9E9,9E9,9E9,9E9,9E9,9E9]], s_printSpeed, fine, tool0, \WObj:=ob_RRC_workplace;
        MoveL [[88.3, 145.6, 0.8],[0.1248, -0.6960, 0.6960, 0.1248],[0,0,0,0],[9E9,9E9,9E9,9E9,9E9,9E9]], s_printSpeed, fine, tool0, \WObj:=ob_RRC_workplace;
        MoveL [[76.3, 145.9, 0.8],[0.1245, -0.6961, 0.6961, 0.1245],[0,0,0,0],[9E9,9E9,9E9,9E9,9E9,9E9]], s_printSpeed, fine, tool0, \WObj:=ob_RRC_workplace;
        MoveL [[72.7, 134.5, 0.7],[0.1397, -0.6932, 0.6932, 0.1397],[0,0,0,0],[9E9,9E9,9E9,9E9,9E9,9E9]], s_printSpeed, fine, tool0, \WObj:=ob_RRC_workplace;
        MoveL [[75.0, 122.7, 0.6],[0.1596, -0.6889, 0.6889, 0.1596],[0,0,0,0],[9E9,9E9,9E9,9E9,9E9,9E9]], s_printSpeed, fine, tool0, \WObj:=ob_RRC_workplace;
        MoveL [[77.2, 110.9, 0.5],[0.1856, -0.6823, 0.6823, 0.1856],[0,0,0,0],[9E9,9E9,9E9,9E9,9E9,9E9]], s_printSpeed, fine, tool0, \WObj:=ob_RRC_workplace;
        MoveL [[73.8, 99.4, 0.4],[-0.2192, 0.6723, -0.6723, -0.2192],[0,0,0,0],[9E9,9E9,9E9,9E9,9E9,9E9]], s_printSpeed, fine, tool0, \WObj:=ob_RRC_workplace;
        MoveL [[61.8, 99.2, 0.4],[-0.2198, 0.6721, -0.6721, -0.2198],[0,0,0,0],[9E9,9E9,9E9,9E9,9E9,9E9]], s_printSpeed, fine, tool0, \WObj:=ob_RRC_workplace;
        MoveL [[50.0, 101.7, 0.4],[-0.2119, 0.6746, -0.6746, -0.2119],[0,0,0,0],[9E9,9E9,9E9,9E9,9E9,9E9]], s_printSpeed, fine, tool0, \WObj:=ob_RRC_workplace;
        MoveL [[38.2, 103.4, 0.4],[-0.2063, 0.6763, -0.6763, -0.2063],[0,0,0,0],[9E9,9E9,9E9,9E9,9E9,9E9]], s_printSpeed, fine, tool0, \WObj:=ob_RRC_workplace;
        MoveL [[29.2, 95.4, 0.4],[0.2334, -0.6675, 0.6675, 0.2334],[0,0,0,0],[9E9,9E9,9E9,9E9,9E9,9E9]], s_printSpeed, fine, tool0, \WObj:=ob_RRC_workplace;
        MoveL [[30.8, 83.5, 0.3],[-0.2858, 0.6468, 0.6468, 0.2858],[0,0,0,0],[9E9,9E9,9E9,9E9,9E9,9E9]], s_printSpeed, fine, tool0, \WObj:=ob_RRC_workplace;
        MoveL [[33.2, 71.8, 0.2],[-0.3556, 0.6112, 0.6112, 0.3556],[0,0,0,0],[9E9,9E9,9E9,9E9,9E9,9E9]], s_printSpeed, fine, tool0, \WObj:=ob_RRC_workplace;
        MoveL [[33.5, 59.8, 0.1],[-0.4435, 0.5508, 0.5508, 0.4435],[0,0,0,0],[9E9,9E9,9E9,9E9,9E9,9E9]], s_printSpeed, fine, tool0, \WObj:=ob_RRC_workplace;
        MoveL [[23.9, 52.6, 0.0],[-0.4979, 0.5021, 0.5021, 0.4979],[0,0,0,0],[9E9,9E9,9E9,9E9,9E9,9E9]], s_printSpeed, fine, tool0, \WObj:=ob_RRC_workplace;
        MoveL [[11.9, 52.9, 0.0],[-0.4956, 0.5044, 0.5044, 0.4956],[0,0,0,0],[9E9,9E9,9E9,9E9,9E9,9E9]], s_printSpeed, fine, tool0, \WObj:=ob_RRC_workplace;
        MoveL [[0.1, 55.4, 0.0],[-0.4769, 0.5221, 0.5221, 0.4769],[0,0,0,0],[9E9,9E9,9E9,9E9,9E9,9E9]], s_printSpeed, fine, tool0, \WObj:=ob_RRC_workplace;
        MoveL [[-11.3, 59.0, 0.1],[-0.4494, 0.5459, 0.5459, 0.4494],[0,0,0,0],[9E9,9E9,9E9,9E9,9E9,9E9]], s_printSpeed, fine, tool0, \WObj:=ob_RRC_workplace;
    ! layer end
        MoveL [[302.1, 55.7, 0.1],[-0.4722, 0.5264, 0.5264, 0.4722],[0,0,0,0],[9E9,9E9,9E9,9E9,9E9,9E9]], s_printSpeed, fine, tool0, \WObj:=ob_RRC_workplace;
        MoveL [[290.4, 53.0, 0.0],[-0.4928, 0.5071, 0.5071, 0.4928],[0,0,0,0],[9E9,9E9,9E9,9E9,9E9,9E9]], s_printSpeed, fine, tool0, \WObj:=ob_RRC_workplace;
        MoveL [[278.5, 52.1, 0.0],[-0.4996, 0.5004, 0.5004, 0.4996],[0,0,0,0],[9E9,9E9,9E9,9E9,9E9,9E9]], s_printSpeed, fine, tool0, \WObj:=ob_RRC_workplace;
        MoveL [[267.5, 57.0, 0.1],[-0.4625, 0.5349, 0.5349, 0.4625],[0,0,0,0],[9E9,9E9,9E9,9E9,9E9,9E9]], s_printSpeed, fine, tool0, \WObj:=ob_RRC_workplace;
        MoveL [[266.4, 69.0, 0.3],[-0.3736, 0.6004, 0.6004, 0.3736],[0,0,0,0],[9E9,9E9,9E9,9E9,9E9,9E9]], s_printSpeed, fine, tool0, \WObj:=ob_RRC_workplace;
        MoveL [[268.6, 80.7, 0.5],[-0.3003, 0.6402, 0.6402, 0.3003],[0,0,0,0],[9E9,9E9,9E9,9E9,9E9,9E9]], s_printSpeed, fine, tool0, \WObj:=ob_RRC_workplace;
        MoveL [[270.7, 92.6, 0.7],[-0.2451, 0.6633, -0.6633, -0.2451],[0,0,0,0],[9E9,9E9,9E9,9E9,9E9,9E9]], s_printSpeed, fine, tool0, \WObj:=ob_RRC_workplace;
        MoveL [[264.7, 103.0, 0.9],[0.2088, -0.6756, 0.6756, 0.2088],[0,0,0,0],[9E9,9E9,9E9,9E9,9E9,9E9]], s_printSpeed, fine, tool0, \WObj:=ob_RRC_workplace;
        MoveL [[252.8, 102.0, 0.9],[0.2120, -0.6746, 0.6746, 0.2120],[0,0,0,0],[9E9,9E9,9E9,9E9,9E9,9E9]], s_printSpeed, fine, tool0, \WObj:=ob_RRC_workplace;
        MoveL [[241.1, 99.5, 0.8],[0.2199, -0.6720, 0.6720, 0.2199],[0,0,0,0],[9E9,9E9,9E9,9E9,9E9,9E9]], s_printSpeed, fine, tool0, \WObj:=ob_RRC_workplace;
        MoveL [[229.1, 98.4, 0.8],[0.2236, -0.6708, 0.6708, 0.2236],[0,0,0,0],[9E9,9E9,9E9,9E9,9E9,9E9]], s_printSpeed, fine, tool0, \WObj:=ob_RRC_workplace;
        MoveL [[222.5, 108.4, 1.0],[-0.1934, 0.6801, -0.6801, -0.1934],[0,0,0,0],[9E9,9E9,9E9,9E9,9E9,9E9]], s_printSpeed, fine, tool0, \WObj:=ob_RRC_workplace;
        MoveL [[224.5, 120.3, 1.2],[-0.1662, 0.6873, -0.6873, -0.1662],[0,0,0,0],[9E9,9E9,9E9,9E9,9E9,9E9]], s_printSpeed, fine, tool0, \WObj:=ob_RRC_workplace;
        MoveL [[226.9, 132.0, 1.4],[-0.1456, 0.6920, -0.6920, -0.1456],[0,0,0,0],[9E9,9E9,9E9,9E9,9E9,9E9]], s_printSpeed, fine, tool0, \WObj:=ob_RRC_workplace;
        MoveL [[226.0, 144.0, 1.6],[0.1291, -0.6952, 0.6952, 0.1291],[0,0,0,0],[9E9,9E9,9E9,9E9,9E9,9E9]], s_printSpeed, fine, tool0, \WObj:=ob_RRC_workplace;
        MoveL [[214.2, 146.0, 1.7],[0.1267, -0.6957, 0.6957, 0.1267],[0,0,0,0],[9E9,9E9,9E9,9E9,9E9,9E9]], s_printSpeed, fine, tool0, \WObj:=ob_RRC_workplace;
        MoveL [[202.4, 143.6, 1.6],[0.1295, -0.6951, 0.6951, 0.1295],[0,0,0,0],[9E9,9E9,9E9,9E9,9E9,9E9]], s_printSpeed, fine, tool0, \WObj:=ob_RRC_workplace;
        MoveL [[190.6, 141.6, 1.6],[0.1321, -0.6947, 0.6947, 0.1321],[0,0,0,0],[9E9,9E9,9E9,9E9,9E9,9E9]], s_printSpeed, fine, tool0, \WObj:=ob_RRC_workplace;
        MoveL [[179.6, 146.3, 1.7],[-0.1263, 0.6957, -0.6957, -0.1263],[0,0,0,0],[9E9,9E9,9E9,9E9,9E9,9E9]], s_printSpeed, fine, tool0, \WObj:=ob_RRC_workplace;
        MoveL [[179.5, 158.3, 1.9],[-0.1136, 0.6979, -0.6979, -0.1136],[0,0,0,0],[9E9,9E9,9E9,9E9,9E9,9E9]], s_printSpeed, fine, tool0, \WObj:=ob_RRC_workplace;
        MoveL [[181.8, 170.1, 2.1],[-0.1035, 0.6995, -0.6995, -0.1035],[0,0,0,0],[9E9,9E9,9E9,9E9,9E9,9E9]], s_printSpeed, fine, tool0, \WObj:=ob_RRC_workplace;
        MoveL [[183.5, 182.0, 2.3],[-0.0949, 0.7007, -0.7007, -0.0949],[0,0,0,0],[9E9,9E9,9E9,9E9,9E9,9E9]], s_printSpeed, fine, tool0, \WObj:=ob_RRC_workplace;
        MoveL [[175.2, 190.7, 2.4],[0.0895, -0.7014, 0.7014, 0.0895],[0,0,0,0],[9E9,9E9,9E9,9E9,9E9,9E9]], s_printSpeed, fine, tool0, \WObj:=ob_RRC_workplace;
        MoveL [[163.3, 189.0, 2.4],[-0.0905, 0.7013, -0.7013, -0.0905],[0,0,0,0],[9E9,9E9,9E9,9E9,9E9,9E9]], s_printSpeed, fine, tool0, \WObj:=ob_RRC_workplace;
        MoveL [[151.5, 186.8, 2.4],[0.0919, -0.7011, 0.7011, 0.0919],[0,0,0,0],[9E9,9E9,9E9,9E9,9E9,9E9]], s_printSpeed, fine, tool0, \WObj:=ob_RRC_workplace;
        MoveL [[139.6, 186.0, 2.4],[-0.0923, 0.7011, -0.7011, -0.0923],[0,0,0,0],[9E9,9E9,9E9,9E9,9E9,9E9]], s_printSpeed, fine, tool0, \WObj:=ob_RRC_workplace;
        MoveL [[127.6, 187.6, 2.4],[-0.0914, 0.7012, -0.7012, -0.0914],[0,0,0,0],[9E9,9E9,9E9,9E9,9E9,9E9]], s_printSpeed, fine, tool0, \WObj:=ob_RRC_workplace;
        MoveL [[115.9, 185.2, 2.3],[-0.0928, 0.7010, -0.7010, -0.0928],[0,0,0,0],[9E9,9E9,9E9,9E9,9E9,9E9]], s_printSpeed, fine, tool0, \WObj:=ob_RRC_workplace;
        MoveL [[116.4, 173.2, 2.1],[-0.1011, 0.6998, -0.6998, -0.1011],[0,0,0,0],[9E9,9E9,9E9,9E9,9E9,9E9]], s_printSpeed, fine, tool0, \WObj:=ob_RRC_workplace;
        MoveL [[118.9, 161.5, 1.9],[-0.1107, 0.6984, -0.6984, -0.1107],[0,0,0,0],[9E9,9E9,9E9,9E9,9E9,9E9]], s_printSpeed, fine, tool0, \WObj:=ob_RRC_workplace;
        MoveL [[120.4, 149.6, 1.7],[-0.1226, 0.6964, -0.6964, -0.1226],[0,0,0,0],[9E9,9E9,9E9,9E9,9E9,9E9]], s_printSpeed, fine, tool0, \WObj:=ob_RRC_workplace;
        MoveL [[111.9, 141.1, 1.6],[-0.1327, 0.6945, -0.6945, -0.1327],[0,0,0,0],[9E9,9E9,9E9,9E9,9E9,9E9]], s_printSpeed, fine, tool0, \WObj:=ob_RRC_workplace;
        MoveL [[100.1, 142.8, 1.6],[-0.1306, 0.6949, -0.6949, -0.1306],[0,0,0,0],[9E9,9E9,9E9,9E9,9E9,9E9]], s_printSpeed, fine, tool0, \WObj:=ob_RRC_workplace;
        MoveL [[88.3, 145.3, 1.6],[-0.1275, 0.6955, -0.6955, -0.1275],[0,0,0,0],[9E9,9E9,9E9,9E9,9E9,9E9]], s_printSpeed, fine, tool0, \WObj:=ob_RRC_workplace;
        MoveL [[76.3, 145.6, 1.6],[-0.1271, 0.6956, -0.6956, -0.1271],[0,0,0,0],[9E9,9E9,9E9,9E9,9E9,9E9]], s_printSpeed, fine, tool0, \WObj:=ob_RRC_workplace;
        MoveL [[72.7, 134.2, 1.4],[-0.1423, 0.6926, -0.6926, -0.1423],[0,0,0,0],[9E9,9E9,9E9,9E9,9E9,9E9]], s_printSpeed, fine, tool0, \WObj:=ob_RRC_workplace;
        MoveL [[75.0, 122.4, 1.2],[-0.1621, 0.6883, -0.6883, -0.1621],[0,0,0,0],[9E9,9E9,9E9,9E9,9E9,9E9]], s_printSpeed, fine, tool0, \WObj:=ob_RRC_workplace;
        MoveL [[77.2, 110.6, 1.0],[-0.1878, 0.6817, -0.6817, -0.1878],[0,0,0,0],[9E9,9E9,9E9,9E9,9E9,9E9]], s_printSpeed, fine, tool0, \WObj:=ob_RRC_workplace;
        MoveL [[73.8, 99.1, 0.8],[-0.2211, 0.6716, -0.6716, -0.2211],[0,0,0,0],[9E9,9E9,9E9,9E9,9E9,9E9]], s_printSpeed, fine, tool0, \WObj:=ob_RRC_workplace;
        MoveL [[61.8, 98.9, 0.8],[-0.2218, 0.6714, -0.6714, -0.2218],[0,0,0,0],[9E9,9E9,9E9,9E9,9E9,9E9]], s_printSpeed, fine, tool0, \WObj:=ob_RRC_workplace;
        MoveL [[50.0, 101.4, 0.9],[-0.2139, 0.6740, -0.6740, -0.2139],[0,0,0,0],[9E9,9E9,9E9,9E9,9E9,9E9]], s_printSpeed, fine, tool0, \WObj:=ob_RRC_workplace;
        MoveL [[38.2, 103.1, 0.9],[-0.2083, 0.6757, -0.6757, -0.2083],[0,0,0,0],[9E9,9E9,9E9,9E9,9E9,9E9]], s_printSpeed, fine, tool0, \WObj:=ob_RRC_workplace;
        MoveL [[29.2, 95.1, 0.8],[-0.2352, 0.6669, -0.6669, -0.2352],[0,0,0,0],[9E9,9E9,9E9,9E9,9E9,9E9]], s_printSpeed, fine, tool0, \WObj:=ob_RRC_workplace;
        MoveL [[30.8, 83.2, 0.5],[-0.2871, 0.6462, 0.6462, 0.2871],[0,0,0,0],[9E9,9E9,9E9,9E9,9E9,9E9]], s_printSpeed, fine, tool0, \WObj:=ob_RRC_workplace;
        MoveL [[33.2, 71.5, 0.3],[-0.3563, 0.6108, 0.6108, 0.3563],[0,0,0,0],[9E9,9E9,9E9,9E9,9E9,9E9]], s_printSpeed, fine, tool0, \WObj:=ob_RRC_workplace;
        MoveL [[33.5, 59.5, 0.1],[-0.4436, 0.5507, 0.5507, 0.4436],[0,0,0,0],[9E9,9E9,9E9,9E9,9E9,9E9]], s_printSpeed, fine, tool0, \WObj:=ob_RRC_workplace;
        MoveL [[23.9, 52.3, 0.0],[-0.4979, 0.5021, 0.5021, 0.4979],[0,0,0,0],[9E9,9E9,9E9,9E9,9E9,9E9]], s_printSpeed, fine, tool0, \WObj:=ob_RRC_workplace;
        MoveL [[11.9, 52.6, 0.0],[-0.4956, 0.5044, 0.5044, 0.4956],[0,0,0,0],[9E9,9E9,9E9,9E9,9E9,9E9]], s_printSpeed, fine, tool0, \WObj:=ob_RRC_workplace;
        MoveL [[0.1, 55.1, 0.1],[-0.4769, 0.5221, 0.5221, 0.4769],[0,0,0,0],[9E9,9E9,9E9,9E9,9E9,9E9]], s_printSpeed, fine, tool0, \WObj:=ob_RRC_workplace;
        MoveL [[-11.3, 58.7, 0.1],[-0.4495, 0.5458, 0.5458, 0.4495],[0,0,0,0],[9E9,9E9,9E9,9E9,9E9,9E9]], s_printSpeed, fine, tool0, \WObj:=ob_RRC_workplace;
    ! layer end
        MoveL [[302.1, 55.4, 0.1],[-0.4722, 0.5263, 0.5263, 0.4722],[0,0,0,0],[9E9,9E9,9E9,9E9,9E9,9E9]], s_printSpeed, fine, tool0, \WObj:=ob_RRC_workplace;
        MoveL [[290.4, 52.7, 0.0],[-0.4928, 0.5071, 0.5071, 0.4928],[0,0,0,0],[9E9,9E9,9E9,9E9,9E9,9E9]], s_printSpeed, fine, tool0, \WObj:=ob_RRC_workplace;
        MoveL [[278.5, 51.8, 0.0],[-0.4996, 0.5004, 0.5004, 0.4996],[0,0,0,0],[9E9,9E9,9E9,9E9,9E9,9E9]], s_printSpeed, fine, tool0, \WObj:=ob_RRC_workplace;
        MoveL [[267.5, 56.7, 0.1],[-0.4626, 0.5348, 0.5348, 0.4626],[0,0,0,0],[9E9,9E9,9E9,9E9,9E9,9E9]], s_printSpeed, fine, tool0, \WObj:=ob_RRC_workplace;
        MoveL [[266.4, 68.7, 0.4],[-0.3741, 0.6000, 0.6000, 0.3741],[0,0,0,0],[9E9,9E9,9E9,9E9,9E9,9E9]], s_printSpeed, fine, tool0, \WObj:=ob_RRC_workplace;
        MoveL [[268.6, 80.4, 0.8],[-0.3014, 0.6396, 0.6396, 0.3014],[0,0,0,0],[9E9,9E9,9E9,9E9,9E9,9E9]], s_printSpeed, fine, tool0, \WObj:=ob_RRC_workplace;
        MoveL [[270.7, 92.3, 1.1],[0.2468, -0.6627, 0.6627, 0.2468],[0,0,0,0],[9E9,9E9,9E9,9E9,9E9,9E9]], s_printSpeed, fine, tool0, \WObj:=ob_RRC_workplace;
        MoveL [[264.7, 102.7, 1.3],[-0.2108, 0.6750, -0.6750, -0.2108],[0,0,0,0],[9E9,9E9,9E9,9E9,9E9,9E9]], s_printSpeed, fine, tool0, \WObj:=ob_RRC_workplace;
        MoveL [[252.8, 101.7, 1.3],[-0.2140, 0.6740, -0.6740, -0.2140],[0,0,0,0],[9E9,9E9,9E9,9E9,9E9,9E9]], s_printSpeed, fine, tool0, \WObj:=ob_RRC_workplace;
        MoveL [[241.1, 99.2, 1.3],[-0.2219, 0.6714, -0.6714, -0.2219],[0,0,0,0],[9E9,9E9,9E9,9E9,9E9,9E9]], s_printSpeed, fine, tool0, \WObj:=ob_RRC_workplace;
        MoveL [[229.1, 98.1, 1.2],[-0.2255, 0.6702, -0.6702, -0.2255],[0,0,0,0],[9E9,9E9,9E9,9E9,9E9,9E9]], s_printSpeed, fine, tool0, \WObj:=ob_RRC_workplace;
        MoveL [[222.5, 108.1, 1.5],[0.1956, -0.6795, 0.6795, 0.1956],[0,0,0,0],[9E9,9E9,9E9,9E9,9E9,9E9]], s_printSpeed, fine, tool0, \WObj:=ob_RRC_workplace;
        MoveL [[224.5, 119.9, 1.8],[0.1686, -0.6867, 0.6867, 0.1686],[0,0,0,0],[9E9,9E9,9E9,9E9,9E9,9E9]], s_printSpeed, fine, tool0, \WObj:=ob_RRC_workplace;
        MoveL [[226.9, 131.7, 2.1],[0.1481, -0.6914, 0.6914, 0.1481],[0,0,0,0],[9E9,9E9,9E9,9E9,9E9,9E9]], s_printSpeed, fine, tool0, \WObj:=ob_RRC_workplace;
        MoveL [[226.0, 143.7, 2.4],[-0.1318, 0.6947, -0.6947, -0.1318],[0,0,0,0],[9E9,9E9,9E9,9E9,9E9,9E9]], s_printSpeed, fine, tool0, \WObj:=ob_RRC_workplace;
        MoveL [[214.2, 145.7, 2.5],[-0.1294, 0.6952, -0.6952, -0.1294],[0,0,0,0],[9E9,9E9,9E9,9E9,9E9,9E9]], s_printSpeed, fine, tool0, \WObj:=ob_RRC_workplace;
        MoveL [[202.4, 143.3, 2.4],[-0.1322, 0.6946, -0.6946, -0.1322],[0,0,0,0],[9E9,9E9,9E9,9E9,9E9,9E9]], s_printSpeed, fine, tool0, \WObj:=ob_RRC_workplace;
        MoveL [[190.6, 141.2, 2.4],[-0.1348, 0.6941, -0.6941, -0.1348],[0,0,0,0],[9E9,9E9,9E9,9E9,9E9,9E9]], s_printSpeed, fine, tool0, \WObj:=ob_RRC_workplace;
        MoveL [[179.6, 146.0, 2.5],[-0.1290, 0.6952, -0.6952, -0.1290],[0,0,0,0],[9E9,9E9,9E9,9E9,9E9,9E9]], s_printSpeed, fine, tool0, \WObj:=ob_RRC_workplace;
        MoveL [[179.5, 158.0, 2.8],[0.1164, -0.6975, 0.6975, 0.1164],[0,0,0,0],[9E9,9E9,9E9,9E9,9E9,9E9]], s_printSpeed, fine, tool0, \WObj:=ob_RRC_workplace;
        MoveL [[181.8, 169.8, 3.1],[0.1063, -0.6991, 0.6991, 0.1063],[0,0,0,0],[9E9,9E9,9E9,9E9,9E9,9E9]], s_printSpeed, fine, tool0, \WObj:=ob_RRC_workplace;
        MoveL [[183.5, 181.7, 3.4],[0.0978, -0.7003, 0.7003, 0.0978],[0,0,0,0],[9E9,9E9,9E9,9E9,9E9,9E9]], s_printSpeed, fine, tool0, \WObj:=ob_RRC_workplace;
        MoveL [[175.2, 190.4, 3.7],[0.0924, -0.7010, 0.7010, 0.0924],[0,0,0,0],[9E9,9E9,9E9,9E9,9E9,9E9]], s_printSpeed, fine, tool0, \WObj:=ob_RRC_workplace;
        MoveL [[163.3, 188.7, 3.6],[0.0934, -0.7009, 0.7009, 0.0934],[0,0,0,0],[9E9,9E9,9E9,9E9,9E9,9E9]], s_printSpeed, fine, tool0, \WObj:=ob_RRC_workplace;
        MoveL [[151.5, 186.5, 3.6],[0.0947, -0.7007, 0.7007, 0.0947],[0,0,0,0],[9E9,9E9,9E9,9E9,9E9,9E9]], s_printSpeed, fine, tool0, \WObj:=ob_RRC_workplace;
        MoveL [[139.6, 185.7, 3.5],[0.0952, -0.7007, 0.7007, 0.0952],[0,0,0,0],[9E9,9E9,9E9,9E9,9E9,9E9]], s_printSpeed, fine, tool0, \WObj:=ob_RRC_workplace;
        MoveL [[127.6, 187.2, 3.6],[0.0943, -0.7008, 0.7008, 0.0943],[0,0,0,0],[9E9,9E9,9E9,9E9,9E9,9E9]], s_printSpeed, fine, tool0, \WObj:=ob_RRC_workplace;
        MoveL [[115.9, 184.9, 3.5],[0.0957, -0.7006, 0.7006, 0.0957],[0,0,0,0],[9E9,9E9,9E9,9E9,9E9,9E9]], s_printSpeed, fine, tool0, \WObj:=ob_RRC_workplace;
        MoveL [[116.4, 172.9, 3.2],[0.1039, -0.6994, 0.6994, 0.1039],[0,0,0,0],[9E9,9E9,9E9,9E9,9E9,9E9]], s_printSpeed, fine, tool0, \WObj:=ob_RRC_workplace;
        MoveL [[118.9, 161.2, 2.9],[-0.1135, 0.6979, -0.6979, -0.1135],[0,0,0,0],[9E9,9E9,9E9,9E9,9E9,9E9]], s_printSpeed, fine, tool0, \WObj:=ob_RRC_workplace;
        MoveL [[120.4, 149.3, 2.6],[0.1253, -0.6959, 0.6959, 0.1253],[0,0,0,0],[9E9,9E9,9E9,9E9,9E9,9E9]], s_printSpeed, fine, tool0, \WObj:=ob_RRC_workplace;
        MoveL [[111.9, 140.8, 2.3],[0.1354, -0.6940, 0.6940, 0.1354],[0,0,0,0],[9E9,9E9,9E9,9E9,9E9,9E9]], s_printSpeed, fine, tool0, \WObj:=ob_RRC_workplace;
        MoveL [[100.1, 142.4, 2.4],[0.1333, -0.6944, 0.6944, 0.1333],[0,0,0,0],[9E9,9E9,9E9,9E9,9E9,9E9]], s_printSpeed, fine, tool0, \WObj:=ob_RRC_workplace;
        MoveL [[88.3, 145.0, 2.5],[0.1301, -0.6950, 0.6950, 0.1301],[0,0,0,0],[9E9,9E9,9E9,9E9,9E9,9E9]], s_printSpeed, fine, tool0, \WObj:=ob_RRC_workplace;
        MoveL [[76.3, 145.3, 2.5],[0.1298, -0.6951, 0.6951, 0.1298],[0,0,0,0],[9E9,9E9,9E9,9E9,9E9,9E9]], s_printSpeed, fine, tool0, \WObj:=ob_RRC_workplace;
        MoveL [[72.7, 133.9, 2.2],[0.1449, -0.6921, 0.6921, 0.1449],[0,0,0,0],[9E9,9E9,9E9,9E9,9E9,9E9]], s_printSpeed, fine, tool0, \WObj:=ob_RRC_workplace;
        MoveL [[75.0, 122.1, 1.9],[0.1645, -0.6877, 0.6877, 0.1645],[0,0,0,0],[9E9,9E9,9E9,9E9,9E9,9E9]], s_printSpeed, fine, tool0, \WObj:=ob_RRC_workplace;
        MoveL [[77.2, 110.3, 1.5],[0.1900, -0.6811, 0.6811, 0.1900],[0,0,0,0],[9E9,9E9,9E9,9E9,9E9,9E9]], s_printSpeed, fine, tool0, \WObj:=ob_RRC_workplace;
        MoveL [[73.8, 98.8, 1.2],[0.2231, -0.6710, 0.6710, 0.2231],[0,0,0,0],[9E9,9E9,9E9,9E9,9E9,9E9]], s_printSpeed, fine, tool0, \WObj:=ob_RRC_workplace;
        MoveL [[61.8, 98.6, 1.2],[0.2237, -0.6708, 0.6708, 0.2237],[0,0,0,0],[9E9,9E9,9E9,9E9,9E9,9E9]], s_printSpeed, fine, tool0, \WObj:=ob_RRC_workplace;
        MoveL [[50.0, 101.0, 1.3],[0.2159, -0.6734, 0.6734, 0.2159],[0,0,0,0],[9E9,9E9,9E9,9E9,9E9,9E9]], s_printSpeed, fine, tool0, \WObj:=ob_RRC_workplace;
        MoveL [[38.2, 102.8, 1.3],[0.2104, -0.6751, 0.6751, 0.2104],[0,0,0,0],[9E9,9E9,9E9,9E9,9E9,9E9]], s_printSpeed, fine, tool0, \WObj:=ob_RRC_workplace;
        MoveL [[29.2, 94.8, 1.1],[0.2370, -0.6662, 0.6662, 0.2370],[0,0,0,0],[9E9,9E9,9E9,9E9,9E9,9E9]], s_printSpeed, fine, tool0, \WObj:=ob_RRC_workplace;
        MoveL [[30.8, 82.9, 0.8],[-0.2884, 0.6456, 0.6456, 0.2884],[0,0,0,0],[9E9,9E9,9E9,9E9,9E9,9E9]], s_printSpeed, fine, tool0, \WObj:=ob_RRC_workplace;
        MoveL [[33.2, 71.2, 0.5],[-0.3569, 0.6104, 0.6104, 0.3569],[0,0,0,0],[9E9,9E9,9E9,9E9,9E9,9E9]], s_printSpeed, fine, tool0, \WObj:=ob_RRC_workplace;
        MoveL [[33.5, 59.2, 0.2],[-0.4437, 0.5506, 0.5506, 0.4437],[0,0,0,0],[9E9,9E9,9E9,9E9,9E9,9E9]], s_printSpeed, fine, tool0, \WObj:=ob_RRC_workplace;
        MoveL [[23.9, 52.0, 0.0],[-0.4979, 0.5021, 0.5021, 0.4979],[0,0,0,0],[9E9,9E9,9E9,9E9,9E9,9E9]], s_printSpeed, fine, tool0, \WObj:=ob_RRC_workplace;
        MoveL [[11.9, 52.3, 0.0],[-0.4956, 0.5044, 0.5044, 0.4956],[0,0,0,0],[9E9,9E9,9E9,9E9,9E9,9E9]], s_printSpeed, fine, tool0, \WObj:=ob_RRC_workplace;
        MoveL [[0.1, 54.8, 0.1],[-0.4770, 0.5220, 0.5220, 0.4770],[0,0,0,0],[9E9,9E9,9E9,9E9,9E9,9E9]], s_printSpeed, fine, tool0, \WObj:=ob_RRC_workplace;
        MoveL [[-11.3, 58.4, 0.2],[-0.4496, 0.5457, 0.5457, 0.4496],[0,0,0,0],[9E9,9E9,9E9,9E9,9E9,9E9]], s_printSpeed, fine, tool0, \WObj:=ob_RRC_workplace;
    ! layer end
        MoveL [[302.1, 55.1, 0.1],[-0.4722, 0.5263, 0.5263, 0.4722],[0,0,0,0],[9E9,9E9,9E9,9E9,9E9,9E9]], s_printSpeed, fine, tool0, \WObj:=ob_RRC_workplace;
        MoveL [[290.4, 52.4, 0.0],[-0.4928, 0.5071, 0.5071, 0.4928],[0,0,0,0],[9E9,9E9,9E9,9E9,9E9,9E9]], s_printSpeed, fine, tool0, \WObj:=ob_RRC_workplace;
        MoveL [[278.5, 51.5, 0.0],[-0.4996, 0.5004, 0.5004, 0.4996],[0,0,0,0],[9E9,9E9,9E9,9E9,9E9,9E9]], s_printSpeed, fine, tool0, \WObj:=ob_RRC_workplace;
        MoveL [[267.5, 56.4, 0.2],[-0.4626, 0.5348, 0.5348, 0.4626],[0,0,0,0],[9E9,9E9,9E9,9E9,9E9,9E9]], s_printSpeed, fine, tool0, \WObj:=ob_RRC_workplace;
        MoveL [[266.4, 68.3, 0.6],[-0.3746, 0.5997, 0.5997, 0.3746],[0,0,0,0],[9E9,9E9,9E9,9E9,9E9,9E9]], s_printSpeed, fine, tool0, \WObj:=ob_RRC_workplace;
        MoveL [[268.6, 80.1, 1.0],[-0.3026, 0.6391, 0.6391, 0.3026],[0,0,0,0],[9E9,9E9,9E9,9E9,9E9,9E9]], s_printSpeed, fine, tool0, \WObj:=ob_RRC_workplace;
        MoveL [[270.7, 91.9, 1.4],[-0.2484, 0.6620, -0.6620, -0.2484],[0,0,0,0],[9E9,9E9,9E9,9E9,9E9,9E9]], s_printSpeed, fine, tool0, \WObj:=ob_RRC_workplace;
        MoveL [[264.7, 102.4, 1.8],[0.2128, -0.6743, 0.6743, 0.2128],[0,0,0,0],[9E9,9E9,9E9,9E9,9E9,9E9]], s_printSpeed, fine, tool0, \WObj:=ob_RRC_workplace;
        MoveL [[252.8, 101.3, 1.8],[0.2160, -0.6733, 0.6733, 0.2160],[0,0,0,0],[9E9,9E9,9E9,9E9,9E9,9E9]], s_printSpeed, fine, tool0, \WObj:=ob_RRC_workplace;
        MoveL [[241.1, 98.9, 1.7],[0.2238, -0.6708, 0.6708, 0.2238],[0,0,0,0],[9E9,9E9,9E9,9E9,9E9,9E9]], s_printSpeed, fine, tool0, \WObj:=ob_RRC_workplace;
        MoveL [[229.1, 97.8, 1.6],[0.2274, -0.6695, 0.6695, 0.2274],[0,0,0,0],[9E9,9E9,9E9,9E9,9E9,9E9]], s_printSpeed, fine, tool0, \WObj:=ob_RRC_workplace;
        MoveL [[222.5, 107.8, 2.0],[-0.1978, 0.6789, -0.6789, -0.1978],[0,0,0,0],[9E9,9E9,9E9,9E9,9E9,9E9]], s_printSpeed, fine, tool0, \WObj:=ob_RRC_workplace;
        MoveL [[224.5, 119.6, 2.4],[-0.1710, 0.6861, -0.6861, -0.1710],[0,0,0,0],[9E9,9E9,9E9,9E9,9E9,9E9]], s_printSpeed, fine, tool0, \WObj:=ob_RRC_workplace;
        MoveL [[226.9, 131.4, 2.8],[-0.1507, 0.6909, -0.6909, -0.1507],[0,0,0,0],[9E9,9E9,9E9,9E9,9E9,9E9]], s_printSpeed, fine, tool0, \WObj:=ob_RRC_workplace;
        MoveL [[226.0, 143.3, 3.2],[0.1344, -0.6942, 0.6942, 0.1344],[0,0,0,0],[9E9,9E9,9E9,9E9,9E9,9E9]], s_printSpeed, fine, tool0, \WObj:=ob_RRC_workplace;
        MoveL [[214.2, 145.4, 3.3],[0.1320, -0.6947, 0.6947, 0.1320],[0,0,0,0],[9E9,9E9,9E9,9E9,9E9,9E9]], s_printSpeed, fine, tool0, \WObj:=ob_RRC_workplace;
        MoveL [[202.4, 143.0, 3.2],[0.1348, -0.6941, 0.6941, 0.1348],[0,0,0,0],[9E9,9E9,9E9,9E9,9E9,9E9]], s_printSpeed, fine, tool0, \WObj:=ob_RRC_workplace;
        MoveL [[190.6, 140.9, 3.1],[0.1374, -0.6936, 0.6936, 0.1374],[0,0,0,0],[9E9,9E9,9E9,9E9,9E9,9E9]], s_printSpeed, fine, tool0, \WObj:=ob_RRC_workplace;
        MoveL [[179.6, 145.7, 3.3],[0.1316, -0.6947, 0.6947, 0.1316],[0,0,0,0],[9E9,9E9,9E9,9E9,9E9,9E9]], s_printSpeed, fine, tool0, \WObj:=ob_RRC_workplace;
        MoveL [[179.5, 157.7, 3.7],[-0.1191, 0.6970, -0.6970, -0.1191],[0,0,0,0],[9E9,9E9,9E9,9E9,9E9,9E9]], s_printSpeed, fine, tool0, \WObj:=ob_RRC_workplace;
        MoveL [[181.8, 169.5, 4.1],[-0.1091, 0.6986, -0.6986, -0.1091],[0,0,0,0],[9E9,9E9,9E9,9E9,9E9,9E9]], s_printSpeed, fine, tool0, \WObj:=ob_RRC_workplace;
        MoveL [[183.5, 181.3, 4.6],[-0.1006, 0.6999, -0.6999, -0.1006],[0,0,0,0],[9E9,9E9,9E9,9E9,9E9,9E9]], s_printSpeed, fine, tool0, \WObj:=ob_RRC_workplace;
        MoveL [[175.2, 190.0, 4.9],[0.0953, -0.7007, 0.7007, 0.0953],[0,0,0,0],[9E9,9E9,9E9,9E9,9E9,9E9]], s_printSpeed, fine, tool0, \WObj:=ob_RRC_workplace;
        MoveL [[163.3, 188.3, 4.8],[0.0963, -0.7005, 0.7005, 0.0963],[0,0,0,0],[9E9,9E9,9E9,9E9,9E9,9E9]], s_printSpeed, fine, tool0, \WObj:=ob_RRC_workplace;
        MoveL [[151.5, 186.2, 4.7],[0.0976, -0.7003, 0.7003, 0.0976],[0,0,0,0],[9E9,9E9,9E9,9E9,9E9,9E9]], s_printSpeed, fine, tool0, \WObj:=ob_RRC_workplace;
        MoveL [[139.6, 185.4, 4.7],[0.0981, -0.7003, 0.7003, 0.0981],[0,0,0,0],[9E9,9E9,9E9,9E9,9E9,9E9]], s_printSpeed, fine, tool0, \WObj:=ob_RRC_workplace;
        MoveL [[127.6, 186.9, 4.8],[-0.0972, 0.7004, -0.7004, -0.0972],[0,0,0,0],[9E9,9E9,9E9,9E9,9E9,9E9]], s_printSpeed, fine, tool0, \WObj:=ob_RRC_workplace;
        MoveL [[115.9, 184.6, 4.7],[-0.0986, 0.7002, -0.7002, -0.0986],[0,0,0,0],[9E9,9E9,9E9,9E9,9E9,9E9]], s_printSpeed, fine, tool0, \WObj:=ob_RRC_workplace;
        MoveL [[116.4, 172.6, 4.3],[-0.1067, 0.6990, -0.6990, -0.1067],[0,0,0,0],[9E9,9E9,9E9,9E9,9E9,9E9]], s_printSpeed, fine, tool0, \WObj:=ob_RRC_workplace;
        MoveL [[118.9, 160.9, 3.8],[-0.1163, 0.6975, -0.6975, -0.1163],[0,0,0,0],[9E9,9E9,9E9,9E9,9E9,9E9]], s_printSpeed, fine, tool0, \WObj:=ob_RRC_workplace;
        MoveL [[120.4, 149.0, 3.4],[-0.1280, 0.6954, -0.6954, -0.1280],[0,0,0,0],[9E9,9E9,9E9,9E9,9E9,9E9]], s_printSpeed, fine, tool0, \WObj:=ob_RRC_workplace;
        MoveL [[111.9, 140.4, 3.1],[-0.1380, 0.6935, -0.6935, -0.1380],[0,0,0,0],[9E9,9E9,9E9,9E9,9E9,9E9]], s_printSpeed, fine, tool0, \WObj:=ob_RRC_workplace;
        MoveL [[100.1, 142.1, 3.2],[-0.1359, 0.6939, -0.6939, -0.1359],[0,0,0,0],[9E9,9E9,9E9,9E9,9E9,9E9]], s_printSpeed, fine, tool0, \WObj:=ob_RRC_workplace;
        MoveL [[88.3, 144.7, 3.3],[-0.1328, 0.6945, -0.6945, -0.1328],[0,0,0,0],[9E9,9E9,9E9,9E9,9E9,9E9]], s_printSpeed, fine, tool0, \WObj:=ob_RRC_workplace;
        MoveL [[76.3, 145.0, 3.3],[-0.1325, 0.6946, -0.6946, -0.1325],[0,0,0,0],[9E9,9E9,9E9,9E9,9E9,9E9]], s_printSpeed, fine, tool0, \WObj:=ob_RRC_workplace;
        MoveL [[72.7, 133.5, 2.9],[-0.1474, 0.6916, -0.6916, -0.1474],[0,0,0,0],[9E9,9E9,9E9,9E9,9E9,9E9]], s_printSpeed, fine, tool0, \WObj:=ob_RRC_workplace;
        MoveL [[75.0, 121.8, 2.5],[-0.1669, 0.6871, -0.6871, -0.1669],[0,0,0,0],[9E9,9E9,9E9,9E9,9E9,9E9]], s_printSpeed, fine, tool0, \WObj:=ob_RRC_workplace;
        MoveL [[77.2, 110.0, 2.1],[-0.1922, 0.6805, -0.6805, -0.1922],[0,0,0,0],[9E9,9E9,9E9,9E9,9E9,9E9]], s_printSpeed, fine, tool0, \WObj:=ob_RRC_workplace;
        MoveL [[73.8, 98.5, 1.7],[-0.2250, 0.6704, -0.6704, -0.2250],[0,0,0,0],[9E9,9E9,9E9,9E9,9E9,9E9]], s_printSpeed, fine, tool0, \WObj:=ob_RRC_workplace;
        MoveL [[61.8, 98.3, 1.6],[-0.2256, 0.6702, -0.6702, -0.2256],[0,0,0,0],[9E9,9E9,9E9,9E9,9E9,9E9]], s_printSpeed, fine, tool0, \WObj:=ob_RRC_workplace;
        MoveL [[50.0, 100.7, 1.7],[-0.2178, 0.6727, -0.6727, -0.2178],[0,0,0,0],[9E9,9E9,9E9,9E9,9E9,9E9]], s_printSpeed, fine, tool0, \WObj:=ob_RRC_workplace;
        MoveL [[38.2, 102.5, 1.8],[-0.2124, 0.6744, -0.6744, -0.2124],[0,0,0,0],[9E9,9E9,9E9,9E9,9E9,9E9]], s_printSpeed, fine, tool0, \WObj:=ob_RRC_workplace;
        MoveL [[29.2, 94.5, 1.5],[-0.2388, 0.6656, -0.6656, -0.2388],[0,0,0,0],[9E9,9E9,9E9,9E9,9E9,9E9]], s_printSpeed, fine, tool0, \WObj:=ob_RRC_workplace;
        MoveL [[30.8, 82.6, 1.1],[-0.2897, 0.6450, 0.6450, 0.2897],[0,0,0,0],[9E9,9E9,9E9,9E9,9E9,9E9]], s_printSpeed, fine, tool0, \WObj:=ob_RRC_workplace;
        MoveL [[33.2, 70.9, 0.7],[-0.3576, 0.6100, 0.6100, 0.3576],[0,0,0,0],[9E9,9E9,9E9,9E9,9E9,9E9]], s_printSpeed, fine, tool0, \WObj:=ob_RRC_workplace;
        MoveL [[33.5, 58.9, 0.3],[-0.4438, 0.5505, 0.5505, 0.4438],[0,0,0,0],[9E9,9E9,9E9,9E9,9E9,9E9]], s_printSpeed, fine, tool0, \WObj:=ob_RRC_workplace;
        MoveL [[23.9, 51.7, 0.0],[-0.4979, 0.5021, 0.5021, 0.4979],[0,0,0,0],[9E9,9E9,9E9,9E9,9E9,9E9]], s_printSpeed, fine, tool0, \WObj:=ob_RRC_workplace;
        MoveL [[11.9, 52.0, 0.0],[-0.4956, 0.5044, 0.5044, 0.4956],[0,0,0,0],[9E9,9E9,9E9,9E9,9E9,9E9]], s_printSpeed, fine, tool0, \WObj:=ob_RRC_workplace;
        MoveL [[0.1, 54.5, 0.1],[-0.4770, 0.5220, 0.5220, 0.4770],[0,0,0,0],[9E9,9E9,9E9,9E9,9E9,9E9]], s_printSpeed, fine, tool0, \WObj:=ob_RRC_workplace;
        MoveL [[-11.3, 58.1, 0.2],[-0.4497, 0.5457, 0.5457, 0.4497],[0,0,0,0],[9E9,9E9,9E9,9E9,9E9,9E9]], s_printSpeed, fine, tool0, \WObj:=ob_RRC_workplace;
    ! layer end
        MoveL [[302.1, 54.8, 0.2],[-0.4723, 0.5263, 0.5263, 0.4723],[0,0,0,0],[9E9,9E9,9E9,9E9,9E9,9E9]], s_printSpeed, fine, tool0, \WObj:=ob_RRC_workplace;
        MoveL [[290.4, 52.1, 0.0],[-0.4928, 0.5071, 0.5071, 0.4928],[0,0,0,0],[9E9,9E9,9E9,9E9,9E9,9E9]], s_printSpeed, fine, tool0, \WObj:=ob_RRC_workplace;
        MoveL [[278.5, 51.2, 0.0],[-0.4996, 0.5004, 0.5004, 0.4996],[0,0,0,0],[9E9,9E9,9E9,9E9,9E9,9E9]], s_printSpeed, fine, tool0, \WObj:=ob_RRC_workplace;
        MoveL [[267.5, 56.1, 0.2],[-0.4627, 0.5347, 0.5347, 0.4627],[0,0,0,0],[9E9,9E9,9E9,9E9,9E9,9E9]], s_printSpeed, fine, tool0, \WObj:=ob_RRC_workplace;
        MoveL [[266.4, 68.0, 0.7],[-0.3752, 0.5994, 0.5994, 0.3752],[0,0,0,0],[9E9,9E9,9E9,9E9,9E9,9E9]], s_printSpeed, fine, tool0, \WObj:=ob_RRC_workplace;
        MoveL [[268.6, 79.8, 1.3],[-0.3038, 0.6385, 0.6385, 0.3038],[0,0,0,0],[9E9,9E9,9E9,9E9,9E9,9E9]], s_printSpeed, fine, tool0, \WObj:=ob_RRC_workplace;
        MoveL [[270.7, 91.6, 1.8],[-0.2501, 0.6614, -0.6614, -0.2501],[0,0,0,0],[9E9,9E9,9E9,9E9,9E9,9E9]], s_printSpeed, fine, tool0, \WObj:=ob_RRC_workplace;
        MoveL [[264.7, 102.1, 2.2],[-0.2149, 0.6737, -0.6737, -0.2149],[0,0,0,0],[9E9,9E9,9E9,9E9,9E9,9E9]], s_printSpeed, fine, tool0, \WObj:=ob_RRC_workplace;
        MoveL [[252.8, 101.0, 2.2],[-0.2180, 0.6727, -0.6727, -0.2180],[0,0,0,0],[9E9,9E9,9E9,9E9,9E9,9E9]], s_printSpeed, fine, tool0, \WObj:=ob_RRC_workplace;
        MoveL [[241.1, 98.5, 2.1],[-0.2257, 0.6701, -0.6701, -0.2257],[0,0,0,0],[9E9,9E9,9E9,9E9,9E9,9E9]], s_printSpeed, fine, tool0, \WObj:=ob_RRC_workplace;
        MoveL [[229.1, 97.5, 2.0],[-0.2293, 0.6689, -0.6689, -0.2293],[0,0,0,0],[9E9,9E9,9E9,9E9,9E9,9E9]], s_printSpeed, fine, tool0, \WObj:=ob_RRC_workplace;
        MoveL [[222.5, 107.5, 2.5],[-0.1999, 0.6783, -0.6783, -0.1999],[0,0,0,0],[9E9,9E9,9E9,9E9,9E9,9E9]], s_printSpeed, fine, tool0, \WObj:=ob_RRC_workplace;
        MoveL [[224.5, 119.3, 3.0],[0.1734, -0.6855, 0.6855, 0.1734],[0,0,0,0],[9E9,9E9,9E9,9E9,9E9,9E9]], s_printSpeed, fine, tool0, \WObj:=ob_RRC_workplace;
        MoveL [[226.9, 131.0, 3.5],[-0.1532, 0.6903, -0.6903, -0.1532],[0,0,0,0],[9E9,9E9,9E9,9E9,9E9,9E9]], s_printSpeed, fine, tool0, \WObj:=ob_RRC_workplace;
        MoveL [[226.0, 143.0, 4.0],[-0.1371, 0.6937, -0.6937, -0.1371],[0,0,0,0],[9E9,9E9,9E9,9E9,9E9,9E9]], s_printSpeed, fine, tool0, \WObj:=ob_RRC_workplace;
        MoveL [[214.2, 145.0, 4.1],[-0.1347, 0.6942, -0.6942, -0.1347],[0,0,0,0],[9E9,9E9,9E9,9E9,9E9,9E9]], s_printSpeed, fine, tool0, \WObj:=ob_RRC_workplace;
        MoveL [[202.4, 142.7, 4.0],[-0.1375, 0.6936, -0.6936, -0.1375],[0,0,0,0],[9E9,9E9,9E9,9E9,9E9,9E9]], s_printSpeed, fine, tool0, \WObj:=ob_RRC_workplace;
        MoveL [[190.6, 140.6, 3.9],[-0.1401, 0.6931, -0.6931, -0.1401],[0,0,0,0],[9E9,9E9,9E9,9E9,9E9,9E9]], s_printSpeed, fine, tool0, \WObj:=ob_RRC_workplace;
        MoveL [[179.6, 145.4, 4.1],[-0.1343, 0.6942, -0.6942, -0.1343],[0,0,0,0],[9E9,9E9,9E9,9E9,9E9,9E9]], s_printSpeed, fine, tool0, \WObj:=ob_RRC_workplace;
        MoveL [[179.5, 157.4, 4.7],[-0.1219, 0.6965, -0.6965, -0.1219],[0,0,0,0],[9E9,9E9,9E9,9E9,9E9,9E9]], s_printSpeed, fine, tool0, \WObj:=ob_RRC_workplace;
        MoveL [[181.8, 169.1, 5.2],[-0.1119, 0.6982, -0.6982, -0.1119],[0,0,0,0],[9E9,9E9,9E9,9E9,9E9,9E9]], s_printSpeed, fine, tool0, \WObj:=ob_RRC_workplace;
        MoveL [[183.5, 181.0, 5.7],[-0.1035, 0.6995, -0.6995, -0.1035],[0,0,0,0],[9E9,9E9,9E9,9E9,9E9,9E9]], s_printSpeed, fine, tool0, \WObj:=ob_RRC_workplace;
        MoveL [[175.2, 189.7, 6.1],[-0.0982, 0.7003, -0.7003, -0.0982],[0,0,0,0],[9E9,9E9,9E9,9E9,9E9,9E9]], s_printSpeed, fine, tool0, \WObj:=ob_RRC_workplace;
        MoveL [[163.3, 188.0, 6.0],[-0.0992, 0.7001, -0.7001, -0.0992],[0,0,0,0],[9E9,9E9,9E9,9E9,9E9,9E9]], s_printSpeed, fine, tool0, \WObj:=ob_RRC_workplace;
        MoveL [[151.5, 185.8, 5.9],[-0.1005, 0.6999, -0.6999, -0.1005],[0,0,0,0],[9E9,9E9,9E9,9E9,9E9,9E9]], s_printSpeed, fine, tool0, \WObj:=ob_RRC_workplace;
        MoveL [[139.6, 185.0, 5.9],[-0.1010, 0.6999, -0.6999, -0.1010],[0,0,0,0],[9E9,9E9,9E9,9E9,9E9,9E9]], s_printSpeed, fine, tool0, \WObj:=ob_RRC_workplace;
        MoveL [[127.6, 186.5, 6.0],[-0.1000, 0.7000, -0.7000, -0.1000],[0,0,0,0],[9E9,9E9,9E9,9E9,9E9,9E9]], s_printSpeed, fine, tool0, \WObj:=ob_RRC_workplace;
        MoveL [[115.9, 184.2, 5.8],[-0.1015, 0.6998, -0.6998, -0.1015],[0,0,0,0],[9E9,9E9,9E9,9E9,9E9,9E9]], s_printSpeed, fine, tool0, \WObj:=ob_RRC_workplace;
        MoveL [[116.4, 172.2, 5.3],[-0.1096, 0.6986, -0.6986, -0.1096],[0,0,0,0],[9E9,9E9,9E9,9E9,9E9,9E9]], s_printSpeed, fine, tool0, \WObj:=ob_RRC_workplace;
        MoveL [[118.9, 160.5, 4.8],[-0.1190, 0.6970, -0.6970, -0.1190],[0,0,0,0],[9E9,9E9,9E9,9E9,9E9,9E9]], s_printSpeed, fine, tool0, \WObj:=ob_RRC_workplace;
        MoveL [[120.4, 148.6, 4.3],[-0.1307, 0.6949, -0.6949, -0.1307],[0,0,0,0],[9E9,9E9,9E9,9E9,9E9,9E9]], s_printSpeed, fine, tool0, \WObj:=ob_RRC_workplace;
        MoveL [[111.9, 140.1, 3.9],[0.1406, -0.6930, 0.6930, 0.1406],[0,0,0,0],[9E9,9E9,9E9,9E9,9E9,9E9]], s_printSpeed, fine, tool0, \WObj:=ob_RRC_workplace;
        MoveL [[100.1, 141.8, 4.0],[0.1386, -0.6934, 0.6934, 0.1386],[0,0,0,0],[9E9,9E9,9E9,9E9,9E9,9E9]], s_printSpeed, fine, tool0, \WObj:=ob_RRC_workplace;
        MoveL [[88.3, 144.4, 4.1],[0.1355, -0.6940, 0.6940, 0.1355],[0,0,0,0],[9E9,9E9,9E9,9E9,9E9,9E9]], s_printSpeed, fine, tool0, \WObj:=ob_RRC_workplace;
        MoveL [[76.3, 144.6, 4.1],[0.1352, -0.6941, 0.6941, 0.1352],[0,0,0,0],[9E9,9E9,9E9,9E9,9E9,9E9]], s_printSpeed, fine, tool0, \WObj:=ob_RRC_workplace;
        MoveL [[72.7, 133.2, 3.6],[-0.1500, 0.6910, -0.6910, -0.1500],[0,0,0,0],[9E9,9E9,9E9,9E9,9E9,9E9]], s_printSpeed, fine, tool0, \WObj:=ob_RRC_workplace;
        MoveL [[75.0, 121.4, 3.1],[-0.1693, 0.6865, -0.6865, -0.1693],[0,0,0,0],[9E9,9E9,9E9,9E9,9E9,9E9]], s_printSpeed, fine, tool0, \WObj:=ob_RRC_workplace;
        MoveL [[77.2, 109.7, 2.6],[-0.1945, 0.6798, -0.6798, -0.1945],[0,0,0,0],[9E9,9E9,9E9,9E9,9E9,9E9]], s_printSpeed, fine, tool0, \WObj:=ob_RRC_workplace;
        MoveL [[73.8, 98.2, 2.1],[0.2269, -0.6697, 0.6697, 0.2269],[0,0,0,0],[9E9,9E9,9E9,9E9,9E9,9E9]], s_printSpeed, fine, tool0, \WObj:=ob_RRC_workplace;
        MoveL [[61.8, 98.0, 2.1],[0.2275, -0.6695, 0.6695, 0.2275],[0,0,0,0],[9E9,9E9,9E9,9E9,9E9,9E9]], s_printSpeed, fine, tool0, \WObj:=ob_RRC_workplace;
        MoveL [[50.0, 100.4, 2.2],[0.2198, -0.6721, 0.6721, 0.2198],[0,0,0,0],[9E9,9E9,9E9,9E9,9E9,9E9]], s_printSpeed, fine, tool0, \WObj:=ob_RRC_workplace;
        MoveL [[38.2, 102.2, 2.2],[0.2145, -0.6738, 0.6738, 0.2145],[0,0,0,0],[9E9,9E9,9E9,9E9,9E9,9E9]], s_printSpeed, fine, tool0, \WObj:=ob_RRC_workplace;
        MoveL [[29.2, 94.2, 1.9],[-0.2405, 0.6649, -0.6649, -0.2405],[0,0,0,0],[9E9,9E9,9E9,9E9,9E9,9E9]], s_printSpeed, fine, tool0, \WObj:=ob_RRC_workplace;
        MoveL [[30.8, 82.3, 1.4],[-0.2910, 0.6444, 0.6444, 0.2910],[0,0,0,0],[9E9,9E9,9E9,9E9,9E9,9E9]], s_printSpeed, fine, tool0, \WObj:=ob_RRC_workplace;
        MoveL [[33.2, 70.6, 0.9],[-0.3583, 0.6096, 0.6096, 0.3583],[0,0,0,0],[9E9,9E9,9E9,9E9,9E9,9E9]], s_printSpeed, fine, tool0, \WObj:=ob_RRC_workplace;
        MoveL [[33.5, 58.6, 0.3],[-0.4439, 0.5504, 0.5504, 0.4439],[0,0,0,0],[9E9,9E9,9E9,9E9,9E9,9E9]], s_printSpeed, fine, tool0, \WObj:=ob_RRC_workplace;
        MoveL [[23.9, 51.4, 0.0],[-0.4979, 0.5021, 0.5021, 0.4979],[0,0,0,0],[9E9,9E9,9E9,9E9,9E9,9E9]], s_printSpeed, fine, tool0, \WObj:=ob_RRC_workplace;
        MoveL [[11.9, 51.7, 0.0],[-0.4956, 0.5044, 0.5044, 0.4956],[0,0,0,0],[9E9,9E9,9E9,9E9,9E9,9E9]], s_printSpeed, fine, tool0, \WObj:=ob_RRC_workplace;
        MoveL [[0.1, 54.2, 0.1],[-0.4770, 0.5220, 0.5220, 0.4770],[0,0,0,0],[9E9,9E9,9E9,9E9,9E9,9E9]], s_printSpeed, fine, tool0, \WObj:=ob_RRC_workplace;
        MoveL [[-11.3, 57.8, 0.3],[-0.4498, 0.5456, 0.5456, 0.4498],[0,0,0,0],[9E9,9E9,9E9,9E9,9E9,9E9]], s_printSpeed, fine, tool0, \WObj:=ob_RRC_workplace;
    ! layer end
        MoveL [[302.1, 54.5, 0.2],[-0.4723, 0.5262, 0.5262, 0.4723],[0,0,0,0],[9E9,9E9,9E9,9E9,9E9,9E9]], s_printSpeed, fine, tool0, \WObj:=ob_RRC_workplace;
        MoveL [[290.4, 51.8, 0.1],[-0.4928, 0.5071, 0.5071, 0.4928],[0,0,0,0],[9E9,9E9,9E9,9E9,9E9,9E9]], s_printSpeed, fine, tool0, \WObj:=ob_RRC_workplace;
        MoveL [[278.5, 50.9, 0.0],[-0.4996, 0.5004, 0.5004, 0.4996],[0,0,0,0],[9E9,9E9,9E9,9E9,9E9,9E9]], s_printSpeed, fine, tool0, \WObj:=ob_RRC_workplace;
        MoveL [[267.5, 55.8, 0.3],[-0.4628, 0.5347, 0.5347, 0.4628],[0,0,0,0],[9E9,9E9,9E9,9E9,9E9,9E9]], s_printSpeed, fine, tool0, \WObj:=ob_RRC_workplace;
        MoveL [[266.4, 67.7, 0.9],[-0.3757, 0.5990, 0.5990, 0.3757],[0,0,0,0],[9E9,9E9,9E9,9E9,9E9,9E9]], s_printSpeed, fine, tool0, \WObj:=ob_RRC_workplace;
        MoveL [[268.6, 79.5, 1.5],[-0.3049, 0.6380, 0.6380, 0.3049],[0,0,0,0],[9E9,9E9,9E9,9E9,9E9,9E9]], s_printSpeed, fine, tool0, \WObj:=ob_RRC_workplace;
        MoveL [[270.7, 91.3, 2.1],[0.2518, -0.6607, 0.6607, 0.2518],[0,0,0,0],[9E9,9E9,9E9,9E9,9E9,9E9]], s_printSpeed, fine, tool0, \WObj:=ob_RRC_workplace;
        MoveL [[264.7, 101.7, 2.7],[-0.2169, 0.6730, -0.6730, -0.2169],[0,0,0,0],[9E9,9E9,9E9,9E9,9E9,9E9]], s_printSpeed, fine, tool0, \WObj:=ob_RRC_workplace;
        MoveL [[252.8, 100.7, 2.6],[0.2200, -0.6720, 0.6720, 0.2200],[0,0,0,0],[9E9,9E9,9E9,9E9,9E9,9E9]], s_printSpeed, fine, tool0, \WObj:=ob_RRC_workplace;
        MoveL [[241.1, 98.2, 2.5],[0.2276, -0.6695, 0.6695, 0.2276],[0,0,0,0],[9E9,9E9,9E9,9E9,9E9,9E9]], s_printSpeed, fine, tool0, \WObj:=ob_RRC_workplace;
        MoveL [[229.1, 97.1, 2.4],[0.2312, -0.6683, 0.6683, 0.2312],[0,0,0,0],[9E9,9E9,9E9,9E9,9E9,9E9]], s_printSpeed, fine, tool0, \WObj:=ob_RRC_workplace;
        MoveL [[222.5, 107.2, 3.0],[0.2021, -0.6776, 0.6776, 0.2021],[0,0,0,0],[9E9,9E9,9E9,9E9,9E9,9E9]], s_printSpeed, fine, tool0, \WObj:=ob_RRC_workplace;
        MoveL [[224.5, 119.0, 3.6],[-0.1758, 0.6849, -0.6849, -0.1758],[0,0,0,0],[9E9,9E9,9E9,9E9,9E9,9E9]], s_printSpeed, fine, tool0, \WObj:=ob_RRC_workplace;
        MoveL [[226.9, 130.7, 4.2],[0.1557, -0.6897, 0.6897, 0.1557],[0,0,0,0],[9E9,9E9,9E9,9E9,9E9,9E9]], s_printSpeed, fine, tool0, \WObj:=ob_RRC_workplace;
        MoveL [[226.0, 142.7, 4.8],[0.1397, -0.6932, 0.6932, 0.1397],[0,0,0,0],[9E9,9E9,9E9,9E9,9E9,9E9]], s_printSpeed, fine, tool0, \WObj:=ob_RRC_workplace;
        MoveL [[214.2, 144.7, 5.0],[0.1374, -0.6936, 0.6936, 0.1374],[0,0,0,0],[9E9,9E9,9E9,9E9,9E9,9E9]], s_printSpeed, fine, tool0, \WObj:=ob_RRC_workplace;
        MoveL [[202.4, 142.3, 4.8],[0.1401, -0.6931, 0.6931, 0.1401],[0,0,0,0],[9E9,9E9,9E9,9E9,9E9,9E9]], s_printSpeed, fine, tool0, \WObj:=ob_RRC_workplace;
        MoveL [[190.6, 140.2, 4.7],[0.1427, -0.6926, 0.6926, 0.1427],[0,0,0,0],[9E9,9E9,9E9,9E9,9E9,9E9]], s_printSpeed, fine, tool0, \WObj:=ob_RRC_workplace;
        MoveL [[179.6, 145.0, 5.0],[0.1370, -0.6937, 0.6937, 0.1370],[0,0,0,0],[9E9,9E9,9E9,9E9,9E9,9E9]], s_printSpeed, fine, tool0, \WObj:=ob_RRC_workplace;
        MoveL [[179.5, 157.0, 5.6],[-0.1246, 0.6960, -0.6960, -0.1246],[0,0,0,0],[9E9,9E9,9E9,9E9,9E9,9E9]], s_printSpeed, fine, tool0, \WObj:=ob_RRC_workplace;
        MoveL [[181.8, 168.8, 6.2],[0.1147, -0.6977, 0.6977, 0.1147],[0,0,0,0],[9E9,9E9,9E9,9E9,9E9,9E9]], s_printSpeed, fine, tool0, \WObj:=ob_RRC_workplace;
        MoveL [[183.5, 180.6, 6.8],[0.1063, -0.6991, 0.6991, 0.1063],[0,0,0,0],[9E9,9E9,9E9,9E9,9E9,9E9]], s_printSpeed, fine, tool0, \WObj:=ob_RRC_workplace;
        MoveL [[175.2, 189.3, 7.3],[0.1011, -0.6998, 0.6998, 0.1011],[0,0,0,0],[9E9,9E9,9E9,9E9,9E9,9E9]], s_printSpeed, fine, tool0, \WObj:=ob_RRC_workplace;
        MoveL [[163.3, 187.6, 7.2],[0.1020, -0.6997, 0.6997, 0.1020],[0,0,0,0],[9E9,9E9,9E9,9E9,9E9,9E9]], s_printSpeed, fine, tool0, \WObj:=ob_RRC_workplace;
        MoveL [[151.5, 185.5, 7.1],[0.1033, -0.6995, 0.6995, 0.1033],[0,0,0,0],[9E9,9E9,9E9,9E9,9E9,9E9]], s_printSpeed, fine, tool0, \WObj:=ob_RRC_workplace;
        MoveL [[139.6, 184.7, 7.1],[0.1038, -0.6994, 0.6994, 0.1038],[0,0,0,0],[9E9,9E9,9E9,9E9,9E9,9E9]], s_printSpeed, fine, tool0, \WObj:=ob_RRC_workplace;
        MoveL [[127.6, 186.2, 7.1],[-0.1029, 0.6996, -0.6996, -0.1029],[0,0,0,0],[9E9,9E9,9E9,9E9,9E9,9E9]], s_printSpeed, fine, tool0, \WObj:=ob_RRC_workplace;
        MoveL [[115.9, 183.9, 7.0],[-0.1043, 0.6994, -0.6994, -0.1043],[0,0,0,0],[9E9,9E9,9E9,9E9,9E9,9E9]], s_printSpeed, fine, tool0, \WObj:=ob_RRC_workplace;
        MoveL [[116.4, 171.9, 6.4],[0.1124, -0.6981, 0.6981, 0.1124],[0,0,0,0],[9E9,9E9,9E9,9E9,9E9,9E9]], s_printSpeed, fine, tool0, \WObj:=ob_RRC_workplace;
        MoveL [[118.9, 160.2, 5.8],[0.1218, -0.6965, 0.6965, 0.1218],[0,0,0,0],[9E9,9E9,9E9,9E9,9E9,9E9]], s_printSpeed, fine, tool0, \WObj:=ob_RRC_workplace;
        MoveL [[120.4, 148.3, 5.1],[0.1334, -0.6944, 0.6944, 0.1334],[0,0,0,0],[9E9,9E9,9E9,9E9,9E9,9E9]], s_printSpeed, fine, tool0, \WObj:=ob_RRC_workplace;
        MoveL [[111.9, 139.8, 4.7],[-0.1433, 0.6924, -0.6924, -0.1433],[0,0,0,0],[9E9,9E9,9E9,9E9,9E9,9E9]], s_printSpeed, fine, tool0, \WObj:=ob_RRC_workplace;
        MoveL [[100.1, 141.4, 4.8],[-0.1412, 0.6929, -0.6929, -0.1412],[0,0,0,0],[9E9,9E9,9E9,9E9,9E9,9E9]], s_printSpeed, fine, tool0, \WObj:=ob_RRC_workplace;
        MoveL [[88.3, 144.0, 4.9],[-0.1381, 0.6935, -0.6935, -0.1381],[0,0,0,0],[9E9,9E9,9E9,9E9,9E9,9E9]], s_printSpeed, fine, tool0, \WObj:=ob_RRC_workplace;
        MoveL [[76.3, 144.3, 4.9],[-0.1378, 0.6935, -0.6935, -0.1378],[0,0,0,0],[9E9,9E9,9E9,9E9,9E9,9E9]], s_printSpeed, fine, tool0, \WObj:=ob_RRC_workplace;
        MoveL [[72.7, 132.9, 4.3],[0.1526, -0.6905, 0.6905, 0.1526],[0,0,0,0],[9E9,9E9,9E9,9E9,9E9,9E9]], s_printSpeed, fine, tool0, \WObj:=ob_RRC_workplace;
        MoveL [[75.0, 121.1, 3.7],[0.1718, -0.6859, 0.6859, 0.1718],[0,0,0,0],[9E9,9E9,9E9,9E9,9E9,9E9]], s_printSpeed, fine, tool0, \WObj:=ob_RRC_workplace;
        MoveL [[77.2, 109.3, 3.1],[0.1967, -0.6792, 0.6792, 0.1967],[0,0,0,0],[9E9,9E9,9E9,9E9,9E9,9E9]], s_printSpeed, fine, tool0, \WObj:=ob_RRC_workplace;
        MoveL [[73.8, 97.9, 2.5],[-0.2288, 0.6691, -0.6691, -0.2288],[0,0,0,0],[9E9,9E9,9E9,9E9,9E9,9E9]], s_printSpeed, fine, tool0, \WObj:=ob_RRC_workplace;
        MoveL [[61.8, 97.7, 2.5],[-0.2294, 0.6689, -0.6689, -0.2294],[0,0,0,0],[9E9,9E9,9E9,9E9,9E9,9E9]], s_printSpeed, fine, tool0, \WObj:=ob_RRC_workplace;
        MoveL [[50.0, 100.1, 2.6],[-0.2218, 0.6714, -0.6714, -0.2218],[0,0,0,0],[9E9,9E9,9E9,9E9,9E9,9E9]], s_printSpeed, fine, tool0, \WObj:=ob_RRC_workplace;
        MoveL [[38.2, 101.9, 2.7],[0.2165, -0.6732, 0.6732, 0.2165],[0,0,0,0],[9E9,9E9,9E9,9E9,9E9,9E9]], s_printSpeed, fine, tool0, \WObj:=ob_RRC_workplace;
        MoveL [[29.2, 93.9, 2.3],[0.2423, -0.6643, 0.6643, 0.2423],[0,0,0,0],[9E9,9E9,9E9,9E9,9E9,9E9]], s_printSpeed, fine, tool0, \WObj:=ob_RRC_workplace;
        MoveL [[30.8, 82.0, 1.6],[-0.2923, 0.6439, 0.6439, 0.2923],[0,0,0,0],[9E9,9E9,9E9,9E9,9E9,9E9]], s_printSpeed, fine, tool0, \WObj:=ob_RRC_workplace;
        MoveL [[33.2, 70.3, 1.0],[-0.3590, 0.6092, 0.6092, 0.3590],[0,0,0,0],[9E9,9E9,9E9,9E9,9E9,9E9]], s_printSpeed, fine, tool0, \WObj:=ob_RRC_workplace;
        MoveL [[33.5, 58.3, 0.4],[-0.4441, 0.5503, 0.5503, 0.4441],[0,0,0,0],[9E9,9E9,9E9,9E9,9E9,9E9]], s_printSpeed, fine, tool0, \WObj:=ob_RRC_workplace;
        MoveL [[23.9, 51.1, 0.0],[-0.4979, 0.5021, 0.5021, 0.4979],[0,0,0,0],[9E9,9E9,9E9,9E9,9E9,9E9]], s_printSpeed, fine, tool0, \WObj:=ob_RRC_workplace;
        MoveL [[11.9, 51.4, 0.0],[-0.4956, 0.5044, 0.5044, 0.4956],[0,0,0,0],[9E9,9E9,9E9,9E9,9E9,9E9]], s_printSpeed, fine, tool0, \WObj:=ob_RRC_workplace;
        MoveL [[0.1, 53.9, 0.2],[-0.4770, 0.5220, 0.5220, 0.4770],[0,0,0,0],[9E9,9E9,9E9,9E9,9E9,9E9]], s_printSpeed, fine, tool0, \WObj:=ob_RRC_workplace;
        MoveL [[-11.3, 57.5, 0.4],[-0.4499, 0.5455, 0.5455, 0.4499],[0,0,0,0],[9E9,9E9,9E9,9E9,9E9,9E9]], s_printSpeed, fine, tool0, \WObj:=ob_RRC_workplace;
    ! layer end
        MoveL [[302.1, 54.2, 0.2],[-0.4723, 0.5262, 0.5262, 0.4723],[0,0,0,0],[9E9,9E9,9E9,9E9,9E9,9E9]], s_printSpeed, fine, tool0, \WObj:=ob_RRC_workplace;
        MoveL [[290.4, 51.5, 0.1],[-0.4928, 0.5071, 0.5071, 0.4928],[0,0,0,0],[9E9,9E9,9E9,9E9,9E9,9E9]], s_printSpeed, fine, tool0, \WObj:=ob_RRC_workplace;
        MoveL [[278.5, 50.6, 0.0],[-0.4996, 0.5004, 0.5004, 0.4996],[0,0,0,0],[9E9,9E9,9E9,9E9,9E9,9E9]], s_printSpeed, fine, tool0, \WObj:=ob_RRC_workplace;
        MoveL [[267.5, 55.5, 0.3],[-0.4628, 0.5346, 0.5346, 0.4628],[0,0,0,0],[9E9,9E9,9E9,9E9,9E9,9E9]], s_printSpeed, fine, tool0, \WObj:=ob_RRC_workplace;
        MoveL [[266.4, 67.4, 1.0],[-0.3763, 0.5987, 0.5987, 0.3763],[0,0,0,0],[9E9,9E9,9E9,9E9,9E9,9E9]], s_printSpeed, fine, tool0, \WObj:=ob_RRC_workplace;
        MoveL [[268.6, 79.2, 1.8],[-0.3061, 0.6374, 0.6374, 0.3061],[0,0,0,0],[9E9,9E9,9E9,9E9,9E9,9E9]], s_printSpeed, fine, tool0, \WObj:=ob_RRC_workplace;
        MoveL [[270.7, 91.0, 2.5],[-0.2535, 0.6601, -0.6601, -0.2535],[0,0,0,0],[9E9,9E9,9E9,9E9,9E9,9E9]], s_printSpeed, fine, tool0, \WObj:=ob_RRC_workplace;
        MoveL [[264.7, 101.4, 3.1],[0.2189, -0.6724, 0.6724, 0.2189],[0,0,0,0],[9E9,9E9,9E9,9E9,9E9,9E9]], s_printSpeed, fine, tool0, \WObj:=ob_RRC_workplace;
        MoveL [[252.8, 100.4, 3.1],[0.2219, -0.6714, 0.6714, 0.2219],[0,0,0,0],[9E9,9E9,9E9,9E9,9E9,9E9]], s_printSpeed, fine, tool0, \WObj:=ob_RRC_workplace;
        MoveL [[241.1, 97.9, 2.9],[0.2295, -0.6688, 0.6688, 0.2295],[0,0,0,0],[9E9,9E9,9E9,9E9,9E9,9E9]], s_printSpeed, fine, tool0, \WObj:=ob_RRC_workplace;
        MoveL [[229.1, 96.8, 2.8],[0.2330, -0.6676, 0.6676, 0.2330],[0,0,0,0],[9E9,9E9,9E9,9E9,9E9,9E9]], s_printSpeed, fine, tool0, \WObj:=ob_RRC_workplace;
        MoveL [[222.5, 106.8, 3.5],[-0.2042, 0.6770, -0.6770, -0.2042],[0,0,0,0],[9E9,9E9,9E9,9E9,9E9,9E9]], s_printSpeed, fine, tool0, \WObj:=ob_RRC_workplace;
        MoveL [[224.5, 118.6, 4.2],[-0.1781, 0.6843, -0.6843, -0.1781],[0,0,0,0],[9E9,9E9,9E9,9E9,9E9,9E9]], s_printSpeed, fine, tool0, \WObj:=ob_RRC_workplace;
        MoveL [[226.9, 130.4, 4.9],[-0.1583, 0.6892, -0.6892, -0.1583],[0,0,0,0],[9E9,9E9,9E9,9E9,9E9,9E9]], s_printSpeed, fine, tool0, \WObj:=ob_RRC_workplace;
        MoveL [[226.0, 142.3, 5.6],[0.1424, -0.6926, 0.6926, 0.1424],[0,0,0,0],[9E9,9E9,9E9,9E9,9E9,9E9]], s_printSpeed, fine, tool0, \WObj:=ob_RRC_workplace;
        MoveL [[214.2, 144.3, 5.8],[-0.1400, 0.6931, -0.6931, -0.1400],[0,0,0,0],[9E9,9E9,9E9,9E9,9E9,9E9]], s_printSpeed, fine, tool0, \WObj:=ob_RRC_workplace;
        MoveL [[202.4, 142.0, 5.6],[0.1428, -0.6925, 0.6925, 0.1428],[0,0,0,0],[9E9,9E9,9E9,9E9,9E9,9E9]], s_printSpeed, fine, tool0, \WObj:=ob_RRC_workplace;
        MoveL [[190.6, 139.9, 5.5],[0.1453, -0.6920, 0.6920, 0.1453],[0,0,0,0],[9E9,9E9,9E9,9E9,9E9,9E9]], s_printSpeed, fine, tool0, \WObj:=ob_RRC_workplace;
        MoveL [[179.6, 144.7, 5.8],[-0.1396, 0.6932, -0.6932, -0.1396],[0,0,0,0],[9E9,9E9,9E9,9E9,9E9,9E9]], s_printSpeed, fine, tool0, \WObj:=ob_RRC_workplace;
        MoveL [[179.5, 156.7, 6.5],[-0.1274, 0.6955, -0.6955, -0.1274],[0,0,0,0],[9E9,9E9,9E9,9E9,9E9,9E9]], s_printSpeed, fine, tool0, \WObj:=ob_RRC_workplace;
        MoveL [[181.8, 168.4, 7.3],[-0.1175, 0.6973, -0.6973, -0.1175],[0,0,0,0],[9E9,9E9,9E9,9E9,9E9,9E9]], s_printSpeed, fine, tool0, \WObj:=ob_RRC_workplace;
        MoveL [[183.5, 180.3, 8.0],[-0.1092, 0.6986, -0.6986, -0.1092],[0,0,0,0],[9E9,9E9,9E9,9E9,9E9,9E9]], s_printSpeed, fine, tool0, \WObj:=ob_RRC_workplace;
        MoveL [[175.2, 188.9, 8.5],[-0.1039, 0.6994, -0.6994, -0.1039],[0,0,0,0],[9E9,9E9,9E9,9E9,9E9,9E9]], s_printSpeed, fine, tool0, \WObj:=ob_RRC_workplace;
        MoveL [[163.3, 187.2, 8.4],[0.1049, -0.6993, 0.6993, 0.1049],[0,0,0,0],[9E9,9E9,9E9,9E9,9E9,9E9]], s_printSpeed, fine, tool0, \WObj:=ob_RRC_workplace;
        MoveL [[151.5, 185.1, 8.3],[0.1062, -0.6991, 0.6991, 0.1062],[0,0,0,0],[9E9,9E9,9E9,9E9,9E9,9E9]], s_printSpeed, fine, tool0, \WObj:=ob_RRC_workplace;
        MoveL [[139.6, 184.3, 8.2],[0.1067, -0.6990, 0.6990, 0.1067],[0,0,0,0],[9E9,9E9,9E9,9E9,9E9,9E9]], s_printSpeed, fine, tool0, \WObj:=ob_RRC_workplace;
        MoveL [[127.6, 185.8, 8.3],[0.1057, -0.6992, 0.6992, 0.1057],[0,0,0,0],[9E9,9E9,9E9,9E9,9E9,9E9]], s_printSpeed, fine, tool0, \WObj:=ob_RRC_workplace;
        MoveL [[115.9, 183.5, 8.2],[0.1072, -0.6989, 0.6989, 0.1072],[0,0,0,0],[9E9,9E9,9E9,9E9,9E9,9E9]], s_printSpeed, fine, tool0, \WObj:=ob_RRC_workplace;
        MoveL [[116.4, 171.5, 7.4],[-0.1152, 0.6977, -0.6977, -0.1152],[0,0,0,0],[9E9,9E9,9E9,9E9,9E9,9E9]], s_printSpeed, fine, tool0, \WObj:=ob_RRC_workplace;
        MoveL [[118.9, 159.8, 6.7],[-0.1245, 0.6961, -0.6961, -0.1245],[0,0,0,0],[9E9,9E9,9E9,9E9,9E9,9E9]], s_printSpeed, fine, tool0, \WObj:=ob_RRC_workplace;
        MoveL [[120.4, 147.9, 6.0],[-0.1360, 0.6939, -0.6939, -0.1360],[0,0,0,0],[9E9,9E9,9E9,9E9,9E9,9E9]], s_printSpeed, fine, tool0, \WObj:=ob_RRC_workplace;
        MoveL [[111.9, 139.4, 5.5],[0.1459, -0.6919, 0.6919, 0.1459],[0,0,0,0],[9E9,9E9,9E9,9E9,9E9,9E9]], s_printSpeed, fine, tool0, \WObj:=ob_RRC_workplace;
        MoveL [[100.1, 141.1, 5.6],[0.1438, -0.6923, 0.6923, 0.1438],[0,0,0,0],[9E9,9E9,9E9,9E9,9E9,9E9]], s_printSpeed, fine, tool0, \WObj:=ob_RRC_workplace;
        MoveL [[88.3, 143.7, 5.7],[0.1408, -0.6930, 0.6930, 0.1408],[0,0,0,0],[9E9,9E9,9E9,9E9,9E9,9E9]], s_printSpeed, fine, tool0, \WObj:=ob_RRC_workplace;
        MoveL [[76.3, 143.9, 5.7],[0.1405, -0.6930, 0.6930, 0.1405],[0,0,0,0],[9E9,9E9,9E9,9E9,9E9,9E9]], s_printSpeed, fine, tool0, \WObj:=ob_RRC_workplace;
        MoveL [[72.7, 132.5, 5.0],[-0.1551, 0.6899, -0.6899, -0.1551],[0,0,0,0],[9E9,9E9,9E9,9E9,9E9,9E9]], s_printSpeed, fine, tool0, \WObj:=ob_RRC_workplace;
        MoveL [[75.0, 120.8, 4.3],[-0.1742, 0.6853, -0.6853, -0.1742],[0,0,0,0],[9E9,9E9,9E9,9E9,9E9,9E9]], s_printSpeed, fine, tool0, \WObj:=ob_RRC_workplace;
        MoveL [[77.2, 109.0, 3.6],[-0.1988, 0.6786, -0.6786, -0.1988],[0,0,0,0],[9E9,9E9,9E9,9E9,9E9,9E9]], s_printSpeed, fine, tool0, \WObj:=ob_RRC_workplace;
        MoveL [[73.8, 97.5, 2.9],[0.2307, -0.6684, 0.6684, 0.2307],[0,0,0,0],[9E9,9E9,9E9,9E9,9E9,9E9]], s_printSpeed, fine, tool0, \WObj:=ob_RRC_workplace;
        MoveL [[61.8, 97.3, 2.9],[-0.2313, 0.6682, -0.6682, -0.2313],[0,0,0,0],[9E9,9E9,9E9,9E9,9E9,9E9]], s_printSpeed, fine, tool0, \WObj:=ob_RRC_workplace;
        MoveL [[50.0, 99.8, 3.0],[-0.2238, 0.6708, -0.6708, -0.2238],[0,0,0,0],[9E9,9E9,9E9,9E9,9E9,9E9]], s_printSpeed, fine, tool0, \WObj:=ob_RRC_workplace;
        MoveL [[38.2, 101.6, 3.1],[-0.2185, 0.6725, -0.6725, -0.2185],[0,0,0,0],[9E9,9E9,9E9,9E9,9E9,9E9]], s_printSpeed, fine, tool0, \WObj:=ob_RRC_workplace;
        MoveL [[29.2, 93.6, 2.6],[-0.2441, 0.6636, -0.6636, -0.2441],[0,0,0,0],[9E9,9E9,9E9,9E9,9E9,9E9]], s_printSpeed, fine, tool0, \WObj:=ob_RRC_workplace;
        MoveL [[30.8, 81.7, 1.9],[-0.2936, 0.6433, 0.6433, 0.2936],[0,0,0,0],[9E9,9E9,9E9,9E9,9E9,9E9]], s_printSpeed, fine, tool0, \WObj:=ob_RRC_workplace;
        MoveL [[33.2, 70.0, 1.2],[-0.3597, 0.6088, 0.6088, 0.3597],[0,0,0,0],[9E9,9E9,9E9,9E9,9E9,9E9]], s_printSpeed, fine, tool0, \WObj:=ob_RRC_workplace;
        MoveL [[33.5, 58.0, 0.5],[-0.4442, 0.5502, 0.5502, 0.4442],[0,0,0,0],[9E9,9E9,9E9,9E9,9E9,9E9]], s_printSpeed, fine, tool0, \WObj:=ob_RRC_workplace;
        MoveL [[23.9, 50.8, 0.0],[-0.4979, 0.5021, 0.5021, 0.4979],[0,0,0,0],[9E9,9E9,9E9,9E9,9E9,9E9]], s_printSpeed, fine, tool0, \WObj:=ob_RRC_workplace;
        MoveL [[11.9, 51.1, 0.0],[-0.4956, 0.5044, 0.5044, 0.4956],[0,0,0,0],[9E9,9E9,9E9,9E9,9E9,9E9]], s_printSpeed, fine, tool0, \WObj:=ob_RRC_workplace;
        MoveL [[0.1, 53.6, 0.2],[-0.4771, 0.5219, 0.5219, 0.4771],[0,0,0,0],[9E9,9E9,9E9,9E9,9E9,9E9]], s_printSpeed, fine, tool0, \WObj:=ob_RRC_workplace;
        MoveL [[-11.3, 57.2, 0.4],[-0.4500, 0.5454, 0.5454, 0.4500],[0,0,0,0],[9E9,9E9,9E9,9E9,9E9,9E9]], s_printSpeed, fine, tool0, \WObj:=ob_RRC_workplace;
    ! layer end
        MoveL [[302.1, 53.9, 0.3],[-0.4724, 0.5262, 0.5262, 0.4724],[0,0,0,0],[9E9,9E9,9E9,9E9,9E9,9E9]], s_printSpeed, fine, tool0, \WObj:=ob_RRC_workplace;
        MoveL [[290.4, 51.2, 0.1],[-0.4928, 0.5071, 0.5071, 0.4928],[0,0,0,0],[9E9,9E9,9E9,9E9,9E9,9E9]], s_printSpeed, fine, tool0, \WObj:=ob_RRC_workplace;
        MoveL [[278.5, 50.3, 0.0],[-0.4996, 0.5004, 0.5004, 0.4996],[0,0,0,0],[9E9,9E9,9E9,9E9,9E9,9E9]], s_printSpeed, fine, tool0, \WObj:=ob_RRC_workplace;
        MoveL [[267.5, 55.2, 0.4],[-0.4629, 0.5345, 0.5345, 0.4629],[0,0,0,0],[9E9,9E9,9E9,9E9,9E9,9E9]], s_printSpeed, fine, tool0, \WObj:=ob_RRC_workplace;
        MoveL [[266.4, 67.1, 1.2],[-0.3768, 0.5983, 0.5983, 0.3768],[0,0,0,0],[9E9,9E9,9E9,9E9,9E9,9E9]], s_printSpeed, fine, tool0, \WObj:=ob_RRC_workplace;
        MoveL [[268.6, 78.9, 2.0],[-0.3073, 0.6368, 0.6368, 0.3073],[0,0,0,0],[9E9,9E9,9E9,9E9,9E9,9E9]], s_printSpeed, fine, tool0, \WObj:=ob_RRC_workplace;
        MoveL [[270.7, 90.7, 2.8],[0.2552, -0.6595, 0.6595, 0.2552],[0,0,0,0],[9E9,9E9,9E9,9E9,9E9,9E9]], s_printSpeed, fine, tool0, \WObj:=ob_RRC_workplace;
        MoveL [[264.7, 101.1, 3.6],[-0.2209, 0.6717, -0.6717, -0.2209],[0,0,0,0],[9E9,9E9,9E9,9E9,9E9,9E9]], s_printSpeed, fine, tool0, \WObj:=ob_RRC_workplace;
        MoveL [[252.8, 100.0, 3.5],[-0.2239, 0.6707, -0.6707, -0.2239],[0,0,0,0],[9E9,9E9,9E9,9E9,9E9,9E9]], s_printSpeed, fine, tool0, \WObj:=ob_RRC_workplace;
        MoveL [[241.1, 97.6, 3.3],[-0.2315, 0.6682, -0.6682, -0.2315],[0,0,0,0],[9E9,9E9,9E9,9E9,9E9,9E9]], s_printSpeed, fine, tool0, \WObj:=ob_RRC_workplace;
        MoveL [[229.1, 96.5, 3.3],[-0.2349, 0.6669, -0.6669, -0.2349],[0,0,0,0],[9E9,9E9,9E9,9E9,9E9,9E9]], s_printSpeed, fine, tool0, \WObj:=ob_RRC_workplace;
        MoveL [[222.5, 106.5, 4.0],[-0.2064, 0.6763, -0.6763, -0.2064],[0,0,0,0],[9E9,9E9,9E9,9E9,9E9,9E9]], s_printSpeed, fine, tool0, \WObj:=ob_RRC_workplace;
        MoveL [[224.5, 118.3, 4.8],[0.1805, -0.6837, 0.6837, 0.1805],[0,0,0,0],[9E9,9E9,9E9,9E9,9E9,9E9]], s_printSpeed, fine, tool0, \WObj:=ob_RRC_workplace;
        MoveL [[226.9, 130.0, 5.6],[-0.1608, 0.6886, -0.6886, -0.1608],[0,0,0,0],[9E9,9E9,9E9,9E9,9E9,9E9]], s_printSpeed, fine, tool0, \WObj:=ob_RRC_workplace;
        MoveL [[226.0, 142.0, 6.5],[-0.1450, 0.6921, -0.6921, -0.1450],[0,0,0,0],[9E9,9E9,9E9,9E9,9E9,9E9]], s_printSpeed, fine, tool0, \WObj:=ob_RRC_workplace;
        MoveL [[214.2, 144.0, 6.6],[-0.1426, 0.6926, -0.6926, -0.1426],[0,0,0,0],[9E9,9E9,9E9,9E9,9E9,9E9]], s_printSpeed, fine, tool0, \WObj:=ob_RRC_workplace;
        MoveL [[202.4, 141.6, 6.4],[-0.1454, 0.6920, -0.6920, -0.1454],[0,0,0,0],[9E9,9E9,9E9,9E9,9E9,9E9]], s_printSpeed, fine, tool0, \WObj:=ob_RRC_workplace;
        MoveL [[190.6, 139.6, 6.3],[-0.1479, 0.6915, -0.6915, -0.1479],[0,0,0,0],[9E9,9E9,9E9,9E9,9E9,9E9]], s_printSpeed, fine, tool0, \WObj:=ob_RRC_workplace;
        MoveL [[179.6, 144.3, 6.6],[0.1423, -0.6926, 0.6926, 0.1423],[0,0,0,0],[9E9,9E9,9E9,9E9,9E9,9E9]], s_printSpeed, fine, tool0, \WObj:=ob_RRC_workplace;
        MoveL [[179.5, 156.3, 7.5],[0.1301, -0.6950, 0.6950, 0.1301],[0,0,0,0],[9E9,9E9,9E9,9E9,9E9,9E9]], s_printSpeed, fine, tool0, \WObj:=ob_RRC_workplace;
        MoveL [[181.8, 168.1, 8.3],[0.1203, -0.6968, 0.6968, 0.1203],[0,0,0,0],[9E9,9E9,9E9,9E9,9E9,9E9]], s_printSpeed, fine, tool0, \WObj:=ob_RRC_workplace;
        MoveL [[183.5, 179.9, 9.1],[-0.1120, 0.6982, -0.6982, -0.1120],[0,0,0,0],[9E9,9E9,9E9,9E9,9E9,9E9]], s_printSpeed, fine, tool0, \WObj:=ob_RRC_workplace;
        MoveL [[175.2, 188.6, 9.7],[0.1068, -0.6990, 0.6990, 0.1068],[0,0,0,0],[9E9,9E9,9E9,9E9,9E9,9E9]], s_printSpeed, fine, tool0, \WObj:=ob_RRC_workplace;
        MoveL [[163.3, 186.9, 9.6],[-0.1078, 0.6988, -0.6988, -0.1078],[0,0,0,0],[9E9,9E9,9E9,9E9,9E9,9E9]], s_printSpeed, fine, tool0, \WObj:=ob_RRC_workplace;
        MoveL [[151.5, 184.7, 9.5],[-0.1090, 0.6987, -0.6987, -0.1090],[0,0,0,0],[9E9,9E9,9E9,9E9,9E9,9E9]], s_printSpeed, fine, tool0, \WObj:=ob_RRC_workplace;
        MoveL [[139.6, 183.9, 9.4],[-0.1095, 0.6986, -0.6986, -0.1095],[0,0,0,0],[9E9,9E9,9E9,9E9,9E9,9E9]], s_printSpeed, fine, tool0, \WObj:=ob_RRC_workplace;
        MoveL [[127.6, 185.4, 9.5],[-0.1086, 0.6987, -0.6987, -0.1086],[0,0,0,0],[9E9,9E9,9E9,9E9,9E9,9E9]], s_printSpeed, fine, tool0, \WObj:=ob_RRC_workplace;
        MoveL [[115.9, 183.1, 9.4],[-0.1100, 0.6985, -0.6985, -0.1100],[0,0,0,0],[9E9,9E9,9E9,9E9,9E9,9E9]], s_printSpeed, fine, tool0, \WObj:=ob_RRC_workplace;
        MoveL [[116.4, 171.2, 8.5],[0.1180, -0.6972, 0.6972, 0.1180],[0,0,0,0],[9E9,9E9,9E9,9E9,9E9,9E9]], s_printSpeed, fine, tool0, \WObj:=ob_RRC_workplace;
        MoveL [[118.9, 159.5, 7.7],[0.1273, -0.6956, 0.6956, 0.1273],[0,0,0,0],[9E9,9E9,9E9,9E9,9E9,9E9]], s_printSpeed, fine, tool0, \WObj:=ob_RRC_workplace;
        MoveL [[120.4, 147.6, 6.9],[0.1387, -0.6934, 0.6934, 0.1387],[0,0,0,0],[9E9,9E9,9E9,9E9,9E9,9E9]], s_printSpeed, fine, tool0, \WObj:=ob_RRC_workplace;
        MoveL [[111.9, 139.1, 6.3],[-0.1485, 0.6913, -0.6913, -0.1485],[0,0,0,0],[9E9,9E9,9E9,9E9,9E9,9E9]], s_printSpeed, fine, tool0, \WObj:=ob_RRC_workplace;
        MoveL [[100.1, 140.7, 6.4],[-0.1464, 0.6918, -0.6918, -0.1464],[0,0,0,0],[9E9,9E9,9E9,9E9,9E9,9E9]], s_printSpeed, fine, tool0, \WObj:=ob_RRC_workplace;
        MoveL [[88.3, 143.3, 6.6],[-0.1434, 0.6924, -0.6924, -0.1434],[0,0,0,0],[9E9,9E9,9E9,9E9,9E9,9E9]], s_printSpeed, fine, tool0, \WObj:=ob_RRC_workplace;
        MoveL [[76.3, 143.6, 6.6],[-0.1431, 0.6925, -0.6925, -0.1431],[0,0,0,0],[9E9,9E9,9E9,9E9,9E9,9E9]], s_printSpeed, fine, tool0, \WObj:=ob_RRC_workplace;
        MoveL [[72.7, 132.2, 5.8],[0.1576, -0.6893, 0.6893, 0.1576],[0,0,0,0],[9E9,9E9,9E9,9E9,9E9,9E9]], s_printSpeed, fine, tool0, \WObj:=ob_RRC_workplace;
        MoveL [[75.0, 120.4, 4.9],[0.1765, -0.6847, 0.6847, 0.1765],[0,0,0,0],[9E9,9E9,9E9,9E9,9E9,9E9]], s_printSpeed, fine, tool0, \WObj:=ob_RRC_workplace;
        MoveL [[77.2, 108.7, 4.1],[0.2010, -0.6779, 0.6779, 0.2010],[0,0,0,0],[9E9,9E9,9E9,9E9,9E9,9E9]], s_printSpeed, fine, tool0, \WObj:=ob_RRC_workplace;
        MoveL [[73.8, 97.2, 3.3],[-0.2326, 0.6678, -0.6678, -0.2326],[0,0,0,0],[9E9,9E9,9E9,9E9,9E9,9E9]], s_printSpeed, fine, tool0, \WObj:=ob_RRC_workplace;
        MoveL [[61.8, 97.0, 3.3],[0.2332, -0.6675, 0.6675, 0.2332],[0,0,0,0],[9E9,9E9,9E9,9E9,9E9,9E9]], s_printSpeed, fine, tool0, \WObj:=ob_RRC_workplace;
        MoveL [[50.0, 99.4, 3.5],[0.2257, -0.6701, 0.6701, 0.2257],[0,0,0,0],[9E9,9E9,9E9,9E9,9E9,9E9]], s_printSpeed, fine, tool0, \WObj:=ob_RRC_workplace;
        MoveL [[38.2, 101.2, 3.6],[0.2205, -0.6718, 0.6718, 0.2205],[0,0,0,0],[9E9,9E9,9E9,9E9,9E9,9E9]], s_printSpeed, fine, tool0, \WObj:=ob_RRC_workplace;
        MoveL [[29.2, 93.2, 3.0],[0.2459, -0.6630, 0.6630, 0.2459],[0,0,0,0],[9E9,9E9,9E9,9E9,9E9,9E9]], s_printSpeed, fine, tool0, \WObj:=ob_RRC_workplace;
        MoveL [[30.8, 81.4, 2.2],[-0.2949, 0.6427, 0.6427, 0.2949],[0,0,0,0],[9E9,9E9,9E9,9E9,9E9,9E9]], s_printSpeed, fine, tool0, \WObj:=ob_RRC_workplace;
        MoveL [[33.2, 69.6, 1.4],[-0.3603, 0.6084, 0.6084, 0.3603],[0,0,0,0],[9E9,9E9,9E9,9E9,9E9,9E9]], s_printSpeed, fine, tool0, \WObj:=ob_RRC_workplace;
        MoveL [[33.5, 57.7, 0.5],[-0.4443, 0.5501, 0.5501, 0.4443],[0,0,0,0],[9E9,9E9,9E9,9E9,9E9,9E9]], s_printSpeed, fine, tool0, \WObj:=ob_RRC_workplace;
        MoveL [[23.9, 50.5, 0.0],[-0.4979, 0.5021, 0.5021, 0.4979],[0,0,0,0],[9E9,9E9,9E9,9E9,9E9,9E9]], s_printSpeed, fine, tool0, \WObj:=ob_RRC_workplace;
        MoveL [[11.9, 50.8, 0.0],[-0.4956, 0.5044, 0.5044, 0.4956],[0,0,0,0],[9E9,9E9,9E9,9E9,9E9,9E9]], s_printSpeed, fine, tool0, \WObj:=ob_RRC_workplace;
        MoveL [[0.1, 53.3, 0.2],[-0.4771, 0.5219, 0.5219, 0.4771],[0,0,0,0],[9E9,9E9,9E9,9E9,9E9,9E9]], s_printSpeed, fine, tool0, \WObj:=ob_RRC_workplace;
        MoveL [[-11.3, 56.9, 0.5],[-0.4502, 0.5453, 0.5453, 0.4502],[0,0,0,0],[9E9,9E9,9E9,9E9,9E9,9E9]], s_printSpeed, fine, tool0, \WObj:=ob_RRC_workplace;
    ! layer end
        MoveL [[302.1, 53.6, 0.3],[-0.4724, 0.5261, 0.5261, 0.4724],[0,0,0,0],[9E9,9E9,9E9,9E9,9E9,9E9]], s_printSpeed, fine, tool0, \WObj:=ob_RRC_workplace;
        MoveL [[290.4, 50.9, 0.1],[-0.4928, 0.5071, 0.5071, 0.4928],[0,0,0,0],[9E9,9E9,9E9,9E9,9E9,9E9]], s_printSpeed, fine, tool0, \WObj:=ob_RRC_workplace;
        MoveL [[278.5, 50.0, 0.0],[-0.4996, 0.5004, 0.5004, 0.4996],[0,0,0,0],[9E9,9E9,9E9,9E9,9E9,9E9]], s_printSpeed, fine, tool0, \WObj:=ob_RRC_workplace;
        MoveL [[267.5, 54.9, 0.4],[-0.4630, 0.5345, 0.5345, 0.4630],[0,0,0,0],[9E9,9E9,9E9,9E9,9E9,9E9]], s_printSpeed, fine, tool0, \WObj:=ob_RRC_workplace;
        MoveL [[266.4, 66.8, 1.3],[-0.3774, 0.5980, 0.5980, 0.3774],[0,0,0,0],[9E9,9E9,9E9,9E9,9E9,9E9]], s_printSpeed, fine, tool0, \WObj:=ob_RRC_workplace;
        MoveL [[268.6, 78.6, 2.3],[-0.3085, 0.6363, 0.6363, 0.3085],[0,0,0,0],[9E9,9E9,9E9,9E9,9E9,9E9]], s_printSpeed, fine, tool0, \WObj:=ob_RRC_workplace;
        MoveL [[270.7, 90.3, 3.2],[-0.2569, 0.6588, -0.6588, -0.2569],[0,0,0,0],[9E9,9E9,9E9,9E9,9E9,9E9]], s_printSpeed, fine, tool0, \WObj:=ob_RRC_workplace;
        MoveL [[264.7, 100.8, 4.0],[-0.2229, 0.6711, -0.6711, -0.2229],[0,0,0,0],[9E9,9E9,9E9,9E9,9E9,9E9]], s_printSpeed, fine, tool0, \WObj:=ob_RRC_workplace;
        MoveL [[252.8, 99.7, 3.9],[-0.2259, 0.6701, -0.6701, -0.2259],[0,0,0,0],[9E9,9E9,9E9,9E9,9E9,9E9]], s_printSpeed, fine, tool0, \WObj:=ob_RRC_workplace;
        MoveL [[241.1, 97.2, 3.7],[-0.2334, 0.6675, -0.6675, -0.2334],[0,0,0,0],[9E9,9E9,9E9,9E9,9E9,9E9]], s_printSpeed, fine, tool0, \WObj:=ob_RRC_workplace;
        MoveL [[229.1, 96.2, 3.7],[-0.2368, 0.6663, -0.6663, -0.2368],[0,0,0,0],[9E9,9E9,9E9,9E9,9E9,9E9]], s_printSpeed, fine, tool0, \WObj:=ob_RRC_workplace;
        MoveL [[222.5, 106.2, 4.5],[0.2085, -0.6757, 0.6757, 0.2085],[0,0,0,0],[9E9,9E9,9E9,9E9,9E9,9E9]], s_printSpeed, fine, tool0, \WObj:=ob_RRC_workplace;
        MoveL [[224.5, 118.0, 5.4],[0.1829, -0.6831, 0.6831, 0.1829],[0,0,0,0],[9E9,9E9,9E9,9E9,9E9,9E9]], s_printSpeed, fine, tool0, \WObj:=ob_RRC_workplace;
        MoveL [[226.9, 129.7, 6.3],[0.1633, -0.6880, 0.6880, 0.1633],[0,0,0,0],[9E9,9E9,9E9,9E9,9E9,9E9]], s_printSpeed, fine, tool0, \WObj:=ob_RRC_workplace;
        MoveL [[226.0, 141.6, 7.3],[-0.1476, 0.6915, -0.6915, -0.1476],[0,0,0,0],[9E9,9E9,9E9,9E9,9E9,9E9]], s_printSpeed, fine, tool0, \WObj:=ob_RRC_workplace;
        MoveL [[214.2, 143.6, 7.4],[-0.1453, 0.6920, -0.6920, -0.1453],[0,0,0,0],[9E9,9E9,9E9,9E9,9E9,9E9]], s_printSpeed, fine, tool0, \WObj:=ob_RRC_workplace;
        MoveL [[202.4, 141.3, 7.2],[-0.1480, 0.6914, -0.6914, -0.1480],[0,0,0,0],[9E9,9E9,9E9,9E9,9E9,9E9]], s_printSpeed, fine, tool0, \WObj:=ob_RRC_workplace;
        MoveL [[190.6, 139.2, 7.1],[-0.1505, 0.6909, -0.6909, -0.1505],[0,0,0,0],[9E9,9E9,9E9,9E9,9E9,9E9]], s_printSpeed, fine, tool0, \WObj:=ob_RRC_workplace;
        MoveL [[179.6, 144.0, 7.4],[-0.1449, 0.6921, -0.6921, -0.1449],[0,0,0,0],[9E9,9E9,9E9,9E9,9E9,9E9]], s_printSpeed, fine, tool0, \WObj:=ob_RRC_workplace;
        MoveL [[179.5, 155.9, 8.4],[-0.1328, 0.6945, -0.6945, -0.1328],[0,0,0,0],[9E9,9E9,9E9,9E9,9E9,9E9]], s_printSpeed, fine, tool0, \WObj:=ob_RRC_workplace;
        MoveL [[181.8, 167.7, 9.3],[0.1230, -0.6963, 0.6963, 0.1230],[0,0,0,0],[9E9,9E9,9E9,9E9,9E9,9E9]], s_printSpeed, fine, tool0, \WObj:=ob_RRC_workplace;
        MoveL [[183.5, 179.5, 10.3],[-0.1148, 0.6977, -0.6977, -0.1148],[0,0,0,0],[9E9,9E9,9E9,9E9,9E9,9E9]], s_printSpeed, fine, tool0, \WObj:=ob_RRC_workplace;
        MoveL [[175.2, 188.2, 10.9],[-0.1096, 0.6986, -0.6986, -0.1096],[0,0,0,0],[9E9,9E9,9E9,9E9,9E9,9E9]], s_printSpeed, fine, tool0, \WObj:=ob_RRC_workplace;
        MoveL [[163.3, 186.5, 10.8],[-0.1106, 0.6984, -0.6984, -0.1106],[0,0,0,0],[9E9,9E9,9E9,9E9,9E9,9E9]], s_printSpeed, fine, tool0, \WObj:=ob_RRC_workplace;
        MoveL [[151.5, 184.3, 10.6],[-0.1119, 0.6982, -0.6982, -0.1119],[0,0,0,0],[9E9,9E9,9E9,9E9,9E9,9E9]], s_printSpeed, fine, tool0, \WObj:=ob_RRC_workplace;
        MoveL [[139.6, 183.5, 10.6],[-0.1123, 0.6981, -0.6981, -0.1123],[0,0,0,0],[9E9,9E9,9E9,9E9,9E9,9E9]], s_printSpeed, fine, tool0, \WObj:=ob_RRC_workplace;
        MoveL [[127.6, 185.1, 10.7],[-0.1114, 0.6983, -0.6983, -0.1114],[0,0,0,0],[9E9,9E9,9E9,9E9,9E9,9E9]], s_printSpeed, fine, tool0, \WObj:=ob_RRC_workplace;
        MoveL [[115.9, 182.7, 10.5],[-0.1128, 0.6980, -0.6980, -0.1128],[0,0,0,0],[9E9,9E9,9E9,9E9,9E9,9E9]], s_printSpeed, fine, tool0, \WObj:=ob_RRC_workplace;
        MoveL [[116.4, 170.8, 9.6],[-0.1208, 0.6967, -0.6967, -0.1208],[0,0,0,0],[9E9,9E9,9E9,9E9,9E9,9E9]], s_printSpeed, fine, tool0, \WObj:=ob_RRC_workplace;
        MoveL [[118.9, 159.1, 8.6],[-0.1300, 0.6951, -0.6951, -0.1300],[0,0,0,0],[9E9,9E9,9E9,9E9,9E9,9E9]], s_printSpeed, fine, tool0, \WObj:=ob_RRC_workplace;
        MoveL [[120.4, 147.2, 7.7],[-0.1414, 0.6928, -0.6928, -0.1414],[0,0,0,0],[9E9,9E9,9E9,9E9,9E9,9E9]], s_printSpeed, fine, tool0, \WObj:=ob_RRC_workplace;
        MoveL [[111.9, 138.7, 7.0],[-0.1511, 0.6908, -0.6908, -0.1511],[0,0,0,0],[9E9,9E9,9E9,9E9,9E9,9E9]], s_printSpeed, fine, tool0, \WObj:=ob_RRC_workplace;
        MoveL [[100.1, 140.4, 7.2],[-0.1491, 0.6912, -0.6912, -0.1491],[0,0,0,0],[9E9,9E9,9E9,9E9,9E9,9E9]], s_printSpeed, fine, tool0, \WObj:=ob_RRC_workplace;
        MoveL [[88.3, 143.0, 7.4],[-0.1460, 0.6919, -0.6919, -0.1460],[0,0,0,0],[9E9,9E9,9E9,9E9,9E9,9E9]], s_printSpeed, fine, tool0, \WObj:=ob_RRC_workplace;
        MoveL [[76.3, 143.2, 7.4],[-0.1457, 0.6919, -0.6919, -0.1457],[0,0,0,0],[9E9,9E9,9E9,9E9,9E9,9E9]], s_printSpeed, fine, tool0, \WObj:=ob_RRC_workplace;
        MoveL [[72.7, 131.8, 6.5],[0.1602, -0.6887, 0.6887, 0.1602],[0,0,0,0],[9E9,9E9,9E9,9E9,9E9,9E9]], s_printSpeed, fine, tool0, \WObj:=ob_RRC_workplace;
        MoveL [[75.0, 120.1, 5.6],[-0.1789, 0.6841, -0.6841, -0.1789],[0,0,0,0],[9E9,9E9,9E9,9E9,9E9,9E9]], s_printSpeed, fine, tool0, \WObj:=ob_RRC_workplace;
        MoveL [[77.2, 108.3, 4.6],[-0.2032, 0.6773, -0.6773, -0.2032],[0,0,0,0],[9E9,9E9,9E9,9E9,9E9,9E9]], s_printSpeed, fine, tool0, \WObj:=ob_RRC_workplace;
        MoveL [[73.8, 96.9, 3.7],[-0.2345, 0.6671, -0.6671, -0.2345],[0,0,0,0],[9E9,9E9,9E9,9E9,9E9,9E9]], s_printSpeed, fine, tool0, \WObj:=ob_RRC_workplace;
        MoveL [[61.8, 96.7, 3.7],[-0.2351, 0.6669, -0.6669, -0.2351],[0,0,0,0],[9E9,9E9,9E9,9E9,9E9,9E9]], s_printSpeed, fine, tool0, \WObj:=ob_RRC_workplace;
        MoveL [[50.0, 99.1, 3.9],[-0.2277, 0.6695, -0.6695, -0.2277],[0,0,0,0],[9E9,9E9,9E9,9E9,9E9,9E9]], s_printSpeed, fine, tool0, \WObj:=ob_RRC_workplace;
        MoveL [[38.2, 100.9, 4.0],[-0.2225, 0.6712, -0.6712, -0.2225],[0,0,0,0],[9E9,9E9,9E9,9E9,9E9,9E9]], s_printSpeed, fine, tool0, \WObj:=ob_RRC_workplace;
        MoveL [[29.2, 92.9, 3.4],[-0.2476, 0.6623, -0.6623, -0.2476],[0,0,0,0],[9E9,9E9,9E9,9E9,9E9,9E9]], s_printSpeed, fine, tool0, \WObj:=ob_RRC_workplace;
        MoveL [[30.8, 81.1, 2.5],[-0.2962, 0.6421, 0.6421, 0.2962],[0,0,0,0],[9E9,9E9,9E9,9E9,9E9,9E9]], s_printSpeed, fine, tool0, \WObj:=ob_RRC_workplace;
        MoveL [[33.2, 69.3, 1.5],[-0.3610, 0.6080, 0.6080, 0.3610],[0,0,0,0],[9E9,9E9,9E9,9E9,9E9,9E9]], s_printSpeed, fine, tool0, \WObj:=ob_RRC_workplace;
        MoveL [[33.5, 57.4, 0.6],[-0.4445, 0.5499, 0.5499, 0.4445],[0,0,0,0],[9E9,9E9,9E9,9E9,9E9,9E9]], s_printSpeed, fine, tool0, \WObj:=ob_RRC_workplace;
        MoveL [[23.9, 50.2, 0.0],[-0.4979, 0.5021, 0.5021, 0.4979],[0,0,0,0],[9E9,9E9,9E9,9E9,9E9,9E9]], s_printSpeed, fine, tool0, \WObj:=ob_RRC_workplace;
        MoveL [[11.9, 50.5, 0.0],[-0.4956, 0.5044, 0.5044, 0.4956],[0,0,0,0],[9E9,9E9,9E9,9E9,9E9,9E9]], s_printSpeed, fine, tool0, \WObj:=ob_RRC_workplace;
        MoveL [[0.1, 53.0, 0.2],[-0.4771, 0.5219, 0.5219, 0.4771],[0,0,0,0],[9E9,9E9,9E9,9E9,9E9,9E9]], s_printSpeed, fine, tool0, \WObj:=ob_RRC_workplace;
        MoveL [[-11.3, 56.6, 0.5],[-0.4503, 0.5452, 0.5452, 0.4503],[0,0,0,0],[9E9,9E9,9E9,9E9,9E9,9E9]], s_printSpeed, fine, tool0, \WObj:=ob_RRC_workplace;
    ! layer end
        MoveL [[302.1, 53.3, 0.3],[-0.4725, 0.5261, 0.5261, 0.4725],[0,0,0,0],[9E9,9E9,9E9,9E9,9E9,9E9]], s_printSpeed, fine, tool0, \WObj:=ob_RRC_workplace;
        MoveL [[290.4, 50.6, 0.1],[-0.4928, 0.5071, 0.5071, 0.4928],[0,0,0,0],[9E9,9E9,9E9,9E9,9E9,9E9]], s_printSpeed, fine, tool0, \WObj:=ob_RRC_workplace;
        MoveL [[278.5, 49.7, 0.0],[-0.4996, 0.5004, 0.5004, 0.4996],[0,0,0,0],[9E9,9E9,9E9,9E9,9E9,9E9]], s_printSpeed, fine, tool0, \WObj:=ob_RRC_workplace;
        MoveL [[267.5, 54.6, 0.4],[-0.4630, 0.5344, 0.5344, 0.4630],[0,0,0,0],[9E9,9E9,9E9,9E9,9E9,9E9]], s_printSpeed, fine, tool0, \WObj:=ob_RRC_workplace;
        MoveL [[266.4, 66.5, 1.5],[-0.3779, 0.5976, 0.5976, 0.3779],[0,0,0,0],[9E9,9E9,9E9,9E9,9E9,9E9]], s_printSpeed, fine, tool0, \WObj:=ob_RRC_workplace;
        MoveL [[268.6, 78.2, 2.5],[-0.3096, 0.6357, 0.6357, 0.3096],[0,0,0,0],[9E9,9E9,9E9,9E9,9E9,9E9]], s_printSpeed, fine, tool0, \WObj:=ob_RRC_workplace;
        MoveL [[270.7, 90.0, 3.6],[0.2585, -0.6581, 0.6581, 0.2585],[0,0,0,0],[9E9,9E9,9E9,9E9,9E9,9E9]], s_printSpeed, fine, tool0, \WObj:=ob_RRC_workplace;
        MoveL [[264.7, 100.4, 4.5],[0.2249, -0.6704, 0.6704, 0.2249],[0,0,0,0],[9E9,9E9,9E9,9E9,9E9,9E9]], s_printSpeed, fine, tool0, \WObj:=ob_RRC_workplace;
        MoveL [[252.8, 99.4, 4.4],[0.2279, -0.6694, 0.6694, 0.2279],[0,0,0,0],[9E9,9E9,9E9,9E9,9E9,9E9]], s_printSpeed, fine, tool0, \WObj:=ob_RRC_workplace;
        MoveL [[241.1, 96.9, 4.2],[0.2353, -0.6668, 0.6668, 0.2353],[0,0,0,0],[9E9,9E9,9E9,9E9,9E9,9E9]], s_printSpeed, fine, tool0, \WObj:=ob_RRC_workplace;
        MoveL [[229.1, 95.8, 4.1],[0.2387, -0.6656, 0.6656, 0.2387],[0,0,0,0],[9E9,9E9,9E9,9E9,9E9,9E9]], s_printSpeed, fine, tool0, \WObj:=ob_RRC_workplace;
        MoveL [[222.5, 105.8, 4.9],[-0.2106, 0.6750, -0.6750, -0.2106],[0,0,0,0],[9E9,9E9,9E9,9E9,9E9,9E9]], s_printSpeed, fine, tool0, \WObj:=ob_RRC_workplace;
        MoveL [[224.5, 117.6, 6.0],[-0.1852, 0.6824, -0.6824, -0.1852],[0,0,0,0],[9E9,9E9,9E9,9E9,9E9,9E9]], s_printSpeed, fine, tool0, \WObj:=ob_RRC_workplace;
        MoveL [[226.9, 129.3, 7.0],[-0.1658, 0.6874, -0.6874, -0.1658],[0,0,0,0],[9E9,9E9,9E9,9E9,9E9,9E9]], s_printSpeed, fine, tool0, \WObj:=ob_RRC_workplace;
        MoveL [[226.0, 141.2, 8.1],[0.1502, -0.6910, 0.6910, 0.1502],[0,0,0,0],[9E9,9E9,9E9,9E9,9E9,9E9]], s_printSpeed, fine, tool0, \WObj:=ob_RRC_workplace;
        MoveL [[214.2, 143.3, 8.2],[0.1479, -0.6915, 0.6915, 0.1479],[0,0,0,0],[9E9,9E9,9E9,9E9,9E9,9E9]], s_printSpeed, fine, tool0, \WObj:=ob_RRC_workplace;
        MoveL [[202.4, 140.9, 8.0],[0.1506, -0.6909, 0.6909, 0.1506],[0,0,0,0],[9E9,9E9,9E9,9E9,9E9,9E9]], s_printSpeed, fine, tool0, \WObj:=ob_RRC_workplace;
        MoveL [[190.6, 138.8, 7.9],[0.1531, -0.6903, 0.6903, 0.1531],[0,0,0,0],[9E9,9E9,9E9,9E9,9E9,9E9]], s_printSpeed, fine, tool0, \WObj:=ob_RRC_workplace;
        MoveL [[179.6, 143.6, 8.3],[0.1475, -0.6915, 0.6915, 0.1475],[0,0,0,0],[9E9,9E9,9E9,9E9,9E9,9E9]], s_printSpeed, fine, tool0, \WObj:=ob_RRC_workplace;
        MoveL [[179.5, 155.6, 9.3],[-0.1355, 0.6940, -0.6940, -0.1355],[0,0,0,0],[9E9,9E9,9E9,9E9,9E9,9E9]], s_printSpeed, fine, tool0, \WObj:=ob_RRC_workplace;
        MoveL [[181.8, 167.3, 10.4],[-0.1258, 0.6958, -0.6958, -0.1258],[0,0,0,0],[9E9,9E9,9E9,9E9,9E9,9E9]], s_printSpeed, fine, tool0, \WObj:=ob_RRC_workplace;
        MoveL [[183.5, 179.1, 11.4],[0.1176, -0.6973, 0.6973, 0.1176],[0,0,0,0],[9E9,9E9,9E9,9E9,9E9,9E9]], s_printSpeed, fine, tool0, \WObj:=ob_RRC_workplace;
        MoveL [[175.2, 187.8, 12.2],[0.1125, -0.6981, 0.6981, 0.1125],[0,0,0,0],[9E9,9E9,9E9,9E9,9E9,9E9]], s_printSpeed, fine, tool0, \WObj:=ob_RRC_workplace;
        MoveL [[163.3, 186.1, 12.0],[0.1134, -0.6979, 0.6979, 0.1134],[0,0,0,0],[9E9,9E9,9E9,9E9,9E9,9E9]], s_printSpeed, fine, tool0, \WObj:=ob_RRC_workplace;
        MoveL [[151.5, 183.9, 11.8],[0.1147, -0.6977, 0.6977, 0.1147],[0,0,0,0],[9E9,9E9,9E9,9E9,9E9,9E9]], s_printSpeed, fine, tool0, \WObj:=ob_RRC_workplace;
        MoveL [[139.6, 183.1, 11.8],[0.1152, -0.6977, 0.6977, 0.1152],[0,0,0,0],[9E9,9E9,9E9,9E9,9E9,9E9]], s_printSpeed, fine, tool0, \WObj:=ob_RRC_workplace;
        MoveL [[127.6, 184.7, 11.9],[0.1143, -0.6978, 0.6978, 0.1143],[0,0,0,0],[9E9,9E9,9E9,9E9,9E9,9E9]], s_printSpeed, fine, tool0, \WObj:=ob_RRC_workplace;
        MoveL [[115.9, 182.3, 11.7],[0.1157, -0.6976, 0.6976, 0.1157],[0,0,0,0],[9E9,9E9,9E9,9E9,9E9,9E9]], s_printSpeed, fine, tool0, \WObj:=ob_RRC_workplace;
        MoveL [[116.4, 170.4, 10.6],[0.1235, -0.6962, 0.6962, 0.1235],[0,0,0,0],[9E9,9E9,9E9,9E9,9E9,9E9]], s_printSpeed, fine, tool0, \WObj:=ob_RRC_workplace;
        MoveL [[118.9, 158.7, 9.6],[0.1327, -0.6945, 0.6945, 0.1327],[0,0,0,0],[9E9,9E9,9E9,9E9,9E9,9E9]], s_printSpeed, fine, tool0, \WObj:=ob_RRC_workplace;
        MoveL [[120.4, 146.8, 8.6],[0.1440, -0.6923, 0.6923, 0.1440],[0,0,0,0],[9E9,9E9,9E9,9E9,9E9,9E9]], s_printSpeed, fine, tool0, \WObj:=ob_RRC_workplace;
        MoveL [[111.9, 138.4, 7.8],[0.1537, -0.6902, 0.6902, 0.1537],[0,0,0,0],[9E9,9E9,9E9,9E9,9E9,9E9]], s_printSpeed, fine, tool0, \WObj:=ob_RRC_workplace;
        MoveL [[100.1, 140.0, 8.0],[0.1517, -0.6907, 0.6907, 0.1517],[0,0,0,0],[9E9,9E9,9E9,9E9,9E9,9E9]], s_printSpeed, fine, tool0, \WObj:=ob_RRC_workplace;
        MoveL [[88.3, 142.6, 8.2],[0.1487, -0.6913, 0.6913, 0.1487],[0,0,0,0],[9E9,9E9,9E9,9E9,9E9,9E9]], s_printSpeed, fine, tool0, \WObj:=ob_RRC_workplace;
        MoveL [[76.3, 142.9, 8.2],[0.1484, -0.6914, 0.6914, 0.1484],[0,0,0,0],[9E9,9E9,9E9,9E9,9E9,9E9]], s_printSpeed, fine, tool0, \WObj:=ob_RRC_workplace;
        MoveL [[72.7, 131.5, 7.2],[0.1627, -0.6881, 0.6881, 0.1627],[0,0,0,0],[9E9,9E9,9E9,9E9,9E9,9E9]], s_printSpeed, fine, tool0, \WObj:=ob_RRC_workplace;
        MoveL [[75.0, 119.7, 6.2],[0.1813, -0.6835, 0.6835, 0.1813],[0,0,0,0],[9E9,9E9,9E9,9E9,9E9,9E9]], s_printSpeed, fine, tool0, \WObj:=ob_RRC_workplace;
        MoveL [[77.2, 108.0, 5.1],[0.2054, -0.6766, 0.6766, 0.2054],[0,0,0,0],[9E9,9E9,9E9,9E9,9E9,9E9]], s_printSpeed, fine, tool0, \WObj:=ob_RRC_workplace;
        MoveL [[73.8, 96.5, 4.1],[-0.2364, 0.6664, -0.6664, -0.2364],[0,0,0,0],[9E9,9E9,9E9,9E9,9E9,9E9]], s_printSpeed, fine, tool0, \WObj:=ob_RRC_workplace;
        MoveL [[61.8, 96.4, 4.1],[0.2370, -0.6662, 0.6662, 0.2370],[0,0,0,0],[9E9,9E9,9E9,9E9,9E9,9E9]], s_printSpeed, fine, tool0, \WObj:=ob_RRC_workplace;
        MoveL [[50.0, 98.8, 4.3],[0.2296, -0.6688, 0.6688, 0.2296],[0,0,0,0],[9E9,9E9,9E9,9E9,9E9,9E9]], s_printSpeed, fine, tool0, \WObj:=ob_RRC_workplace;
        MoveL [[38.2, 100.5, 4.5],[0.2245, -0.6705, 0.6705, 0.2245],[0,0,0,0],[9E9,9E9,9E9,9E9,9E9,9E9]], s_printSpeed, fine, tool0, \WObj:=ob_RRC_workplace;
        MoveL [[29.2, 92.6, 3.8],[0.2494, -0.6617, 0.6617, 0.2494],[0,0,0,0],[9E9,9E9,9E9,9E9,9E9,9E9]], s_printSpeed, fine, tool0, \WObj:=ob_RRC_workplace;
        MoveL [[30.8, 80.7, 2.7],[-0.2975, 0.6415, 0.6415, 0.2975],[0,0,0,0],[9E9,9E9,9E9,9E9,9E9,9E9]], s_printSpeed, fine, tool0, \WObj:=ob_RRC_workplace;
        MoveL [[33.2, 69.0, 1.7],[-0.3617, 0.6076, 0.6076, 0.3617],[0,0,0,0],[9E9,9E9,9E9,9E9,9E9,9E9]], s_printSpeed, fine, tool0, \WObj:=ob_RRC_workplace;
        MoveL [[33.5, 57.1, 0.7],[-0.4446, 0.5498, 0.5498, 0.4446],[0,0,0,0],[9E9,9E9,9E9,9E9,9E9,9E9]], s_printSpeed, fine, tool0, \WObj:=ob_RRC_workplace;
        MoveL [[23.9, 49.9, 0.0],[-0.4979, 0.5021, 0.5021, 0.4979],[0,0,0,0],[9E9,9E9,9E9,9E9,9E9,9E9]], s_printSpeed, fine, tool0, \WObj:=ob_RRC_workplace;
        MoveL [[11.9, 50.2, 0.1],[-0.4956, 0.5044, 0.5044, 0.4956],[0,0,0,0],[9E9,9E9,9E9,9E9,9E9,9E9]], s_printSpeed, fine, tool0, \WObj:=ob_RRC_workplace;
        MoveL [[0.1, 52.7, 0.3],[-0.4772, 0.5218, 0.5218, 0.4772],[0,0,0,0],[9E9,9E9,9E9,9E9,9E9,9E9]], s_printSpeed, fine, tool0, \WObj:=ob_RRC_workplace;
        MoveL [[-11.3, 56.3, 0.6],[-0.4504, 0.5451, 0.5451, 0.4504],[0,0,0,0],[9E9,9E9,9E9,9E9,9E9,9E9]], s_printSpeed, fine, tool0, \WObj:=ob_RRC_workplace;
    ! layer end
        MoveL [[302.1, 53.0, 0.4],[-0.4725, 0.5260, 0.5260, 0.4725],[0,0,0,0],[9E9,9E9,9E9,9E9,9E9,9E9]], s_printSpeed, fine, tool0, \WObj:=ob_RRC_workplace;
        MoveL [[290.4, 50.3, 0.1],[-0.4929, 0.5070, 0.5070, 0.4929],[0,0,0,0],[9E9,9E9,9E9,9E9,9E9,9E9]], s_printSpeed, fine, tool0, \WObj:=ob_RRC_workplace;
        MoveL [[278.5, 49.4, 0.0],[-0.4996, 0.5004, 0.5004, 0.4996],[0,0,0,0],[9E9,9E9,9E9,9E9,9E9,9E9]], s_printSpeed, fine, tool0, \WObj:=ob_RRC_workplace;
        MoveL [[267.5, 54.3, 0.5],[-0.4631, 0.5343, 0.5343, 0.4631],[0,0,0,0],[9E9,9E9,9E9,9E9,9E9,9E9]], s_printSpeed, fine, tool0, \WObj:=ob_RRC_workplace;
        MoveL [[266.4, 66.2, 1.6],[-0.3785, 0.5973, 0.5973, 0.3785],[0,0,0,0],[9E9,9E9,9E9,9E9,9E9,9E9]], s_printSpeed, fine, tool0, \WObj:=ob_RRC_workplace;
        MoveL [[268.6, 77.9, 2.8],[-0.3108, 0.6351, 0.6351, 0.3108],[0,0,0,0],[9E9,9E9,9E9,9E9,9E9,9E9]], s_printSpeed, fine, tool0, \WObj:=ob_RRC_workplace;
        MoveL [[270.7, 89.7, 3.9],[0.2602, -0.6575, 0.6575, 0.2602],[0,0,0,0],[9E9,9E9,9E9,9E9,9E9,9E9]], s_printSpeed, fine, tool0, \WObj:=ob_RRC_workplace;
        MoveL [[264.7, 100.1, 4.9],[-0.2269, 0.6697, -0.6697, -0.2269],[0,0,0,0],[9E9,9E9,9E9,9E9,9E9,9E9]], s_printSpeed, fine, tool0, \WObj:=ob_RRC_workplace;
        MoveL [[252.8, 99.0, 4.8],[-0.2298, 0.6687, -0.6687, -0.2298],[0,0,0,0],[9E9,9E9,9E9,9E9,9E9,9E9]], s_printSpeed, fine, tool0, \WObj:=ob_RRC_workplace;
        MoveL [[241.1, 96.6, 4.6],[-0.2371, 0.6662, -0.6662, -0.2371],[0,0,0,0],[9E9,9E9,9E9,9E9,9E9,9E9]], s_printSpeed, fine, tool0, \WObj:=ob_RRC_workplace;
        MoveL [[229.1, 95.5, 4.5],[-0.2405, 0.6649, -0.6649, -0.2405],[0,0,0,0],[9E9,9E9,9E9,9E9,9E9,9E9]], s_printSpeed, fine, tool0, \WObj:=ob_RRC_workplace;
        MoveL [[222.5, 105.5, 5.4],[-0.2127, 0.6743, -0.6743, -0.2127],[0,0,0,0],[9E9,9E9,9E9,9E9,9E9,9E9]], s_printSpeed, fine, tool0, \WObj:=ob_RRC_workplace;
        MoveL [[224.5, 117.3, 6.6],[0.1875, -0.6818, 0.6818, 0.1875],[0,0,0,0],[9E9,9E9,9E9,9E9,9E9,9E9]], s_printSpeed, fine, tool0, \WObj:=ob_RRC_workplace;
        MoveL [[226.9, 128.9, 7.7],[0.1683, -0.6868, 0.6868, 0.1683],[0,0,0,0],[9E9,9E9,9E9,9E9,9E9,9E9]], s_printSpeed, fine, tool0, \WObj:=ob_RRC_workplace;
        MoveL [[226.0, 140.9, 8.9],[0.1528, -0.6904, 0.6904, 0.1528],[0,0,0,0],[9E9,9E9,9E9,9E9,9E9,9E9]], s_printSpeed, fine, tool0, \WObj:=ob_RRC_workplace;
        MoveL [[214.2, 142.9, 9.1],[-0.1505, 0.6909, -0.6909, -0.1505],[0,0,0,0],[9E9,9E9,9E9,9E9,9E9,9E9]], s_printSpeed, fine, tool0, \WObj:=ob_RRC_workplace;
        MoveL [[202.4, 140.5, 8.8],[-0.1532, 0.6903, -0.6903, -0.1532],[0,0,0,0],[9E9,9E9,9E9,9E9,9E9,9E9]], s_printSpeed, fine, tool0, \WObj:=ob_RRC_workplace;
        MoveL [[190.6, 138.5, 8.6],[-0.1557, 0.6898, -0.6898, -0.1557],[0,0,0,0],[9E9,9E9,9E9,9E9,9E9,9E9]], s_printSpeed, fine, tool0, \WObj:=ob_RRC_workplace;
        MoveL [[179.6, 143.2, 9.1],[-0.1502, 0.6910, -0.6910, -0.1502],[0,0,0,0],[9E9,9E9,9E9,9E9,9E9,9E9]], s_printSpeed, fine, tool0, \WObj:=ob_RRC_workplace;
        MoveL [[179.5, 155.2, 10.3],[-0.1382, 0.6935, -0.6935, -0.1382],[0,0,0,0],[9E9,9E9,9E9,9E9,9E9,9E9]], s_printSpeed, fine, tool0, \WObj:=ob_RRC_workplace;
        MoveL [[181.8, 166.9, 11.4],[0.1286, -0.6953, 0.6953, 0.1286],[0,0,0,0],[9E9,9E9,9E9,9E9,9E9,9E9]], s_printSpeed, fine, tool0, \WObj:=ob_RRC_workplace;
        MoveL [[183.5, 178.7, 12.5],[-0.1204, 0.6968, -0.6968, -0.1204],[0,0,0,0],[9E9,9E9,9E9,9E9,9E9,9E9]], s_printSpeed, fine, tool0, \WObj:=ob_RRC_workplace;
        MoveL [[175.2, 187.4, 13.4],[-0.1153, 0.6976, -0.6976, -0.1153],[0,0,0,0],[9E9,9E9,9E9,9E9,9E9,9E9]], s_printSpeed, fine, tool0, \WObj:=ob_RRC_workplace;
        MoveL [[163.3, 185.7, 13.2],[-0.1163, 0.6975, -0.6975, -0.1163],[0,0,0,0],[9E9,9E9,9E9,9E9,9E9,9E9]], s_printSpeed, fine, tool0, \WObj:=ob_RRC_workplace;
        MoveL [[151.5, 183.5, 13.0],[-0.1175, 0.6973, -0.6973, -0.1175],[0,0,0,0],[9E9,9E9,9E9,9E9,9E9,9E9]], s_printSpeed, fine, tool0, \WObj:=ob_RRC_workplace;
        MoveL [[139.6, 182.7, 12.9],[-0.1180, 0.6972, -0.6972, -0.1180],[0,0,0,0],[9E9,9E9,9E9,9E9,9E9,9E9]], s_printSpeed, fine, tool0, \WObj:=ob_RRC_workplace;
        MoveL [[127.6, 184.2, 13.1],[-0.1171, 0.6973, -0.6973, -0.1171],[0,0,0,0],[9E9,9E9,9E9,9E9,9E9,9E9]], s_printSpeed, fine, tool0, \WObj:=ob_RRC_workplace;
        MoveL [[115.9, 181.9, 12.8],[-0.1185, 0.6971, -0.6971, -0.1185],[0,0,0,0],[9E9,9E9,9E9,9E9,9E9,9E9]], s_printSpeed, fine, tool0, \WObj:=ob_RRC_workplace;
        MoveL [[116.4, 170.0, 11.7],[-0.1263, 0.6957, -0.6957, -0.1263],[0,0,0,0],[9E9,9E9,9E9,9E9,9E9,9E9]], s_printSpeed, fine, tool0, \WObj:=ob_RRC_workplace;
        MoveL [[118.9, 158.3, 10.6],[-0.1354, 0.6940, -0.6940, -0.1354],[0,0,0,0],[9E9,9E9,9E9,9E9,9E9,9E9]], s_printSpeed, fine, tool0, \WObj:=ob_RRC_workplace;
        MoveL [[120.4, 146.5, 9.4],[-0.1467, 0.6917, -0.6917, -0.1467],[0,0,0,0],[9E9,9E9,9E9,9E9,9E9,9E9]], s_printSpeed, fine, tool0, \WObj:=ob_RRC_workplace;
        MoveL [[111.9, 138.0, 8.6],[0.1562, -0.6896, 0.6896, 0.1562],[0,0,0,0],[9E9,9E9,9E9,9E9,9E9,9E9]], s_printSpeed, fine, tool0, \WObj:=ob_RRC_workplace;
        MoveL [[100.1, 139.6, 8.8],[0.1542, -0.6901, 0.6901, 0.1542],[0,0,0,0],[9E9,9E9,9E9,9E9,9E9,9E9]], s_printSpeed, fine, tool0, \WObj:=ob_RRC_workplace;
        MoveL [[88.3, 142.2, 9.0],[0.1513, -0.6907, 0.6907, 0.1513],[0,0,0,0],[9E9,9E9,9E9,9E9,9E9,9E9]], s_printSpeed, fine, tool0, \WObj:=ob_RRC_workplace;
        MoveL [[76.3, 142.5, 9.0],[0.1510, -0.6908, 0.6908, 0.1510],[0,0,0,0],[9E9,9E9,9E9,9E9,9E9,9E9]], s_printSpeed, fine, tool0, \WObj:=ob_RRC_workplace;
        MoveL [[72.7, 131.1, 7.9],[-0.1652, 0.6875, -0.6875, -0.1652],[0,0,0,0],[9E9,9E9,9E9,9E9,9E9,9E9]], s_printSpeed, fine, tool0, \WObj:=ob_RRC_workplace;
        MoveL [[75.0, 119.4, 6.8],[-0.1837, 0.6828, -0.6828, -0.1837],[0,0,0,0],[9E9,9E9,9E9,9E9,9E9,9E9]], s_printSpeed, fine, tool0, \WObj:=ob_RRC_workplace;
        MoveL [[77.2, 107.6, 5.7],[-0.2075, 0.6760, -0.6760, -0.2075],[0,0,0,0],[9E9,9E9,9E9,9E9,9E9,9E9]], s_printSpeed, fine, tool0, \WObj:=ob_RRC_workplace;
        MoveL [[73.8, 96.2, 4.5],[0.2383, -0.6658, 0.6658, 0.2383],[0,0,0,0],[9E9,9E9,9E9,9E9,9E9,9E9]], s_printSpeed, fine, tool0, \WObj:=ob_RRC_workplace;
        MoveL [[61.8, 96.0, 4.5],[0.2388, -0.6656, 0.6656, 0.2388],[0,0,0,0],[9E9,9E9,9E9,9E9,9E9,9E9]], s_printSpeed, fine, tool0, \WObj:=ob_RRC_workplace;
        MoveL [[50.0, 98.4, 4.8],[0.2316, -0.6681, 0.6681, 0.2316],[0,0,0,0],[9E9,9E9,9E9,9E9,9E9,9E9]], s_printSpeed, fine, tool0, \WObj:=ob_RRC_workplace;
        MoveL [[38.2, 100.2, 4.9],[0.2265, -0.6699, 0.6699, 0.2265],[0,0,0,0],[9E9,9E9,9E9,9E9,9E9,9E9]], s_printSpeed, fine, tool0, \WObj:=ob_RRC_workplace;
        MoveL [[29.2, 92.2, 4.2],[-0.2512, 0.6610, -0.6610, -0.2512],[0,0,0,0],[9E9,9E9,9E9,9E9,9E9,9E9]], s_printSpeed, fine, tool0, \WObj:=ob_RRC_workplace;
        MoveL [[30.8, 80.4, 3.0],[-0.2988, 0.6409, 0.6409, 0.2988],[0,0,0,0],[9E9,9E9,9E9,9E9,9E9,9E9]], s_printSpeed, fine, tool0, \WObj:=ob_RRC_workplace;
        MoveL [[33.2, 68.7, 1.9],[-0.3624, 0.6072, 0.6072, 0.3624],[0,0,0,0],[9E9,9E9,9E9,9E9,9E9,9E9]], s_printSpeed, fine, tool0, \WObj:=ob_RRC_workplace;
        MoveL [[33.5, 56.8, 0.7],[-0.4448, 0.5497, 0.5497, 0.4448],[0,0,0,0],[9E9,9E9,9E9,9E9,9E9,9E9]], s_printSpeed, fine, tool0, \WObj:=ob_RRC_workplace;
        MoveL [[23.9, 49.6, 0.0],[-0.4979, 0.5021, 0.5021, 0.4979],[0,0,0,0],[9E9,9E9,9E9,9E9,9E9,9E9]], s_printSpeed, fine, tool0, \WObj:=ob_RRC_workplace;
        MoveL [[11.9, 49.9, 0.1],[-0.4956, 0.5044, 0.5044, 0.4956],[0,0,0,0],[9E9,9E9,9E9,9E9,9E9,9E9]], s_printSpeed, fine, tool0, \WObj:=ob_RRC_workplace;
        MoveL [[0.1, 52.4, 0.3],[-0.4772, 0.5218, 0.5218, 0.4772],[0,0,0,0],[9E9,9E9,9E9,9E9,9E9,9E9]], s_printSpeed, fine, tool0, \WObj:=ob_RRC_workplace;
        MoveL [[-11.3, 56.0, 0.6],[-0.4505, 0.5450, 0.5450, 0.4505],[0,0,0,0],[9E9,9E9,9E9,9E9,9E9,9E9]], s_printSpeed, fine, tool0, \WObj:=ob_RRC_workplace;
    ! layer end
        MoveL [[302.1, 52.7, 0.4],[-0.4726, 0.5260, 0.5260, 0.4726],[0,0,0,0],[9E9,9E9,9E9,9E9,9E9,9E9]], s_printSpeed, fine, tool0, \WObj:=ob_RRC_workplace;
        MoveL [[290.4, 50.0, 0.1],[-0.4929, 0.5070, 0.5070, 0.4929],[0,0,0,0],[9E9,9E9,9E9,9E9,9E9,9E9]], s_printSpeed, fine, tool0, \WObj:=ob_RRC_workplace;
        MoveL [[278.5, 49.1, 0.0],[-0.4996, 0.5004, 0.5004, 0.4996],[0,0,0,0],[9E9,9E9,9E9,9E9,9E9,9E9]], s_printSpeed, fine, tool0, \WObj:=ob_RRC_workplace;
        MoveL [[267.5, 54.0, 0.5],[-0.4632, 0.5343, 0.5343, 0.4632],[0,0,0,0],[9E9,9E9,9E9,9E9,9E9,9E9]], s_printSpeed, fine, tool0, \WObj:=ob_RRC_workplace;
        MoveL [[266.4, 65.9, 1.8],[-0.3791, 0.5969, 0.5969, 0.3791],[0,0,0,0],[9E9,9E9,9E9,9E9,9E9,9E9]], s_printSpeed, fine, tool0, \WObj:=ob_RRC_workplace;
        MoveL [[268.6, 77.6, 3.0],[-0.3120, 0.6346, 0.6346, 0.3120],[0,0,0,0],[9E9,9E9,9E9,9E9,9E9,9E9]], s_printSpeed, fine, tool0, \WObj:=ob_RRC_workplace;
        MoveL [[270.7, 89.3, 4.3],[-0.2619, 0.6568, -0.6568, -0.2619],[0,0,0,0],[9E9,9E9,9E9,9E9,9E9,9E9]], s_printSpeed, fine, tool0, \WObj:=ob_RRC_workplace;
        MoveL [[264.7, 99.7, 5.4],[0.2289, -0.6690, 0.6690, 0.2289],[0,0,0,0],[9E9,9E9,9E9,9E9,9E9,9E9]], s_printSpeed, fine, tool0, \WObj:=ob_RRC_workplace;
        MoveL [[252.8, 98.7, 5.3],[0.2318, -0.6680, 0.6680, 0.2318],[0,0,0,0],[9E9,9E9,9E9,9E9,9E9,9E9]], s_printSpeed, fine, tool0, \WObj:=ob_RRC_workplace;
        MoveL [[241.1, 96.2, 5.0],[0.2390, -0.6655, 0.6655, 0.2390],[0,0,0,0],[9E9,9E9,9E9,9E9,9E9,9E9]], s_printSpeed, fine, tool0, \WObj:=ob_RRC_workplace;
        MoveL [[229.1, 95.1, 4.9],[0.2424, -0.6643, 0.6643, 0.2424],[0,0,0,0],[9E9,9E9,9E9,9E9,9E9,9E9]], s_printSpeed, fine, tool0, \WObj:=ob_RRC_workplace;
        MoveL [[222.5, 105.1, 5.9],[0.2149, -0.6737, 0.6737, 0.2149],[0,0,0,0],[9E9,9E9,9E9,9E9,9E9,9E9]], s_printSpeed, fine, tool0, \WObj:=ob_RRC_workplace;
        MoveL [[224.5, 116.9, 7.2],[-0.1899, 0.6811, -0.6811, -0.1899],[0,0,0,0],[9E9,9E9,9E9,9E9,9E9,9E9]], s_printSpeed, fine, tool0, \WObj:=ob_RRC_workplace;
        MoveL [[226.9, 128.6, 8.4],[-0.1708, 0.6862, -0.6862, -0.1708],[0,0,0,0],[9E9,9E9,9E9,9E9,9E9,9E9]], s_printSpeed, fine, tool0, \WObj:=ob_RRC_workplace;
        MoveL [[226.0, 140.5, 9.7],[0.1554, -0.6898, 0.6898, 0.1554],[0,0,0,0],[9E9,9E9,9E9,9E9,9E9,9E9]], s_printSpeed, fine, tool0, \WObj:=ob_RRC_workplace;
        MoveL [[214.2, 142.5, 9.9],[0.1531, -0.6903, 0.6903, 0.1531],[0,0,0,0],[9E9,9E9,9E9,9E9,9E9,9E9]], s_printSpeed, fine, tool0, \WObj:=ob_RRC_workplace;
        MoveL [[202.4, 140.1, 9.6],[0.1558, -0.6897, 0.6897, 0.1558],[0,0,0,0],[9E9,9E9,9E9,9E9,9E9,9E9]], s_printSpeed, fine, tool0, \WObj:=ob_RRC_workplace;
        MoveL [[190.6, 138.1, 9.4],[0.1582, -0.6892, 0.6892, 0.1582],[0,0,0,0],[9E9,9E9,9E9,9E9,9E9,9E9]], s_printSpeed, fine, tool0, \WObj:=ob_RRC_workplace;
