MODULE fdm_print
    VAR speeddata s_printSpeed:=v5;
    VAR speeddata s_travelSpeed:=v300;

    PROC Extrude10Sec ()
        SetDO DO_10, 1;
        SetDO\SDelay:=10, DO_10, 0;
    ENDPROC

    PROC main()
        IF RobOS() = FALSE THEN
            s_travelSpeed := vmax; ! run at max speed in robotstudio
            s_printSpeed := vmax;
        ENDIF
        print;
    ENDPROC

    PROC print()
        MoveAbsJ [[0.0,0.0,0.0,0.0,0.0,0.0], [9E9,9E9,9E9,9E9,9E9,9E9]], s_travelSpeed, fine, tool0;
        SetDO DO_1, 1; ! heater on
        TPWrite "Press play when extruder is at right temperature";
        Stop;
        MoveJ [[783.6, 542.5, -0.0],[-0.5167, -0.4828, -0.4828, 0.5167],[0,0,0,0],[9E9,9E9,9E9,9E9,9E9,9E9]], s_travelSpeed, fine, tool0, \WObj:=ob_RRC_workplace;
        SetDO DO_10, 1; ! stepper off
        MoveL [[783.6, 542.5, -0.0],[-0.5167, -0.4828, -0.4828, 0.5167],[0,0,0,0],[9E9,9E9,9E9,9E9,9E9,9E9]], s_printSpeed, fine, tool0, \WObj:=ob_RRC_workplace;
        MoveL [[772.2, 546.4, -0.0],[-0.5426, -0.4534, -0.4534, 0.5426],[0,0,0,0],[9E9,9E9,9E9,9E9,9E9,9E9]], s_printSpeed, fine, tool0, \WObj:=ob_RRC_workplace;
        MoveL [[761.3, 551.4, -0.0],[-0.5726, -0.4149, -0.4149, 0.5726],[0,0,0,0],[9E9,9E9,9E9,9E9,9E9,9E9]], s_printSpeed, fine, tool0, \WObj:=ob_RRC_workplace;
        MoveL [[751.3, 558.1, -0.0],[-0.6049, -0.3662, -0.3662, 0.6049],[0,0,0,0],[9E9,9E9,9E9,9E9,9E9,9E9]], s_printSpeed, fine, tool0, \WObj:=ob_RRC_workplace;
        MoveL [[743.1, 566.8, -0.0],[-0.6350, -0.3110, -0.3110, 0.6350],[0,0,0,0],[9E9,9E9,9E9,9E9,9E9,9E9]], s_printSpeed, fine, tool0, \WObj:=ob_RRC_workplace;
        MoveL [[737.1, 577.2, -0.0],[0.6582, 0.2584, -0.2584, 0.6582],[0,0,0,0],[9E9,9E9,9E9,9E9,9E9,9E9]], s_printSpeed, fine, tool0, \WObj:=ob_RRC_workplace;
        MoveL [[732.4, 588.2, -0.0],[0.6733, 0.2161, -0.2161, 0.6733],[0,0,0,0],[9E9,9E9,9E9,9E9,9E9,9E9]], s_printSpeed, fine, tool0, \WObj:=ob_RRC_workplace;
        MoveL [[727.8, 599.3, -0.0],[0.6827, 0.1842, -0.1842, 0.6827],[0,0,0,0],[9E9,9E9,9E9,9E9,9E9,9E9]], s_printSpeed, fine, tool0, \WObj:=ob_RRC_workplace;
        MoveL [[722.0, 609.8, -0.0],[0.6885, 0.1611, -0.1611, 0.6885],[0,0,0,0],[9E9,9E9,9E9,9E9,9E9,9E9]], s_printSpeed, fine, tool0, \WObj:=ob_RRC_workplace;
        MoveL [[713.3, 618.1, -0.0],[0.6918, 0.1463, -0.1463, 0.6918],[0,0,0,0],[9E9,9E9,9E9,9E9,9E9,9E9]], s_printSpeed, fine, tool0, \WObj:=ob_RRC_workplace;
        MoveL [[702.5, 623.3, -0.0],[0.6935, 0.1383, -0.1383, 0.6935],[0,0,0,0],[9E9,9E9,9E9,9E9,9E9,9E9]], s_printSpeed, fine, tool0, \WObj:=ob_RRC_workplace;
        MoveL [[691.2, 627.4, -0.0],[0.6946, 0.1326, -0.1326, 0.6946],[0,0,0,0],[9E9,9E9,9E9,9E9,9E9,9E9]], s_printSpeed, fine, tool0, \WObj:=ob_RRC_workplace;
        MoveL [[680.2, 632.2, -0.0],[0.6957, 0.1263, -0.1263, 0.6957],[0,0,0,0],[9E9,9E9,9E9,9E9,9E9,9E9]], s_printSpeed, fine, tool0, \WObj:=ob_RRC_workplace;
        MoveL [[670.5, 639.2, -0.0],[0.6971, 0.1183, -0.1183, 0.6971],[0,0,0,0],[9E9,9E9,9E9,9E9,9E9,9E9]], s_printSpeed, fine, tool0, \WObj:=ob_RRC_workplace;
        MoveL [[663.1, 648.7, -0.0],[0.6987, 0.1088, -0.1088, 0.6987],[0,0,0,0],[9E9,9E9,9E9,9E9,9E9,9E9]], s_printSpeed, fine, tool0, \WObj:=ob_RRC_workplace;
        MoveL [[657.7, 659.4, -0.0],[0.7000, 0.0998, -0.0998, 0.7000],[0,0,0,0],[9E9,9E9,9E9,9E9,9E9,9E9]], s_printSpeed, fine, tool0, \WObj:=ob_RRC_workplace;
        MoveL [[653.1, 670.5, -0.0],[0.7011, 0.0919, -0.0919, 0.7011],[0,0,0,0],[9E9,9E9,9E9,9E9,9E9,9E9]], s_printSpeed, fine, tool0, \WObj:=ob_RRC_workplace;
        MoveL [[648.6, 681.6, 0.0],[0.7020, 0.0851, -0.0851, 0.7020],[0,0,0,0],[9E9,9E9,9E9,9E9,9E9,9E9]], s_printSpeed, fine, tool0, \WObj:=ob_RRC_workplace;
        MoveL [[640.0, 690.0, 0.0],[0.7025, 0.0806, -0.0806, 0.7025],[0,0,0,0],[9E9,9E9,9E9,9E9,9E9,9E9]], s_printSpeed, fine, tool0, \WObj:=ob_RRC_workplace;
        MoveL [[632.0, 681.0, 0.0],[0.7019, 0.0854, -0.0854, 0.7019],[0,0,0,0],[9E9,9E9,9E9,9E9,9E9,9E9]], s_printSpeed, fine, tool0, \WObj:=ob_RRC_workplace;
        MoveL [[625.8, 670.8, 0.0],[0.7011, 0.0917, -0.0917, 0.7011],[0,0,0,0],[9E9,9E9,9E9,9E9,9E9,9E9]], s_printSpeed, fine, tool0, \WObj:=ob_RRC_workplace;
        MoveL [[619.6, 660.5, 0.0],[0.7001, 0.0990, -0.0990, 0.7001],[0,0,0,0],[9E9,9E9,9E9,9E9,9E9,9E9]], s_printSpeed, fine, tool0, \WObj:=ob_RRC_workplace;
        MoveL [[612.8, 650.6, 0.0],[0.6989, 0.1071, -0.1071, 0.6989],[0,0,0,0],[9E9,9E9,9E9,9E9,9E9,9E9]], s_printSpeed, fine, tool0, \WObj:=ob_RRC_workplace;
        MoveL [[604.9, 641.6, 0.0],[0.6976, 0.1158, -0.1158, 0.6976],[0,0,0,0],[9E9,9E9,9E9,9E9,9E9,9E9]], s_printSpeed, fine, tool0, \WObj:=ob_RRC_workplace;
        MoveL [[595.3, 634.4, 0.0],[0.6962, 0.1237, -0.1237, 0.6962],[0,0,0,0],[9E9,9E9,9E9,9E9,9E9,9E9]], s_printSpeed, fine, tool0, \WObj:=ob_RRC_workplace;
        MoveL [[584.4, 629.2, 0.0],[0.6950, 0.1302, -0.1302, 0.6950],[0,0,0,0],[9E9,9E9,9E9,9E9,9E9,9E9]], s_printSpeed, fine, tool0, \WObj:=ob_RRC_workplace;
        MoveL [[573.2, 624.9, 0.0],[0.6939, 0.1360, -0.1360, 0.6939],[0,0,0,0],[9E9,9E9,9E9,9E9,9E9,9E9]], s_printSpeed, fine, tool0, \WObj:=ob_RRC_workplace;
        MoveL [[562.3, 619.9, 0.0],[0.6924, 0.1434, -0.1434, 0.6924],[0,0,0,0],[9E9,9E9,9E9,9E9,9E9,9E9]], s_printSpeed, fine, tool0, \WObj:=ob_RRC_workplace;
        MoveL [[553.1, 612.2, 0.0],[0.6896, 0.1566, -0.1566, 0.6896],[0,0,0,0],[9E9,9E9,9E9,9E9,9E9,9E9]], s_printSpeed, fine, tool0, \WObj:=ob_RRC_workplace;
        MoveL [[546.9, 602.0, 0.0],[0.6844, 0.1778, -0.1778, 0.6844],[0,0,0,0],[9E9,9E9,9E9,9E9,9E9,9E9]], s_printSpeed, fine, tool0, \WObj:=ob_RRC_workplace;
        MoveL [[542.1, 591.0, 0.0],[0.6760, 0.2074, -0.2074, 0.6760],[0,0,0,0],[9E9,9E9,9E9,9E9,9E9,9E9]], s_printSpeed, fine, tool0, \WObj:=ob_RRC_workplace;
        MoveL [[537.4, 579.9, 0.0],[0.6626, 0.2468, -0.2468, 0.6626],[0,0,0,0],[9E9,9E9,9E9,9E9,9E9,9E9]], s_printSpeed, fine, tool0, \WObj:=ob_RRC_workplace;
        MoveL [[531.8, 569.3, 0.0],[-0.6418, -0.2969, -0.2969, 0.6418],[0,0,0,0],[9E9,9E9,9E9,9E9,9E9,9E9]], s_printSpeed, fine, tool0, \WObj:=ob_RRC_workplace;
        MoveL [[524.0, 560.2, 0.0],[-0.6131, -0.3522, -0.3522, 0.6131],[0,0,0,0],[9E9,9E9,9E9,9E9,9E9,9E9]], s_printSpeed, fine, tool0, \WObj:=ob_RRC_workplace;
        MoveL [[514.4, 553.0, 0.0],[-0.5810, -0.4030, -0.4030, 0.5810],[0,0,0,0],[9E9,9E9,9E9,9E9,9E9,9E9]], s_printSpeed, fine, tool0, \WObj:=ob_RRC_workplace;
        MoveL [[503.7, 547.6, 0.0],[-0.5501, -0.4443, -0.4443, 0.5501],[0,0,0,0],[9E9,9E9,9E9,9E9,9E9,9E9]], s_printSpeed, fine, tool0, \WObj:=ob_RRC_workplace;
        MoveL [[492.4, 543.4, 0.0],[-0.5229, -0.4760, -0.4760, 0.5229],[0,0,0,0],[9E9,9E9,9E9,9E9,9E9,9E9]], s_printSpeed, fine, tool0, \WObj:=ob_RRC_workplace;
        MoveL [[480.9, 540.2, 0.0],[0.5000, 0.5000, 0.5000, -0.5000],[0,0,0,0],[9E9,9E9,9E9,9E9,9E9,9E9]], s_printSpeed, fine, tool0, \WObj:=ob_RRC_workplace;
    ! layer end
        MoveL [[783.6, 542.2, 0.0],[-0.5167, -0.4828, -0.4828, 0.5167],[0,0,0,0],[9E9,9E9,9E9,9E9,9E9,9E9]], s_printSpeed, fine, tool0, \WObj:=ob_RRC_workplace;
        MoveL [[772.2, 546.1, 0.1],[-0.5425, -0.4535, -0.4535, 0.5425],[0,0,0,0],[9E9,9E9,9E9,9E9,9E9,9E9]], s_printSpeed, fine, tool0, \WObj:=ob_RRC_workplace;
        MoveL [[761.3, 551.1, 0.1],[-0.5724, -0.4151, -0.4151, 0.5724],[0,0,0,0],[9E9,9E9,9E9,9E9,9E9,9E9]], s_printSpeed, fine, tool0, \WObj:=ob_RRC_workplace;
        MoveL [[751.3, 557.8, 0.2],[-0.6045, -0.3668, -0.3668, 0.6045],[0,0,0,0],[9E9,9E9,9E9,9E9,9E9,9E9]], s_printSpeed, fine, tool0, \WObj:=ob_RRC_workplace;
        MoveL [[743.1, 566.5, 0.2],[-0.6345, -0.3121, -0.3121, 0.6345],[0,0,0,0],[9E9,9E9,9E9,9E9,9E9,9E9]], s_printSpeed, fine, tool0, \WObj:=ob_RRC_workplace;
        MoveL [[737.1, 576.9, 0.3],[0.6576, 0.2599, -0.2599, 0.6576],[0,0,0,0],[9E9,9E9,9E9,9E9,9E9,9E9]], s_printSpeed, fine, tool0, \WObj:=ob_RRC_workplace;
        MoveL [[732.4, 587.9, 0.4],[0.6727, 0.2180, -0.2180, 0.6727],[0,0,0,0],[9E9,9E9,9E9,9E9,9E9,9E9]], s_printSpeed, fine, tool0, \WObj:=ob_RRC_workplace;
        MoveL [[727.8, 599.0, 0.5],[0.6821, 0.1865, -0.1865, 0.6821],[0,0,0,0],[9E9,9E9,9E9,9E9,9E9,9E9]], s_printSpeed, fine, tool0, \WObj:=ob_RRC_workplace;
        MoveL [[722.0, 609.5, 0.6],[0.6879, 0.1635, -0.1635, 0.6879],[0,0,0,0],[9E9,9E9,9E9,9E9,9E9,9E9]], s_printSpeed, fine, tool0, \WObj:=ob_RRC_workplace;
        MoveL [[713.3, 617.8, 0.7],[0.6913, 0.1488, -0.1488, 0.6913],[0,0,0,0],[9E9,9E9,9E9,9E9,9E9,9E9]], s_printSpeed, fine, tool0, \WObj:=ob_RRC_workplace;
        MoveL [[702.5, 623.0, 0.7],[0.6929, 0.1409, -0.1409, 0.6929],[0,0,0,0],[9E9,9E9,9E9,9E9,9E9,9E9]], s_printSpeed, fine, tool0, \WObj:=ob_RRC_workplace;
        MoveL [[691.2, 627.1, 0.8],[0.6941, 0.1352, -0.1352, 0.6941],[0,0,0,0],[9E9,9E9,9E9,9E9,9E9,9E9]], s_printSpeed, fine, tool0, \WObj:=ob_RRC_workplace;
        MoveL [[680.2, 631.9, 0.8],[0.6952, 0.1290, -0.1290, 0.6952],[0,0,0,0],[9E9,9E9,9E9,9E9,9E9,9E9]], s_printSpeed, fine, tool0, \WObj:=ob_RRC_workplace;
        MoveL [[670.5, 638.9, 0.9],[0.6967, 0.1210, -0.1210, 0.6967],[0,0,0,0],[9E9,9E9,9E9,9E9,9E9,9E9]], s_printSpeed, fine, tool0, \WObj:=ob_RRC_workplace;
        MoveL [[663.1, 648.4, 1.0],[0.6982, 0.1116, -0.1116, 0.6982],[0,0,0,0],[9E9,9E9,9E9,9E9,9E9,9E9]], s_printSpeed, fine, tool0, \WObj:=ob_RRC_workplace;
        MoveL [[657.7, 659.1, 1.0],[0.6996, 0.1026, -0.1026, 0.6996],[0,0,0,0],[9E9,9E9,9E9,9E9,9E9,9E9]], s_printSpeed, fine, tool0, \WObj:=ob_RRC_workplace;
        MoveL [[653.1, 670.2, 1.1],[0.7007, 0.0947, -0.0947, 0.7007],[0,0,0,0],[9E9,9E9,9E9,9E9,9E9,9E9]], s_printSpeed, fine, tool0, \WObj:=ob_RRC_workplace;
        MoveL [[648.6, 681.3, 1.2],[0.7016, 0.0880, -0.0880, 0.7016],[0,0,0,0],[9E9,9E9,9E9,9E9,9E9,9E9]], s_printSpeed, fine, tool0, \WObj:=ob_RRC_workplace;
        MoveL [[640.0, 689.7, 1.3],[0.7022, 0.0835, -0.0835, 0.7022],[0,0,0,0],[9E9,9E9,9E9,9E9,9E9,9E9]], s_printSpeed, fine, tool0, \WObj:=ob_RRC_workplace;
        MoveL [[632.0, 680.7, 1.2],[0.7016, 0.0883, -0.0883, 0.7016],[0,0,0,0],[9E9,9E9,9E9,9E9,9E9,9E9]], s_printSpeed, fine, tool0, \WObj:=ob_RRC_workplace;
        MoveL [[625.8, 670.4, 1.1],[0.7008, 0.0946, -0.0946, 0.7008],[0,0,0,0],[9E9,9E9,9E9,9E9,9E9,9E9]], s_printSpeed, fine, tool0, \WObj:=ob_RRC_workplace;
        MoveL [[619.6, 660.2, 1.1],[0.6997, 0.1018, -0.1018, 0.6997],[0,0,0,0],[9E9,9E9,9E9,9E9,9E9,9E9]], s_printSpeed, fine, tool0, \WObj:=ob_RRC_workplace;
        MoveL [[612.8, 650.3, 1.0],[0.6985, 0.1099, -0.1099, 0.6985],[0,0,0,0],[9E9,9E9,9E9,9E9,9E9,9E9]], s_printSpeed, fine, tool0, \WObj:=ob_RRC_workplace;
        MoveL [[604.9, 641.3, 0.9],[0.6971, 0.1185, -0.1185, 0.6971],[0,0,0,0],[9E9,9E9,9E9,9E9,9E9,9E9]], s_printSpeed, fine, tool0, \WObj:=ob_RRC_workplace;
        MoveL [[595.3, 634.1, 0.8],[0.6957, 0.1264, -0.1264, 0.6957],[0,0,0,0],[9E9,9E9,9E9,9E9,9E9,9E9]], s_printSpeed, fine, tool0, \WObj:=ob_RRC_workplace;
        MoveL [[584.4, 628.9, 0.8],[0.6945, 0.1328, -0.1328, 0.6945],[0,0,0,0],[9E9,9E9,9E9,9E9,9E9,9E9]], s_printSpeed, fine, tool0, \WObj:=ob_RRC_workplace;
        MoveL [[573.2, 624.6, 0.7],[0.6934, 0.1386, -0.1386, 0.6934],[0,0,0,0],[9E9,9E9,9E9,9E9,9E9,9E9]], s_printSpeed, fine, tool0, \WObj:=ob_RRC_workplace;
        MoveL [[562.3, 619.6, 0.7],[0.6919, 0.1460, -0.1460, 0.6919],[0,0,0,0],[9E9,9E9,9E9,9E9,9E9,9E9]], s_printSpeed, fine, tool0, \WObj:=ob_RRC_workplace;
        MoveL [[553.1, 611.9, 0.6],[0.6890, 0.1590, -0.1590, 0.6890],[0,0,0,0],[9E9,9E9,9E9,9E9,9E9,9E9]], s_printSpeed, fine, tool0, \WObj:=ob_RRC_workplace;
        MoveL [[546.9, 601.7, 0.5],[0.6838, 0.1801, -0.1801, 0.6838],[0,0,0,0],[9E9,9E9,9E9,9E9,9E9,9E9]], s_printSpeed, fine, tool0, \WObj:=ob_RRC_workplace;
        MoveL [[542.1, 590.7, 0.4],[0.6754, 0.2094, -0.2094, 0.6754],[0,0,0,0],[9E9,9E9,9E9,9E9,9E9,9E9]], s_printSpeed, fine, tool0, \WObj:=ob_RRC_workplace;
        MoveL [[537.4, 579.6, 0.3],[0.6620, 0.2484, -0.2484, 0.6620],[0,0,0,0],[9E9,9E9,9E9,9E9,9E9,9E9]], s_printSpeed, fine, tool0, \WObj:=ob_RRC_workplace;
        MoveL [[531.8, 569.0, 0.3],[-0.6412, -0.2981, -0.2981, 0.6412],[0,0,0,0],[9E9,9E9,9E9,9E9,9E9,9E9]], s_printSpeed, fine, tool0, \WObj:=ob_RRC_workplace;
        MoveL [[524.0, 559.9, 0.2],[-0.6127, -0.3529, -0.3529, 0.6127],[0,0,0,0],[9E9,9E9,9E9,9E9,9E9,9E9]], s_printSpeed, fine, tool0, \WObj:=ob_RRC_workplace;
        MoveL [[514.4, 552.7, 0.1],[-0.5808, -0.4033, -0.4033, 0.5808],[0,0,0,0],[9E9,9E9,9E9,9E9,9E9,9E9]], s_printSpeed, fine, tool0, \WObj:=ob_RRC_workplace;
        MoveL [[503.7, 547.3, 0.1],[-0.5500, -0.4445, -0.4445, 0.5500],[0,0,0,0],[9E9,9E9,9E9,9E9,9E9,9E9]], s_printSpeed, fine, tool0, \WObj:=ob_RRC_workplace;
        MoveL [[492.4, 543.1, 0.0],[-0.5229, -0.4760, -0.4760, 0.5229],[0,0,0,0],[9E9,9E9,9E9,9E9,9E9,9E9]], s_printSpeed, fine, tool0, \WObj:=ob_RRC_workplace;
        MoveL [[480.9, 539.9, 0.0],[-0.5000, -0.5000, -0.5000, 0.5000],[0,0,0,0],[9E9,9E9,9E9,9E9,9E9,9E9]], s_printSpeed, fine, tool0, \WObj:=ob_RRC_workplace;
    ! layer end
        MoveL [[783.6, 541.9, 0.0],[-0.5166, -0.4828, -0.4828, 0.5166],[0,0,0,0],[9E9,9E9,9E9,9E9,9E9,9E9]], s_printSpeed, fine, tool0, \WObj:=ob_RRC_workplace;
        MoveL [[772.2, 545.8, 0.1],[-0.5424, -0.4536, -0.4536, 0.5424],[0,0,0,0],[9E9,9E9,9E9,9E9,9E9,9E9]], s_printSpeed, fine, tool0, \WObj:=ob_RRC_workplace;
        MoveL [[761.3, 550.8, 0.2],[-0.5723, -0.4154, -0.4154, 0.5723],[0,0,0,0],[9E9,9E9,9E9,9E9,9E9,9E9]], s_printSpeed, fine, tool0, \WObj:=ob_RRC_workplace;
        MoveL [[751.3, 557.5, 0.3],[-0.6042, -0.3674, -0.3674, 0.6042],[0,0,0,0],[9E9,9E9,9E9,9E9,9E9,9E9]], s_printSpeed, fine, tool0, \WObj:=ob_RRC_workplace;
        MoveL [[743.1, 566.2, 0.5],[-0.6340, -0.3131, -0.3131, 0.6340],[0,0,0,0],[9E9,9E9,9E9,9E9,9E9,9E9]], s_printSpeed, fine, tool0, \WObj:=ob_RRC_workplace;
        MoveL [[737.1, 576.6, 0.6],[0.6570, 0.2615, -0.2615, 0.6570],[0,0,0,0],[9E9,9E9,9E9,9E9,9E9,9E9]], s_printSpeed, fine, tool0, \WObj:=ob_RRC_workplace;
        MoveL [[732.4, 587.6, 0.8],[0.6720, 0.2200, -0.2200, 0.6720],[0,0,0,0],[9E9,9E9,9E9,9E9,9E9,9E9]], s_printSpeed, fine, tool0, \WObj:=ob_RRC_workplace;
        MoveL [[727.8, 598.7, 1.0],[0.6815, 0.1887, -0.1887, 0.6815],[0,0,0,0],[9E9,9E9,9E9,9E9,9E9,9E9]], s_printSpeed, fine, tool0, \WObj:=ob_RRC_workplace;
        MoveL [[722.0, 609.2, 1.2],[0.6874, 0.1660, -0.1660, 0.6874],[0,0,0,0],[9E9,9E9,9E9,9E9,9E9,9E9]], s_printSpeed, fine, tool0, \WObj:=ob_RRC_workplace;
        MoveL [[713.3, 617.5, 1.4],[0.6907, 0.1514, -0.1514, 0.6907],[0,0,0,0],[9E9,9E9,9E9,9E9,9E9,9E9]], s_printSpeed, fine, tool0, \WObj:=ob_RRC_workplace;
        MoveL [[702.5, 622.7, 1.5],[0.6924, 0.1435, -0.1435, 0.6924],[0,0,0,0],[9E9,9E9,9E9,9E9,9E9,9E9]], s_printSpeed, fine, tool0, \WObj:=ob_RRC_workplace;
        MoveL [[691.2, 626.8, 1.5],[0.6935, 0.1378, -0.1378, 0.6935],[0,0,0,0],[9E9,9E9,9E9,9E9,9E9,9E9]], s_printSpeed, fine, tool0, \WObj:=ob_RRC_workplace;
        MoveL [[680.2, 631.6, 1.6],[0.6947, 0.1317, -0.1317, 0.6947],[0,0,0,0],[9E9,9E9,9E9,9E9,9E9,9E9]], s_printSpeed, fine, tool0, \WObj:=ob_RRC_workplace;
        MoveL [[670.5, 638.6, 1.7],[0.6962, 0.1237, -0.1237, 0.6962],[0,0,0,0],[9E9,9E9,9E9,9E9,9E9,9E9]], s_printSpeed, fine, tool0, \WObj:=ob_RRC_workplace;
        MoveL [[663.1, 648.1, 1.9],[0.6978, 0.1144, -0.1144, 0.6978],[0,0,0,0],[9E9,9E9,9E9,9E9,9E9,9E9]], s_printSpeed, fine, tool0, \WObj:=ob_RRC_workplace;
        MoveL [[657.7, 658.8, 2.1],[0.6992, 0.1055, -0.1055, 0.6992],[0,0,0,0],[9E9,9E9,9E9,9E9,9E9,9E9]], s_printSpeed, fine, tool0, \WObj:=ob_RRC_workplace;
        MoveL [[653.1, 669.9, 2.3],[0.7003, 0.0976, -0.0976, 0.7003],[0,0,0,0],[9E9,9E9,9E9,9E9,9E9,9E9]], s_printSpeed, fine, tool0, \WObj:=ob_RRC_workplace;
        MoveL [[648.6, 681.0, 2.5],[0.7012, 0.0909, -0.0909, 0.7012],[0,0,0,0],[9E9,9E9,9E9,9E9,9E9,9E9]], s_printSpeed, fine, tool0, \WObj:=ob_RRC_workplace;
        MoveL [[640.0, 689.3, 2.6],[0.7018, 0.0864, -0.0864, 0.7018],[0,0,0,0],[9E9,9E9,9E9,9E9,9E9,9E9]], s_printSpeed, fine, tool0, \WObj:=ob_RRC_workplace;
        MoveL [[632.0, 680.4, 2.5],[0.7012, 0.0912, -0.0912, 0.7012],[0,0,0,0],[9E9,9E9,9E9,9E9,9E9,9E9]], s_printSpeed, fine, tool0, \WObj:=ob_RRC_workplace;
        MoveL [[625.8, 670.1, 2.3],[0.7004, 0.0974, -0.0974, 0.7004],[0,0,0,0],[9E9,9E9,9E9,9E9,9E9,9E9]], s_printSpeed, fine, tool0, \WObj:=ob_RRC_workplace;
        MoveL [[619.6, 659.9, 2.1],[0.6993, 0.1046, -0.1046, 0.6993],[0,0,0,0],[9E9,9E9,9E9,9E9,9E9,9E9]], s_printSpeed, fine, tool0, \WObj:=ob_RRC_workplace;
        MoveL [[612.8, 650.0, 1.9],[0.6981, 0.1127, -0.1127, 0.6981],[0,0,0,0],[9E9,9E9,9E9,9E9,9E9,9E9]], s_printSpeed, fine, tool0, \WObj:=ob_RRC_workplace;
        MoveL [[604.9, 641.0, 1.8],[0.6966, 0.1213, -0.1213, 0.6966],[0,0,0,0],[9E9,9E9,9E9,9E9,9E9,9E9]], s_printSpeed, fine, tool0, \WObj:=ob_RRC_workplace;
        MoveL [[595.3, 633.8, 1.7],[0.6952, 0.1291, -0.1291, 0.6952],[0,0,0,0],[9E9,9E9,9E9,9E9,9E9,9E9]], s_printSpeed, fine, tool0, \WObj:=ob_RRC_workplace;
        MoveL [[584.4, 628.6, 1.6],[0.6940, 0.1355, -0.1355, 0.6940],[0,0,0,0],[9E9,9E9,9E9,9E9,9E9,9E9]], s_printSpeed, fine, tool0, \WObj:=ob_RRC_workplace;
        MoveL [[573.2, 624.3, 1.5],[0.6929, 0.1412, -0.1412, 0.6929],[0,0,0,0],[9E9,9E9,9E9,9E9,9E9,9E9]], s_printSpeed, fine, tool0, \WObj:=ob_RRC_workplace;
        MoveL [[562.3, 619.3, 1.4],[0.6913, 0.1485, -0.1485, 0.6913],[0,0,0,0],[9E9,9E9,9E9,9E9,9E9,9E9]], s_printSpeed, fine, tool0, \WObj:=ob_RRC_workplace;
        MoveL [[553.1, 611.6, 1.3],[0.6884, 0.1615, -0.1615, 0.6884],[0,0,0,0],[9E9,9E9,9E9,9E9,9E9,9E9]], s_printSpeed, fine, tool0, \WObj:=ob_RRC_workplace;
        MoveL [[546.9, 601.4, 1.1],[0.6832, 0.1824, -0.1824, 0.6832],[0,0,0,0],[9E9,9E9,9E9,9E9,9E9,9E9]], s_printSpeed, fine, tool0, \WObj:=ob_RRC_workplace;
        MoveL [[542.1, 590.4, 0.9],[0.6748, 0.2114, -0.2114, 0.6748],[0,0,0,0],[9E9,9E9,9E9,9E9,9E9,9E9]], s_printSpeed, fine, tool0, \WObj:=ob_RRC_workplace;
        MoveL [[537.4, 579.3, 0.7],[0.6614, 0.2501, -0.2501, 0.6614],[0,0,0,0],[9E9,9E9,9E9,9E9,9E9,9E9]], s_printSpeed, fine, tool0, \WObj:=ob_RRC_workplace;
        MoveL [[531.8, 568.7, 0.5],[-0.6407, -0.2993, -0.2993, 0.6407],[0,0,0,0],[9E9,9E9,9E9,9E9,9E9,9E9]], s_printSpeed, fine, tool0, \WObj:=ob_RRC_workplace;
        MoveL [[524.0, 559.6, 0.4],[-0.6123, -0.3536, -0.3536, 0.6123],[0,0,0,0],[9E9,9E9,9E9,9E9,9E9,9E9]], s_printSpeed, fine, tool0, \WObj:=ob_RRC_workplace;
        MoveL [[514.4, 552.4, 0.2],[-0.5806, -0.4037, -0.4037, 0.5806],[0,0,0,0],[9E9,9E9,9E9,9E9,9E9,9E9]], s_printSpeed, fine, tool0, \WObj:=ob_RRC_workplace;
        MoveL [[503.7, 547.0, 0.1],[-0.5499, -0.4446, -0.4446, 0.5499],[0,0,0,0],[9E9,9E9,9E9,9E9,9E9,9E9]], s_printSpeed, fine, tool0, \WObj:=ob_RRC_workplace;
        MoveL [[492.4, 542.8, 0.1],[-0.5229, -0.4760, -0.4760, 0.5229],[0,0,0,0],[9E9,9E9,9E9,9E9,9E9,9E9]], s_printSpeed, fine, tool0, \WObj:=ob_RRC_workplace;
        MoveL [[480.9, 539.6, 0.0],[0.5000, 0.5000, 0.5000, -0.5000],[0,0,0,0],[9E9,9E9,9E9,9E9,9E9,9E9]], s_printSpeed, fine, tool0, \WObj:=ob_RRC_workplace;
    ! layer end
        MoveL [[783.6, 541.6, 0.1],[-0.5166, -0.4828, -0.4828, 0.5166],[0,0,0,0],[9E9,9E9,9E9,9E9,9E9,9E9]], s_printSpeed, fine, tool0, \WObj:=ob_RRC_workplace;
        MoveL [[772.2, 545.5, 0.2],[-0.5424, -0.4537, -0.4537, 0.5424],[0,0,0,0],[9E9,9E9,9E9,9E9,9E9,9E9]], s_printSpeed, fine, tool0, \WObj:=ob_RRC_workplace;
        MoveL [[761.3, 550.5, 0.3],[-0.5721, -0.4156, -0.4156, 0.5721],[0,0,0,0],[9E9,9E9,9E9,9E9,9E9,9E9]], s_printSpeed, fine, tool0, \WObj:=ob_RRC_workplace;
        MoveL [[751.3, 557.2, 0.5],[-0.6038, -0.3680, -0.3680, 0.6038],[0,0,0,0],[9E9,9E9,9E9,9E9,9E9,9E9]], s_printSpeed, fine, tool0, \WObj:=ob_RRC_workplace;
        MoveL [[743.1, 565.9, 0.7],[-0.6335, -0.3142, -0.3142, 0.6335],[0,0,0,0],[9E9,9E9,9E9,9E9,9E9,9E9]], s_printSpeed, fine, tool0, \WObj:=ob_RRC_workplace;
        MoveL [[737.1, 576.3, 1.0],[0.6564, 0.2630, -0.2630, 0.6564],[0,0,0,0],[9E9,9E9,9E9,9E9,9E9,9E9]], s_printSpeed, fine, tool0, \WObj:=ob_RRC_workplace;
        MoveL [[732.4, 587.3, 1.3],[0.6714, 0.2219, -0.2219, 0.6714],[0,0,0,0],[9E9,9E9,9E9,9E9,9E9,9E9]], s_printSpeed, fine, tool0, \WObj:=ob_RRC_workplace;
        MoveL [[727.8, 598.4, 1.6],[0.6808, 0.1909, -0.1909, 0.6808],[0,0,0,0],[9E9,9E9,9E9,9E9,9E9,9E9]], s_printSpeed, fine, tool0, \WObj:=ob_RRC_workplace;
        MoveL [[722.0, 608.9, 1.8],[0.6868, 0.1684, -0.1684, 0.6868],[0,0,0,0],[9E9,9E9,9E9,9E9,9E9,9E9]], s_printSpeed, fine, tool0, \WObj:=ob_RRC_workplace;
        MoveL [[713.3, 617.2, 2.1],[0.6902, 0.1539, -0.1539, 0.6902],[0,0,0,0],[9E9,9E9,9E9,9E9,9E9,9E9]], s_printSpeed, fine, tool0, \WObj:=ob_RRC_workplace;
        MoveL [[702.5, 622.4, 2.2],[0.6919, 0.1461, -0.1461, 0.6919],[0,0,0,0],[9E9,9E9,9E9,9E9,9E9,9E9]], s_printSpeed, fine, tool0, \WObj:=ob_RRC_workplace;
        MoveL [[691.2, 626.5, 2.3],[0.6930, 0.1404, -0.1404, 0.6930],[0,0,0,0],[9E9,9E9,9E9,9E9,9E9,9E9]], s_printSpeed, fine, tool0, \WObj:=ob_RRC_workplace;
        MoveL [[680.2, 631.3, 2.4],[0.6942, 0.1344, -0.1344, 0.6942],[0,0,0,0],[9E9,9E9,9E9,9E9,9E9,9E9]], s_printSpeed, fine, tool0, \WObj:=ob_RRC_workplace;
        MoveL [[670.5, 638.3, 2.6],[0.6957, 0.1264, -0.1264, 0.6957],[0,0,0,0],[9E9,9E9,9E9,9E9,9E9,9E9]], s_printSpeed, fine, tool0, \WObj:=ob_RRC_workplace;
        MoveL [[663.1, 647.8, 2.9],[0.6973, 0.1172, -0.1172, 0.6973],[0,0,0,0],[9E9,9E9,9E9,9E9,9E9,9E9]], s_printSpeed, fine, tool0, \WObj:=ob_RRC_workplace;
        MoveL [[657.7, 658.4, 3.1],[0.6988, 0.1083, -0.1083, 0.6988],[0,0,0,0],[9E9,9E9,9E9,9E9,9E9,9E9]], s_printSpeed, fine, tool0, \WObj:=ob_RRC_workplace;
        MoveL [[653.1, 669.5, 3.4],[0.6999, 0.1005, -0.1005, 0.6999],[0,0,0,0],[9E9,9E9,9E9,9E9,9E9,9E9]], s_printSpeed, fine, tool0, \WObj:=ob_RRC_workplace;
        MoveL [[648.6, 680.7, 3.7],[0.7009, 0.0938, -0.0938, 0.7009],[0,0,0,0],[9E9,9E9,9E9,9E9,9E9,9E9]], s_printSpeed, fine, tool0, \WObj:=ob_RRC_workplace;
        MoveL [[640.0, 689.0, 3.9],[0.7014, 0.0893, -0.0893, 0.7014],[0,0,0,0],[9E9,9E9,9E9,9E9,9E9,9E9]], s_printSpeed, fine, tool0, \WObj:=ob_RRC_workplace;
        MoveL [[632.0, 680.1, 3.7],[0.7008, 0.0941, -0.0941, 0.7008],[0,0,0,0],[9E9,9E9,9E9,9E9,9E9,9E9]], s_printSpeed, fine, tool0, \WObj:=ob_RRC_workplace;
        MoveL [[625.8, 669.8, 3.4],[0.7000, 0.1003, -0.1003, 0.7000],[0,0,0,0],[9E9,9E9,9E9,9E9,9E9,9E9]], s_printSpeed, fine, tool0, \WObj:=ob_RRC_workplace;
        MoveL [[619.6, 659.5, 3.2],[0.6989, 0.1074, -0.1074, 0.6989],[0,0,0,0],[9E9,9E9,9E9,9E9,9E9,9E9]], s_printSpeed, fine, tool0, \WObj:=ob_RRC_workplace;
        MoveL [[612.8, 649.6, 2.9],[0.6976, 0.1155, -0.1155, 0.6976],[0,0,0,0],[9E9,9E9,9E9,9E9,9E9,9E9]], s_printSpeed, fine, tool0, \WObj:=ob_RRC_workplace;
        MoveL [[604.9, 640.6, 2.7],[0.6961, 0.1240, -0.1240, 0.6961],[0,0,0,0],[9E9,9E9,9E9,9E9,9E9,9E9]], s_printSpeed, fine, tool0, \WObj:=ob_RRC_workplace;
        MoveL [[595.3, 633.5, 2.5],[0.6947, 0.1318, -0.1318, 0.6947],[0,0,0,0],[9E9,9E9,9E9,9E9,9E9,9E9]], s_printSpeed, fine, tool0, \WObj:=ob_RRC_workplace;
        MoveL [[584.4, 628.3, 2.3],[0.6935, 0.1381, -0.1381, 0.6935],[0,0,0,0],[9E9,9E9,9E9,9E9,9E9,9E9]], s_printSpeed, fine, tool0, \WObj:=ob_RRC_workplace;
        MoveL [[573.2, 624.0, 2.2],[0.6923, 0.1438, -0.1438, 0.6923],[0,0,0,0],[9E9,9E9,9E9,9E9,9E9,9E9]], s_printSpeed, fine, tool0, \WObj:=ob_RRC_workplace;
        MoveL [[562.3, 619.0, 2.1],[0.6908, 0.1511, -0.1511, 0.6908],[0,0,0,0],[9E9,9E9,9E9,9E9,9E9,9E9]], s_printSpeed, fine, tool0, \WObj:=ob_RRC_workplace;
        MoveL [[553.1, 611.3, 1.9],[0.6878, 0.1639, -0.1639, 0.6878],[0,0,0,0],[9E9,9E9,9E9,9E9,9E9,9E9]], s_printSpeed, fine, tool0, \WObj:=ob_RRC_workplace;
        MoveL [[546.9, 601.1, 1.6],[0.6826, 0.1847, -0.1847, 0.6826],[0,0,0,0],[9E9,9E9,9E9,9E9,9E9,9E9]], s_printSpeed, fine, tool0, \WObj:=ob_RRC_workplace;
        MoveL [[542.1, 590.1, 1.3],[0.6741, 0.2135, -0.2135, 0.6741],[0,0,0,0],[9E9,9E9,9E9,9E9,9E9,9E9]], s_printSpeed, fine, tool0, \WObj:=ob_RRC_workplace;
        MoveL [[537.4, 579.0, 1.0],[0.6608, 0.2518, -0.2518, 0.6608],[0,0,0,0],[9E9,9E9,9E9,9E9,9E9,9E9]], s_printSpeed, fine, tool0, \WObj:=ob_RRC_workplace;
        MoveL [[531.8, 568.4, 0.8],[-0.6401, -0.3004, -0.3004, 0.6401],[0,0,0,0],[9E9,9E9,9E9,9E9,9E9,9E9]], s_printSpeed, fine, tool0, \WObj:=ob_RRC_workplace;
        MoveL [[524.0, 559.3, 0.5],[-0.6119, -0.3543, -0.3543, 0.6119],[0,0,0,0],[9E9,9E9,9E9,9E9,9E9,9E9]], s_printSpeed, fine, tool0, \WObj:=ob_RRC_workplace;
        MoveL [[514.4, 552.1, 0.3],[-0.5803, -0.4040, -0.4040, 0.5803],[0,0,0,0],[9E9,9E9,9E9,9E9,9E9,9E9]], s_printSpeed, fine, tool0, \WObj:=ob_RRC_workplace;
        MoveL [[503.7, 546.7, 0.2],[-0.5498, -0.4447, -0.4447, 0.5498],[0,0,0,0],[9E9,9E9,9E9,9E9,9E9,9E9]], s_printSpeed, fine, tool0, \WObj:=ob_RRC_workplace;
        MoveL [[492.4, 542.5, 0.1],[-0.5229, -0.4761, -0.4761, 0.5229],[0,0,0,0],[9E9,9E9,9E9,9E9,9E9,9E9]], s_printSpeed, fine, tool0, \WObj:=ob_RRC_workplace;
        MoveL [[480.9, 539.3, 0.0],[0.0000, -0.0000, 0.7071, -0.7071],[0,0,0,0],[9E9,9E9,9E9,9E9,9E9,9E9]], s_printSpeed, fine, tool0, \WObj:=ob_RRC_workplace;
    ! layer end
        MoveL [[783.6, 541.3, 0.1],[-0.5166, -0.4828, -0.4828, 0.5166],[0,0,0,0],[9E9,9E9,9E9,9E9,9E9,9E9]], s_printSpeed, fine, tool0, \WObj:=ob_RRC_workplace;
        MoveL [[772.2, 545.2, 0.2],[-0.5423, -0.4538, -0.4538, 0.5423],[0,0,0,0],[9E9,9E9,9E9,9E9,9E9,9E9]], s_printSpeed, fine, tool0, \WObj:=ob_RRC_workplace;
        MoveL [[761.3, 550.2, 0.4],[-0.5719, -0.4159, -0.4159, 0.5719],[0,0,0,0],[9E9,9E9,9E9,9E9,9E9,9E9]], s_printSpeed, fine, tool0, \WObj:=ob_RRC_workplace;
        MoveL [[751.3, 556.9, 0.6],[-0.6035, -0.3686, -0.3686, 0.6035],[0,0,0,0],[9E9,9E9,9E9,9E9,9E9,9E9]], s_printSpeed, fine, tool0, \WObj:=ob_RRC_workplace;
        MoveL [[743.1, 565.6, 0.9],[-0.6330, -0.3152, -0.3152, 0.6330],[0,0,0,0],[9E9,9E9,9E9,9E9,9E9,9E9]], s_printSpeed, fine, tool0, \WObj:=ob_RRC_workplace;
        MoveL [[737.1, 576.0, 1.3],[0.6557, 0.2646, -0.2646, 0.6557],[0,0,0,0],[9E9,9E9,9E9,9E9,9E9,9E9]], s_printSpeed, fine, tool0, \WObj:=ob_RRC_workplace;
        MoveL [[732.4, 587.0, 1.7],[0.6707, 0.2239, -0.2239, 0.6707],[0,0,0,0],[9E9,9E9,9E9,9E9,9E9,9E9]], s_printSpeed, fine, tool0, \WObj:=ob_RRC_workplace;
        MoveL [[727.8, 598.1, 2.1],[0.6802, 0.1932, -0.1932, 0.6802],[0,0,0,0],[9E9,9E9,9E9,9E9,9E9,9E9]], s_printSpeed, fine, tool0, \WObj:=ob_RRC_workplace;
        MoveL [[722.0, 608.6, 2.4],[0.6862, 0.1708, -0.1708, 0.6862],[0,0,0,0],[9E9,9E9,9E9,9E9,9E9,9E9]], s_printSpeed, fine, tool0, \WObj:=ob_RRC_workplace;
        MoveL [[713.3, 616.9, 2.7],[0.6896, 0.1564, -0.1564, 0.6896],[0,0,0,0],[9E9,9E9,9E9,9E9,9E9,9E9]], s_printSpeed, fine, tool0, \WObj:=ob_RRC_workplace;
        MoveL [[702.5, 622.1, 2.9],[0.6913, 0.1486, -0.1486, 0.6913],[0,0,0,0],[9E9,9E9,9E9,9E9,9E9,9E9]], s_printSpeed, fine, tool0, \WObj:=ob_RRC_workplace;
        MoveL [[691.2, 626.2, 3.1],[0.6925, 0.1430, -0.1430, 0.6925],[0,0,0,0],[9E9,9E9,9E9,9E9,9E9,9E9]], s_printSpeed, fine, tool0, \WObj:=ob_RRC_workplace;
        MoveL [[680.2, 631.0, 3.2],[0.6937, 0.1370, -0.1370, 0.6937],[0,0,0,0],[9E9,9E9,9E9,9E9,9E9,9E9]], s_printSpeed, fine, tool0, \WObj:=ob_RRC_workplace;
        MoveL [[670.5, 638.0, 3.5],[0.6952, 0.1291, -0.1291, 0.6952],[0,0,0,0],[9E9,9E9,9E9,9E9,9E9,9E9]], s_printSpeed, fine, tool0, \WObj:=ob_RRC_workplace;
        MoveL [[663.1, 647.4, 3.8],[0.6969, 0.1199, -0.1199, 0.6969],[0,0,0,0],[9E9,9E9,9E9,9E9,9E9,9E9]], s_printSpeed, fine, tool0, \WObj:=ob_RRC_workplace;
        MoveL [[657.7, 658.1, 4.2],[0.6983, 0.1111, -0.1111, 0.6983],[0,0,0,0],[9E9,9E9,9E9,9E9,9E9,9E9]], s_printSpeed, fine, tool0, \WObj:=ob_RRC_workplace;
        MoveL [[653.1, 669.2, 4.6],[0.6995, 0.1033, -0.1033, 0.6995],[0,0,0,0],[9E9,9E9,9E9,9E9,9E9,9E9]], s_printSpeed, fine, tool0, \WObj:=ob_RRC_workplace;
        MoveL [[648.6, 680.3, 5.0],[0.7005, 0.0966, -0.0966, 0.7005],[0,0,0,0],[9E9,9E9,9E9,9E9,9E9,9E9]], s_printSpeed, fine, tool0, \WObj:=ob_RRC_workplace;
        MoveL [[640.0, 688.7, 5.3],[0.7011, 0.0923, -0.0923, 0.7011],[0,0,0,0],[9E9,9E9,9E9,9E9,9E9,9E9]], s_printSpeed, fine, tool0, \WObj:=ob_RRC_workplace;
        MoveL [[632.0, 679.7, 4.9],[0.7004, 0.0970, -0.0970, 0.7004],[0,0,0,0],[9E9,9E9,9E9,9E9,9E9,9E9]], s_printSpeed, fine, tool0, \WObj:=ob_RRC_workplace;
        MoveL [[625.8, 669.5, 4.6],[0.6995, 0.1031, -0.1031, 0.6995],[0,0,0,0],[9E9,9E9,9E9,9E9,9E9,9E9]], s_printSpeed, fine, tool0, \WObj:=ob_RRC_workplace;
        MoveL [[619.6, 659.2, 4.2],[0.6985, 0.1103, -0.1103, 0.6985],[0,0,0,0],[9E9,9E9,9E9,9E9,9E9,9E9]], s_printSpeed, fine, tool0, \WObj:=ob_RRC_workplace;
        MoveL [[612.8, 649.3, 3.9],[0.6971, 0.1183, -0.1183, 0.6971],[0,0,0,0],[9E9,9E9,9E9,9E9,9E9,9E9]], s_printSpeed, fine, tool0, \WObj:=ob_RRC_workplace;
        MoveL [[604.9, 640.3, 3.6],[0.6957, 0.1267, -0.1267, 0.6957],[0,0,0,0],[9E9,9E9,9E9,9E9,9E9,9E9]], s_printSpeed, fine, tool0, \WObj:=ob_RRC_workplace;
        MoveL [[595.3, 633.2, 3.3],[0.6942, 0.1344, -0.1344, 0.6942],[0,0,0,0],[9E9,9E9,9E9,9E9,9E9,9E9]], s_printSpeed, fine, tool0, \WObj:=ob_RRC_workplace;
        MoveL [[584.4, 628.0, 3.1],[0.6930, 0.1407, -0.1407, 0.6930],[0,0,0,0],[9E9,9E9,9E9,9E9,9E9,9E9]], s_printSpeed, fine, tool0, \WObj:=ob_RRC_workplace;
        MoveL [[573.2, 623.7, 3.0],[0.6918, 0.1464, -0.1464, 0.6918],[0,0,0,0],[9E9,9E9,9E9,9E9,9E9,9E9]], s_printSpeed, fine, tool0, \WObj:=ob_RRC_workplace;
        MoveL [[562.3, 618.7, 2.8],[0.6902, 0.1536, -0.1536, 0.6902],[0,0,0,0],[9E9,9E9,9E9,9E9,9E9,9E9]], s_printSpeed, fine, tool0, \WObj:=ob_RRC_workplace;
        MoveL [[553.1, 611.0, 2.5],[0.6873, 0.1664, -0.1664, 0.6873],[0,0,0,0],[9E9,9E9,9E9,9E9,9E9,9E9]], s_printSpeed, fine, tool0, \WObj:=ob_RRC_workplace;
        MoveL [[546.9, 600.7, 2.2],[0.6819, 0.1870, -0.1870, 0.6819],[0,0,0,0],[9E9,9E9,9E9,9E9,9E9,9E9]], s_printSpeed, fine, tool0, \WObj:=ob_RRC_workplace;
        MoveL [[542.1, 589.7, 1.8],[0.6735, 0.2155, -0.2155, 0.6735],[0,0,0,0],[9E9,9E9,9E9,9E9,9E9,9E9]], s_printSpeed, fine, tool0, \WObj:=ob_RRC_workplace;
        MoveL [[537.4, 578.7, 1.4],[0.6601, 0.2534, -0.2534, 0.6601],[0,0,0,0],[9E9,9E9,9E9,9E9,9E9,9E9]], s_printSpeed, fine, tool0, \WObj:=ob_RRC_workplace;
        MoveL [[531.8, 568.1, 1.0],[-0.6395, -0.3016, -0.3016, 0.6395],[0,0,0,0],[9E9,9E9,9E9,9E9,9E9,9E9]], s_printSpeed, fine, tool0, \WObj:=ob_RRC_workplace;
        MoveL [[524.0, 559.0, 0.7],[-0.6115, -0.3550, -0.3550, 0.6115],[0,0,0,0],[9E9,9E9,9E9,9E9,9E9,9E9]], s_printSpeed, fine, tool0, \WObj:=ob_RRC_workplace;
        MoveL [[514.4, 551.8, 0.4],[-0.5801, -0.4043, -0.4043, 0.5801],[0,0,0,0],[9E9,9E9,9E9,9E9,9E9,9E9]], s_printSpeed, fine, tool0, \WObj:=ob_RRC_workplace;
        MoveL [[503.7, 546.3, 0.3],[-0.5497, -0.4448, -0.4448, 0.5497],[0,0,0,0],[9E9,9E9,9E9,9E9,9E9,9E9]], s_printSpeed, fine, tool0, \WObj:=ob_RRC_workplace;
        MoveL [[492.4, 542.2, 0.1],[-0.5228, -0.4761, -0.4761, 0.5228],[0,0,0,0],[9E9,9E9,9E9,9E9,9E9,9E9]], s_printSpeed, fine, tool0, \WObj:=ob_RRC_workplace;
        MoveL [[480.9, 539.0, 0.0],[0.5000, 0.5000, 0.5000, -0.5000],[0,0,0,0],[9E9,9E9,9E9,9E9,9E9,9E9]], s_printSpeed, fine, tool0, \WObj:=ob_RRC_workplace;
    ! layer end
        MoveL [[783.6, 541.0, 0.1],[-0.5166, -0.4828, -0.4828, 0.5166],[0,0,0,0],[9E9,9E9,9E9,9E9,9E9,9E9]], s_printSpeed, fine, tool0, \WObj:=ob_RRC_workplace;
        MoveL [[772.2, 544.9, 0.3],[-0.5422, -0.4539, -0.4539, 0.5422],[0,0,0,0],[9E9,9E9,9E9,9E9,9E9,9E9]], s_printSpeed, fine, tool0, \WObj:=ob_RRC_workplace;
        MoveL [[761.3, 549.9, 0.5],[-0.5717, -0.4162, -0.4162, 0.5717],[0,0,0,0],[9E9,9E9,9E9,9E9,9E9,9E9]], s_printSpeed, fine, tool0, \WObj:=ob_RRC_workplace;
        MoveL [[751.3, 556.6, 0.8],[-0.6031, -0.3692, -0.3692, 0.6031],[0,0,0,0],[9E9,9E9,9E9,9E9,9E9,9E9]], s_printSpeed, fine, tool0, \WObj:=ob_RRC_workplace;
        MoveL [[743.1, 565.3, 1.2],[-0.6324, -0.3163, -0.3163, 0.6324],[0,0,0,0],[9E9,9E9,9E9,9E9,9E9,9E9]], s_printSpeed, fine, tool0, \WObj:=ob_RRC_workplace;
        MoveL [[737.1, 575.7, 1.6],[0.6551, 0.2661, -0.2661, 0.6551],[0,0,0,0],[9E9,9E9,9E9,9E9,9E9,9E9]], s_printSpeed, fine, tool0, \WObj:=ob_RRC_workplace;
        MoveL [[732.4, 586.7, 2.1],[0.6701, 0.2258, -0.2258, 0.6701],[0,0,0,0],[9E9,9E9,9E9,9E9,9E9,9E9]], s_printSpeed, fine, tool0, \WObj:=ob_RRC_workplace;
        MoveL [[727.8, 597.8, 2.6],[0.6796, 0.1954, -0.1954, 0.6796],[0,0,0,0],[9E9,9E9,9E9,9E9,9E9,9E9]], s_printSpeed, fine, tool0, \WObj:=ob_RRC_workplace;
        MoveL [[722.0, 608.3, 3.1],[0.6856, 0.1732, -0.1732, 0.6856],[0,0,0,0],[9E9,9E9,9E9,9E9,9E9,9E9]], s_printSpeed, fine, tool0, \WObj:=ob_RRC_workplace;
        MoveL [[713.3, 616.6, 3.4],[0.6890, 0.1589, -0.1589, 0.6890],[0,0,0,0],[9E9,9E9,9E9,9E9,9E9,9E9]], s_printSpeed, fine, tool0, \WObj:=ob_RRC_workplace;
        MoveL [[702.5, 621.7, 3.6],[0.6908, 0.1512, -0.1512, 0.6908],[0,0,0,0],[9E9,9E9,9E9,9E9,9E9,9E9]], s_printSpeed, fine, tool0, \WObj:=ob_RRC_workplace;
        MoveL [[691.2, 625.8, 3.8],[0.6919, 0.1457, -0.1457, 0.6919],[0,0,0,0],[9E9,9E9,9E9,9E9,9E9,9E9]], s_printSpeed, fine, tool0, \WObj:=ob_RRC_workplace;
        MoveL [[680.2, 630.6, 4.0],[0.6932, 0.1397, -0.1397, 0.6932],[0,0,0,0],[9E9,9E9,9E9,9E9,9E9,9E9]], s_printSpeed, fine, tool0, \WObj:=ob_RRC_workplace;
        MoveL [[670.5, 637.6, 4.3],[0.6947, 0.1318, -0.1318, 0.6947],[0,0,0,0],[9E9,9E9,9E9,9E9,9E9,9E9]], s_printSpeed, fine, tool0, \WObj:=ob_RRC_workplace;
        MoveL [[663.1, 647.1, 4.8],[0.6964, 0.1227, -0.1227, 0.6964],[0,0,0,0],[9E9,9E9,9E9,9E9,9E9,9E9]], s_printSpeed, fine, tool0, \WObj:=ob_RRC_workplace;
        MoveL [[657.7, 657.8, 5.2],[0.6979, 0.1139, -0.1139, 0.6979],[0,0,0,0],[9E9,9E9,9E9,9E9,9E9,9E9]], s_printSpeed, fine, tool0, \WObj:=ob_RRC_workplace;
        MoveL [[653.1, 668.9, 5.7],[0.6991, 0.1061, -0.1061, 0.6991],[0,0,0,0],[9E9,9E9,9E9,9E9,9E9,9E9]], s_printSpeed, fine, tool0, \WObj:=ob_RRC_workplace;
        MoveL [[648.6, 680.0, 6.2],[0.7001, 0.0995, -0.0995, 0.7001],[0,0,0,0],[9E9,9E9,9E9,9E9,9E9,9E9]], s_printSpeed, fine, tool0, \WObj:=ob_RRC_workplace;
        MoveL [[640.0, 688.3, 6.6],[0.7007, 0.0952, -0.0952, 0.7007],[0,0,0,0],[9E9,9E9,9E9,9E9,9E9,9E9]], s_printSpeed, fine, tool0, \WObj:=ob_RRC_workplace;
        MoveL [[632.0, 679.4, 6.2],[0.7000, 0.0999, -0.0999, 0.7000],[0,0,0,0],[9E9,9E9,9E9,9E9,9E9,9E9]], s_printSpeed, fine, tool0, \WObj:=ob_RRC_workplace;
        MoveL [[625.8, 669.1, 5.7],[0.6991, 0.1060, -0.1060, 0.6991],[0,0,0,0],[9E9,9E9,9E9,9E9,9E9,9E9]], s_printSpeed, fine, tool0, \WObj:=ob_RRC_workplace;
        MoveL [[619.6, 658.9, 5.3],[0.6980, 0.1131, -0.1131, 0.6980],[0,0,0,0],[9E9,9E9,9E9,9E9,9E9,9E9]], s_printSpeed, fine, tool0, \WObj:=ob_RRC_workplace;
        MoveL [[612.8, 649.0, 4.8],[0.6967, 0.1210, -0.1210, 0.6967],[0,0,0,0],[9E9,9E9,9E9,9E9,9E9,9E9]], s_printSpeed, fine, tool0, \WObj:=ob_RRC_workplace;
        MoveL [[604.9, 640.0, 4.4],[0.6952, 0.1294, -0.1294, 0.6952],[0,0,0,0],[9E9,9E9,9E9,9E9,9E9,9E9]], s_printSpeed, fine, tool0, \WObj:=ob_RRC_workplace;
        MoveL [[595.3, 632.8, 4.1],[0.6937, 0.1371, -0.1371, 0.6937],[0,0,0,0],[9E9,9E9,9E9,9E9,9E9,9E9]], s_printSpeed, fine, tool0, \WObj:=ob_RRC_workplace;
        MoveL [[584.4, 627.6, 3.9],[0.6924, 0.1433, -0.1433, 0.6924],[0,0,0,0],[9E9,9E9,9E9,9E9,9E9,9E9]], s_printSpeed, fine, tool0, \WObj:=ob_RRC_workplace;
        MoveL [[573.2, 623.3, 3.7],[0.6912, 0.1490, -0.1490, 0.6912],[0,0,0,0],[9E9,9E9,9E9,9E9,9E9,9E9]], s_printSpeed, fine, tool0, \WObj:=ob_RRC_workplace;
        MoveL [[562.3, 618.4, 3.5],[0.6897, 0.1561, -0.1561, 0.6897],[0,0,0,0],[9E9,9E9,9E9,9E9,9E9,9E9]], s_printSpeed, fine, tool0, \WObj:=ob_RRC_workplace;
        MoveL [[553.1, 610.6, 3.2],[0.6867, 0.1688, -0.1688, 0.6867],[0,0,0,0],[9E9,9E9,9E9,9E9,9E9,9E9]], s_printSpeed, fine, tool0, \WObj:=ob_RRC_workplace;
        MoveL [[546.9, 600.4, 2.7],[0.6813, 0.1892, -0.1892, 0.6813],[0,0,0,0],[9E9,9E9,9E9,9E9,9E9,9E9]], s_printSpeed, fine, tool0, \WObj:=ob_RRC_workplace;
        MoveL [[542.1, 589.4, 2.2],[0.6728, 0.2175, -0.2175, 0.6728],[0,0,0,0],[9E9,9E9,9E9,9E9,9E9,9E9]], s_printSpeed, fine, tool0, \WObj:=ob_RRC_workplace;
        MoveL [[537.4, 578.4, 1.7],[0.6595, 0.2551, -0.2551, 0.6595],[0,0,0,0],[9E9,9E9,9E9,9E9,9E9,9E9]], s_printSpeed, fine, tool0, \WObj:=ob_RRC_workplace;
        MoveL [[531.8, 567.8, 1.3],[-0.6390, -0.3028, -0.3028, 0.6390],[0,0,0,0],[9E9,9E9,9E9,9E9,9E9,9E9]], s_printSpeed, fine, tool0, \WObj:=ob_RRC_workplace;
        MoveL [[524.0, 558.7, 0.9],[-0.6111, -0.3557, -0.3557, 0.6111],[0,0,0,0],[9E9,9E9,9E9,9E9,9E9,9E9]], s_printSpeed, fine, tool0, \WObj:=ob_RRC_workplace;
        MoveL [[514.4, 551.5, 0.6],[-0.5799, -0.4047, -0.4047, 0.5799],[0,0,0,0],[9E9,9E9,9E9,9E9,9E9,9E9]], s_printSpeed, fine, tool0, \WObj:=ob_RRC_workplace;
        MoveL [[503.7, 546.0, 0.3],[-0.5496, -0.4449, -0.4449, 0.5496],[0,0,0,0],[9E9,9E9,9E9,9E9,9E9,9E9]], s_printSpeed, fine, tool0, \WObj:=ob_RRC_workplace;
        MoveL [[492.4, 541.9, 0.1],[-0.5228, -0.4761, -0.4761, 0.5228],[0,0,0,0],[9E9,9E9,9E9,9E9,9E9,9E9]], s_printSpeed, fine, tool0, \WObj:=ob_RRC_workplace;
        MoveL [[480.9, 538.7, -0.0],[-0.5000, -0.5000, -0.5000, 0.5000],[0,0,0,0],[9E9,9E9,9E9,9E9,9E9,9E9]], s_printSpeed, fine, tool0, \WObj:=ob_RRC_workplace;
    ! layer end
        MoveL [[783.6, 540.7, 0.1],[-0.5166, -0.4828, -0.4828, 0.5166],[0,0,0,0],[9E9,9E9,9E9,9E9,9E9,9E9]], s_printSpeed, fine, tool0, \WObj:=ob_RRC_workplace;
        MoveL [[772.2, 544.6, 0.3],[-0.5421, -0.4540, -0.4540, 0.5421],[0,0,0,0],[9E9,9E9,9E9,9E9,9E9,9E9]], s_printSpeed, fine, tool0, \WObj:=ob_RRC_workplace;
        MoveL [[761.3, 549.6, 0.6],[-0.5715, -0.4164, -0.4164, 0.5715],[0,0,0,0],[9E9,9E9,9E9,9E9,9E9,9E9]], s_printSpeed, fine, tool0, \WObj:=ob_RRC_workplace;
        MoveL [[751.3, 556.3, 0.9],[-0.6027, -0.3698, -0.3698, 0.6027],[0,0,0,0],[9E9,9E9,9E9,9E9,9E9,9E9]], s_printSpeed, fine, tool0, \WObj:=ob_RRC_workplace;
        MoveL [[743.1, 565.0, 1.4],[-0.6319, -0.3174, -0.3174, 0.6319],[0,0,0,0],[9E9,9E9,9E9,9E9,9E9,9E9]], s_printSpeed, fine, tool0, \WObj:=ob_RRC_workplace;
        MoveL [[737.1, 575.3, 1.9],[0.6545, 0.2677, -0.2677, 0.6545],[0,0,0,0],[9E9,9E9,9E9,9E9,9E9,9E9]], s_printSpeed, fine, tool0, \WObj:=ob_RRC_workplace;
        MoveL [[732.4, 586.4, 2.5],[0.6694, 0.2277, -0.2277, 0.6694],[0,0,0,0],[9E9,9E9,9E9,9E9,9E9,9E9]], s_printSpeed, fine, tool0, \WObj:=ob_RRC_workplace;
        MoveL [[727.8, 597.4, 3.1],[0.6789, 0.1976, -0.1976, 0.6789],[0,0,0,0],[9E9,9E9,9E9,9E9,9E9,9E9]], s_printSpeed, fine, tool0, \WObj:=ob_RRC_workplace;
        MoveL [[722.0, 607.9, 3.7],[0.6850, 0.1756, -0.1756, 0.6850],[0,0,0,0],[9E9,9E9,9E9,9E9,9E9,9E9]], s_printSpeed, fine, tool0, \WObj:=ob_RRC_workplace;
        MoveL [[713.3, 616.2, 4.1],[0.6884, 0.1614, -0.1614, 0.6884],[0,0,0,0],[9E9,9E9,9E9,9E9,9E9,9E9]], s_printSpeed, fine, tool0, \WObj:=ob_RRC_workplace;
        MoveL [[702.5, 621.4, 4.4],[0.6902, 0.1537, -0.1537, 0.6902],[0,0,0,0],[9E9,9E9,9E9,9E9,9E9,9E9]], s_printSpeed, fine, tool0, \WObj:=ob_RRC_workplace;
        MoveL [[691.2, 625.5, 4.6],[0.6914, 0.1482, -0.1482, 0.6914],[0,0,0,0],[9E9,9E9,9E9,9E9,9E9,9E9]], s_printSpeed, fine, tool0, \WObj:=ob_RRC_workplace;
        MoveL [[680.2, 630.3, 4.8],[0.6926, 0.1423, -0.1423, 0.6926],[0,0,0,0],[9E9,9E9,9E9,9E9,9E9,9E9]], s_printSpeed, fine, tool0, \WObj:=ob_RRC_workplace;
        MoveL [[670.5, 637.3, 5.2],[0.6942, 0.1345, -0.1345, 0.6942],[0,0,0,0],[9E9,9E9,9E9,9E9,9E9,9E9]], s_printSpeed, fine, tool0, \WObj:=ob_RRC_workplace;
        MoveL [[663.1, 646.7, 5.7],[0.6959, 0.1254, -0.1254, 0.6959],[0,0,0,0],[9E9,9E9,9E9,9E9,9E9,9E9]], s_printSpeed, fine, tool0, \WObj:=ob_RRC_workplace;
        MoveL [[657.7, 657.4, 6.3],[0.6974, 0.1167, -0.1167, 0.6974],[0,0,0,0],[9E9,9E9,9E9,9E9,9E9,9E9]], s_printSpeed, fine, tool0, \WObj:=ob_RRC_workplace;
        MoveL [[653.1, 668.5, 6.9],[0.6987, 0.1090, -0.1090, 0.6987],[0,0,0,0],[9E9,9E9,9E9,9E9,9E9,9E9]], s_printSpeed, fine, tool0, \WObj:=ob_RRC_workplace;
        MoveL [[648.6, 679.6, 7.4],[0.6997, 0.1024, -0.1024, 0.6997],[0,0,0,0],[9E9,9E9,9E9,9E9,9E9,9E9]], s_printSpeed, fine, tool0, \WObj:=ob_RRC_workplace;
        MoveL [[640.0, 688.0, 7.9],[0.7003, 0.0980, -0.0980, 0.7003],[0,0,0,0],[9E9,9E9,9E9,9E9,9E9,9E9]], s_printSpeed, fine, tool0, \WObj:=ob_RRC_workplace;
        MoveL [[632.0, 679.0, 7.4],[0.6996, 0.1027, -0.1027, 0.6996],[0,0,0,0],[9E9,9E9,9E9,9E9,9E9,9E9]], s_printSpeed, fine, tool0, \WObj:=ob_RRC_workplace;
        MoveL [[625.8, 668.8, 6.9],[0.6987, 0.1088, -0.1088, 0.6987],[0,0,0,0],[9E9,9E9,9E9,9E9,9E9,9E9]], s_printSpeed, fine, tool0, \WObj:=ob_RRC_workplace;
        MoveL [[619.6, 658.5, 6.3],[0.6975, 0.1159, -0.1159, 0.6975],[0,0,0,0],[9E9,9E9,9E9,9E9,9E9,9E9]], s_printSpeed, fine, tool0, \WObj:=ob_RRC_workplace;
        MoveL [[612.8, 648.6, 5.8],[0.6962, 0.1238, -0.1238, 0.6962],[0,0,0,0],[9E9,9E9,9E9,9E9,9E9,9E9]], s_printSpeed, fine, tool0, \WObj:=ob_RRC_workplace;
        MoveL [[604.9, 639.6, 5.3],[0.6947, 0.1321, -0.1321, 0.6947],[0,0,0,0],[9E9,9E9,9E9,9E9,9E9,9E9]], s_printSpeed, fine, tool0, \WObj:=ob_RRC_workplace;
        MoveL [[595.3, 632.5, 5.0],[0.6932, 0.1397, -0.1397, 0.6932],[0,0,0,0],[9E9,9E9,9E9,9E9,9E9,9E9]], s_printSpeed, fine, tool0, \WObj:=ob_RRC_workplace;
        MoveL [[584.4, 627.3, 4.7],[0.6919, 0.1459, -0.1459, 0.6919],[0,0,0,0],[9E9,9E9,9E9,9E9,9E9,9E9]], s_printSpeed, fine, tool0, \WObj:=ob_RRC_workplace;
        MoveL [[573.2, 623.0, 4.5],[0.6907, 0.1515, -0.1515, 0.6907],[0,0,0,0],[9E9,9E9,9E9,9E9,9E9,9E9]], s_printSpeed, fine, tool0, \WObj:=ob_RRC_workplace;
        MoveL [[562.3, 618.0, 4.2],[0.6891, 0.1587, -0.1587, 0.6891],[0,0,0,0],[9E9,9E9,9E9,9E9,9E9,9E9]], s_printSpeed, fine, tool0, \WObj:=ob_RRC_workplace;
        MoveL [[553.1, 610.3, 3.8],[0.6861, 0.1712, -0.1712, 0.6861],[0,0,0,0],[9E9,9E9,9E9,9E9,9E9,9E9]], s_printSpeed, fine, tool0, \WObj:=ob_RRC_workplace;
        MoveL [[546.9, 600.1, 3.3],[0.6807, 0.1915, -0.1915, 0.6807],[0,0,0,0],[9E9,9E9,9E9,9E9,9E9,9E9]], s_printSpeed, fine, tool0, \WObj:=ob_RRC_workplace;
        MoveL [[542.1, 589.1, 2.7],[0.6722, 0.2195, -0.2195, 0.6722],[0,0,0,0],[9E9,9E9,9E9,9E9,9E9,9E9]], s_printSpeed, fine, tool0, \WObj:=ob_RRC_workplace;
        MoveL [[537.4, 578.1, 2.1],[0.6589, 0.2567, -0.2567, 0.6589],[0,0,0,0],[9E9,9E9,9E9,9E9,9E9,9E9]], s_printSpeed, fine, tool0, \WObj:=ob_RRC_workplace;
        MoveL [[531.8, 567.5, 1.5],[-0.6384, -0.3040, -0.3040, 0.6384],[0,0,0,0],[9E9,9E9,9E9,9E9,9E9,9E9]], s_printSpeed, fine, tool0, \WObj:=ob_RRC_workplace;
        MoveL [[524.0, 558.3, 1.1],[-0.6107, -0.3564, -0.3564, 0.6107],[0,0,0,0],[9E9,9E9,9E9,9E9,9E9,9E9]], s_printSpeed, fine, tool0, \WObj:=ob_RRC_workplace;
        MoveL [[514.4, 551.2, 0.7],[-0.5796, -0.4050, -0.4050, 0.5796],[0,0,0,0],[9E9,9E9,9E9,9E9,9E9,9E9]], s_printSpeed, fine, tool0, \WObj:=ob_RRC_workplace;
        MoveL [[503.7, 545.7, 0.4],[-0.5495, -0.4451, -0.4451, 0.5495],[0,0,0,0],[9E9,9E9,9E9,9E9,9E9,9E9]], s_printSpeed, fine, tool0, \WObj:=ob_RRC_workplace;
        MoveL [[492.4, 541.6, 0.2],[-0.5228, -0.4761, -0.4761, 0.5228],[0,0,0,0],[9E9,9E9,9E9,9E9,9E9,9E9]], s_printSpeed, fine, tool0, \WObj:=ob_RRC_workplace;
        MoveL [[480.9, 538.4, 0.0],[0.5000, 0.5000, 0.5000, -0.5000],[0,0,0,0],[9E9,9E9,9E9,9E9,9E9,9E9]], s_printSpeed, fine, tool0, \WObj:=ob_RRC_workplace;
    ! layer end
        MoveL [[783.6, 540.4, 0.1],[-0.5166, -0.4829, -0.4829, 0.5166],[0,0,0,0],[9E9,9E9,9E9,9E9,9E9,9E9]], s_printSpeed, fine, tool0, \WObj:=ob_RRC_workplace;
        MoveL [[772.2, 544.3, 0.4],[-0.5421, -0.4541, -0.4541, 0.5421],[0,0,0,0],[9E9,9E9,9E9,9E9,9E9,9E9]], s_printSpeed, fine, tool0, \WObj:=ob_RRC_workplace;
        MoveL [[761.3, 549.3, 0.7],[-0.5713, -0.4167, -0.4167, 0.5713],[0,0,0,0],[9E9,9E9,9E9,9E9,9E9,9E9]], s_printSpeed, fine, tool0, \WObj:=ob_RRC_workplace;
        MoveL [[751.3, 556.0, 1.1],[-0.6023, -0.3704, -0.3704, 0.6023],[0,0,0,0],[9E9,9E9,9E9,9E9,9E9,9E9]], s_printSpeed, fine, tool0, \WObj:=ob_RRC_workplace;
        MoveL [[743.1, 564.7, 1.6],[-0.6314, -0.3184, -0.3184, 0.6314],[0,0,0,0],[9E9,9E9,9E9,9E9,9E9,9E9]], s_printSpeed, fine, tool0, \WObj:=ob_RRC_workplace;
        MoveL [[737.1, 575.0, 2.3],[0.6539, 0.2692, -0.2692, 0.6539],[0,0,0,0],[9E9,9E9,9E9,9E9,9E9,9E9]], s_printSpeed, fine, tool0, \WObj:=ob_RRC_workplace;
        MoveL [[732.4, 586.0, 3.0],[0.6688, 0.2297, -0.2297, 0.6688],[0,0,0,0],[9E9,9E9,9E9,9E9,9E9,9E9]], s_printSpeed, fine, tool0, \WObj:=ob_RRC_workplace;
        MoveL [[727.8, 597.1, 3.6],[0.6783, 0.1998, -0.1998, 0.6783],[0,0,0,0],[9E9,9E9,9E9,9E9,9E9,9E9]], s_printSpeed, fine, tool0, \WObj:=ob_RRC_workplace;
        MoveL [[722.0, 607.6, 4.3],[0.6844, 0.1779, -0.1779, 0.6844],[0,0,0,0],[9E9,9E9,9E9,9E9,9E9,9E9]], s_printSpeed, fine, tool0, \WObj:=ob_RRC_workplace;
        MoveL [[713.3, 615.9, 4.8],[0.6878, 0.1639, -0.1639, 0.6878],[0,0,0,0],[9E9,9E9,9E9,9E9,9E9,9E9]], s_printSpeed, fine, tool0, \WObj:=ob_RRC_workplace;
        MoveL [[702.5, 621.1, 5.1],[0.6896, 0.1563, -0.1563, 0.6896],[0,0,0,0],[9E9,9E9,9E9,9E9,9E9,9E9]], s_printSpeed, fine, tool0, \WObj:=ob_RRC_workplace;
        MoveL [[691.2, 625.1, 5.4],[0.6908, 0.1508, -0.1508, 0.6908],[0,0,0,0],[9E9,9E9,9E9,9E9,9E9,9E9]], s_printSpeed, fine, tool0, \WObj:=ob_RRC_workplace;
        MoveL [[680.2, 630.0, 5.7],[0.6921, 0.1449, -0.1449, 0.6921],[0,0,0,0],[9E9,9E9,9E9,9E9,9E9,9E9]], s_printSpeed, fine, tool0, \WObj:=ob_RRC_workplace;
        MoveL [[670.5, 636.9, 6.1],[0.6937, 0.1372, -0.1372, 0.6937],[0,0,0,0],[9E9,9E9,9E9,9E9,9E9,9E9]], s_printSpeed, fine, tool0, \WObj:=ob_RRC_workplace;
        MoveL [[663.1, 646.4, 6.7],[0.6954, 0.1281, -0.1281, 0.6954],[0,0,0,0],[9E9,9E9,9E9,9E9,9E9,9E9]], s_printSpeed, fine, tool0, \WObj:=ob_RRC_workplace;
        MoveL [[657.7, 657.1, 7.3],[0.6969, 0.1195, -0.1195, 0.6969],[0,0,0,0],[9E9,9E9,9E9,9E9,9E9,9E9]], s_printSpeed, fine, tool0, \WObj:=ob_RRC_workplace;
        MoveL [[653.1, 668.1, 8.0],[0.6982, 0.1118, -0.1118, 0.6982],[0,0,0,0],[9E9,9E9,9E9,9E9,9E9,9E9]], s_printSpeed, fine, tool0, \WObj:=ob_RRC_workplace;
        MoveL [[648.6, 679.3, 8.7],[0.6992, 0.1053, -0.1053, 0.6992],[0,0,0,0],[9E9,9E9,9E9,9E9,9E9,9E9]], s_printSpeed, fine, tool0, \WObj:=ob_RRC_workplace;
        MoveL [[640.0, 687.6, 9.2],[0.6999, 0.1009, -0.1009, 0.6999],[0,0,0,0],[9E9,9E9,9E9,9E9,9E9,9E9]], s_printSpeed, fine, tool0, \WObj:=ob_RRC_workplace;
        MoveL [[632.0, 678.7, 8.7],[0.6992, 0.1056, -0.1056, 0.6992],[0,0,0,0],[9E9,9E9,9E9,9E9,9E9,9E9]], s_printSpeed, fine, tool0, \WObj:=ob_RRC_workplace;
        MoveL [[625.8, 668.4, 8.0],[0.6982, 0.1117, -0.1117, 0.6982],[0,0,0,0],[9E9,9E9,9E9,9E9,9E9,9E9]], s_printSpeed, fine, tool0, \WObj:=ob_RRC_workplace;
        MoveL [[619.6, 658.1, 7.4],[0.6971, 0.1187, -0.1187, 0.6971],[0,0,0,0],[9E9,9E9,9E9,9E9,9E9,9E9]], s_printSpeed, fine, tool0, \WObj:=ob_RRC_workplace;
        MoveL [[612.8, 648.3, 6.8],[0.6957, 0.1265, -0.1265, 0.6957],[0,0,0,0],[9E9,9E9,9E9,9E9,9E9,9E9]], s_printSpeed, fine, tool0, \WObj:=ob_RRC_workplace;
        MoveL [[604.9, 639.3, 6.2],[0.6941, 0.1348, -0.1348, 0.6941],[0,0,0,0],[9E9,9E9,9E9,9E9,9E9,9E9]], s_printSpeed, fine, tool0, \WObj:=ob_RRC_workplace;
        MoveL [[595.3, 632.2, 5.8],[0.6926, 0.1424, -0.1424, 0.6926],[0,0,0,0],[9E9,9E9,9E9,9E9,9E9,9E9]], s_printSpeed, fine, tool0, \WObj:=ob_RRC_workplace;
        MoveL [[584.4, 627.0, 5.5],[0.6913, 0.1486, -0.1486, 0.6913],[0,0,0,0],[9E9,9E9,9E9,9E9,9E9,9E9]], s_printSpeed, fine, tool0, \WObj:=ob_RRC_workplace;
        MoveL [[573.2, 622.7, 5.2],[0.6901, 0.1541, -0.1541, 0.6901],[0,0,0,0],[9E9,9E9,9E9,9E9,9E9,9E9]], s_printSpeed, fine, tool0, \WObj:=ob_RRC_workplace;
        MoveL [[562.3, 617.7, 4.9],[0.6885, 0.1612, -0.1612, 0.6885],[0,0,0,0],[9E9,9E9,9E9,9E9,9E9,9E9]], s_printSpeed, fine, tool0, \WObj:=ob_RRC_workplace;
        MoveL [[553.1, 610.0, 4.4],[0.6855, 0.1736, -0.1736, 0.6855],[0,0,0,0],[9E9,9E9,9E9,9E9,9E9,9E9]], s_printSpeed, fine, tool0, \WObj:=ob_RRC_workplace;
        MoveL [[546.9, 599.8, 3.8],[0.6800, 0.1937, -0.1937, 0.6800],[0,0,0,0],[9E9,9E9,9E9,9E9,9E9,9E9]], s_printSpeed, fine, tool0, \WObj:=ob_RRC_workplace;
        MoveL [[542.1, 588.8, 3.1],[0.6715, 0.2215, -0.2215, 0.6715],[0,0,0,0],[9E9,9E9,9E9,9E9,9E9,9E9]], s_printSpeed, fine, tool0, \WObj:=ob_RRC_workplace;
        MoveL [[537.4, 577.7, 2.4],[0.6582, 0.2584, -0.2584, 0.6582],[0,0,0,0],[9E9,9E9,9E9,9E9,9E9,9E9]], s_printSpeed, fine, tool0, \WObj:=ob_RRC_workplace;
        MoveL [[531.8, 567.2, 1.8],[-0.6378, -0.3052, -0.3052, 0.6378],[0,0,0,0],[9E9,9E9,9E9,9E9,9E9,9E9]], s_printSpeed, fine, tool0, \WObj:=ob_RRC_workplace;
        MoveL [[524.0, 558.0, 1.2],[-0.6103, -0.3572, -0.3572, 0.6103],[0,0,0,0],[9E9,9E9,9E9,9E9,9E9,9E9]], s_printSpeed, fine, tool0, \WObj:=ob_RRC_workplace;
        MoveL [[514.4, 550.9, 0.8],[-0.5794, -0.4054, -0.4054, 0.5794],[0,0,0,0],[9E9,9E9,9E9,9E9,9E9,9E9]], s_printSpeed, fine, tool0, \WObj:=ob_RRC_workplace;
        MoveL [[503.7, 545.4, 0.5],[-0.5494, -0.4452, -0.4452, 0.5494],[0,0,0,0],[9E9,9E9,9E9,9E9,9E9,9E9]], s_printSpeed, fine, tool0, \WObj:=ob_RRC_workplace;
        MoveL [[492.4, 541.3, 0.2],[-0.5227, -0.4762, -0.4762, 0.5227],[0,0,0,0],[9E9,9E9,9E9,9E9,9E9,9E9]], s_printSpeed, fine, tool0, \WObj:=ob_RRC_workplace;
        MoveL [[480.9, 538.1, 0.0],[-0.5000, -0.5000, -0.5000, 0.5000],[0,0,0,0],[9E9,9E9,9E9,9E9,9E9,9E9]], s_printSpeed, fine, tool0, \WObj:=ob_RRC_workplace;
    ! layer end
        MoveL [[783.6, 540.1, 0.2],[-0.5165, -0.4829, -0.4829, 0.5165],[0,0,0,0],[9E9,9E9,9E9,9E9,9E9,9E9]], s_printSpeed, fine, tool0, \WObj:=ob_RRC_workplace;
        MoveL [[772.2, 544.0, 0.4],[-0.5420, -0.4542, -0.4542, 0.5420],[0,0,0,0],[9E9,9E9,9E9,9E9,9E9,9E9]], s_printSpeed, fine, tool0, \WObj:=ob_RRC_workplace;
        MoveL [[761.3, 549.0, 0.8],[-0.5711, -0.4170, -0.4170, 0.5711],[0,0,0,0],[9E9,9E9,9E9,9E9,9E9,9E9]], s_printSpeed, fine, tool0, \WObj:=ob_RRC_workplace;
        MoveL [[751.3, 555.7, 1.3],[-0.6020, -0.3710, -0.3710, 0.6020],[0,0,0,0],[9E9,9E9,9E9,9E9,9E9,9E9]], s_printSpeed, fine, tool0, \WObj:=ob_RRC_workplace;
        MoveL [[743.1, 564.3, 1.9],[-0.6308, -0.3195, -0.3195, 0.6308],[0,0,0,0],[9E9,9E9,9E9,9E9,9E9,9E9]], s_printSpeed, fine, tool0, \WObj:=ob_RRC_workplace;
        MoveL [[737.1, 574.7, 2.6],[-0.6532, -0.2708, -0.2708, 0.6532],[0,0,0,0],[9E9,9E9,9E9,9E9,9E9,9E9]], s_printSpeed, fine, tool0, \WObj:=ob_RRC_workplace;
        MoveL [[732.4, 585.7, 3.4],[0.6681, 0.2316, -0.2316, 0.6681],[0,0,0,0],[9E9,9E9,9E9,9E9,9E9,9E9]], s_printSpeed, fine, tool0, \WObj:=ob_RRC_workplace;
        MoveL [[727.8, 596.8, 4.2],[0.6777, 0.2020, -0.2020, 0.6777],[0,0,0,0],[9E9,9E9,9E9,9E9,9E9,9E9]], s_printSpeed, fine, tool0, \WObj:=ob_RRC_workplace;
        MoveL [[722.0, 607.2, 4.9],[0.6837, 0.1803, -0.1803, 0.6837],[0,0,0,0],[9E9,9E9,9E9,9E9,9E9,9E9]], s_printSpeed, fine, tool0, \WObj:=ob_RRC_workplace;
        MoveL [[713.3, 615.5, 5.5],[0.6872, 0.1664, -0.1664, 0.6872],[0,0,0,0],[9E9,9E9,9E9,9E9,9E9,9E9]], s_printSpeed, fine, tool0, \WObj:=ob_RRC_workplace;
        MoveL [[702.5, 620.7, 5.8],[0.6890, 0.1588, -0.1588, 0.6890],[0,0,0,0],[9E9,9E9,9E9,9E9,9E9,9E9]], s_printSpeed, fine, tool0, \WObj:=ob_RRC_workplace;
        MoveL [[691.2, 624.8, 6.1],[0.6903, 0.1534, -0.1534, 0.6903],[0,0,0,0],[9E9,9E9,9E9,9E9,9E9,9E9]], s_printSpeed, fine, tool0, \WObj:=ob_RRC_workplace;
        MoveL [[680.2, 629.6, 6.5],[0.6915, 0.1475, -0.1475, 0.6915],[0,0,0,0],[9E9,9E9,9E9,9E9,9E9,9E9]], s_printSpeed, fine, tool0, \WObj:=ob_RRC_workplace;
        MoveL [[670.5, 636.6, 7.0],[0.6931, 0.1399, -0.1399, 0.6931],[0,0,0,0],[9E9,9E9,9E9,9E9,9E9,9E9]], s_printSpeed, fine, tool0, \WObj:=ob_RRC_workplace;
        MoveL [[663.1, 646.0, 7.6],[0.6949, 0.1309, -0.1309, 0.6949],[0,0,0,0],[9E9,9E9,9E9,9E9,9E9,9E9]], s_printSpeed, fine, tool0, \WObj:=ob_RRC_workplace;
        MoveL [[657.7, 656.7, 8.4],[0.6965, 0.1223, -0.1223, 0.6965],[0,0,0,0],[9E9,9E9,9E9,9E9,9E9,9E9]], s_printSpeed, fine, tool0, \WObj:=ob_RRC_workplace;
        MoveL [[653.1, 667.8, 9.1],[0.6978, 0.1146, -0.1146, 0.6978],[0,0,0,0],[9E9,9E9,9E9,9E9,9E9,9E9]], s_printSpeed, fine, tool0, \WObj:=ob_RRC_workplace;
        MoveL [[648.6, 678.9, 9.9],[0.6988, 0.1081, -0.1081, 0.6988],[0,0,0,0],[9E9,9E9,9E9,9E9,9E9,9E9]], s_printSpeed, fine, tool0, \WObj:=ob_RRC_workplace;
        MoveL [[640.0, 687.2, 10.5],[0.6994, 0.1038, -0.1038, 0.6994],[0,0,0,0],[9E9,9E9,9E9,9E9,9E9,9E9]], s_printSpeed, fine, tool0, \WObj:=ob_RRC_workplace;
        MoveL [[632.0, 678.3, 9.9],[0.6987, 0.1084, -0.1084, 0.6987],[0,0,0,0],[9E9,9E9,9E9,9E9,9E9,9E9]], s_printSpeed, fine, tool0, \WObj:=ob_RRC_workplace;
        MoveL [[625.8, 668.0, 9.2],[0.6978, 0.1145, -0.1145, 0.6978],[0,0,0,0],[9E9,9E9,9E9,9E9,9E9,9E9]], s_printSpeed, fine, tool0, \WObj:=ob_RRC_workplace;
        MoveL [[619.6, 657.8, 8.4],[0.6966, 0.1214, -0.1214, 0.6966],[0,0,0,0],[9E9,9E9,9E9,9E9,9E9,9E9]], s_printSpeed, fine, tool0, \WObj:=ob_RRC_workplace;
        MoveL [[612.8, 647.9, 7.7],[0.6952, 0.1293, -0.1293, 0.6952],[0,0,0,0],[9E9,9E9,9E9,9E9,9E9,9E9]], s_printSpeed, fine, tool0, \WObj:=ob_RRC_workplace;
        MoveL [[604.9, 638.9, 7.1],[0.6936, 0.1375, -0.1375, 0.6936],[0,0,0,0],[9E9,9E9,9E9,9E9,9E9,9E9]], s_printSpeed, fine, tool0, \WObj:=ob_RRC_workplace;
        MoveL [[595.3, 631.8, 6.6],[0.6921, 0.1450, -0.1450, 0.6921],[0,0,0,0],[9E9,9E9,9E9,9E9,9E9,9E9]], s_printSpeed, fine, tool0, \WObj:=ob_RRC_workplace;
        MoveL [[584.4, 626.6, 6.2],[0.6908, 0.1511, -0.1511, 0.6908],[0,0,0,0],[9E9,9E9,9E9,9E9,9E9,9E9]], s_printSpeed, fine, tool0, \WObj:=ob_RRC_workplace;
        MoveL [[573.2, 622.3, 5.9],[0.6895, 0.1567, -0.1567, 0.6895],[0,0,0,0],[9E9,9E9,9E9,9E9,9E9,9E9]], s_printSpeed, fine, tool0, \WObj:=ob_RRC_workplace;
        MoveL [[562.3, 617.3, 5.6],[0.6879, 0.1637, -0.1637, 0.6879],[0,0,0,0],[9E9,9E9,9E9,9E9,9E9,9E9]], s_printSpeed, fine, tool0, \WObj:=ob_RRC_workplace;
        MoveL [[553.1, 609.6, 5.1],[0.6848, 0.1760, -0.1760, 0.6848],[0,0,0,0],[9E9,9E9,9E9,9E9,9E9,9E9]], s_printSpeed, fine, tool0, \WObj:=ob_RRC_workplace;
        MoveL [[546.9, 599.4, 4.3],[0.6794, 0.1960, -0.1960, 0.6794],[0,0,0,0],[9E9,9E9,9E9,9E9,9E9,9E9]], s_printSpeed, fine, tool0, \WObj:=ob_RRC_workplace;
        MoveL [[542.1, 588.4, 3.6],[0.6709, 0.2235, -0.2235, 0.6709],[0,0,0,0],[9E9,9E9,9E9,9E9,9E9,9E9]], s_printSpeed, fine, tool0, \WObj:=ob_RRC_workplace;
        MoveL [[537.4, 577.4, 2.8],[0.6576, 0.2600, -0.2600, 0.6576],[0,0,0,0],[9E9,9E9,9E9,9E9,9E9,9E9]], s_printSpeed, fine, tool0, \WObj:=ob_RRC_workplace;
        MoveL [[531.8, 566.9, 2.0],[-0.6373, -0.3064, -0.3064, 0.6373],[0,0,0,0],[9E9,9E9,9E9,9E9,9E9,9E9]], s_printSpeed, fine, tool0, \WObj:=ob_RRC_workplace;
        MoveL [[524.0, 557.7, 1.4],[-0.6099, -0.3579, -0.3579, 0.6099],[0,0,0,0],[9E9,9E9,9E9,9E9,9E9,9E9]], s_printSpeed, fine, tool0, \WObj:=ob_RRC_workplace;
        MoveL [[514.4, 550.6, 0.9],[-0.5791, -0.4057, -0.4057, 0.5791],[0,0,0,0],[9E9,9E9,9E9,9E9,9E9,9E9]], s_printSpeed, fine, tool0, \WObj:=ob_RRC_workplace;
        MoveL [[503.7, 545.1, 0.5],[-0.5492, -0.4453, -0.4453, 0.5492],[0,0,0,0],[9E9,9E9,9E9,9E9,9E9,9E9]], s_printSpeed, fine, tool0, \WObj:=ob_RRC_workplace;
        MoveL [[492.4, 541.0, 0.2],[-0.5227, -0.4762, -0.4762, 0.5227],[0,0,0,0],[9E9,9E9,9E9,9E9,9E9,9E9]], s_printSpeed, fine, tool0, \WObj:=ob_RRC_workplace;
        MoveL [[480.9, 537.8, 0.0],[0.5000, 0.5000, 0.5000, -0.5000],[0,0,0,0],[9E9,9E9,9E9,9E9,9E9,9E9]], s_printSpeed, fine, tool0, \WObj:=ob_RRC_workplace;
    ! layer end
        MoveL [[783.6, 539.8, 0.2],[-0.5165, -0.4829, -0.4829, 0.5165],[0,0,0,0],[9E9,9E9,9E9,9E9,9E9,9E9]], s_printSpeed, fine, tool0, \WObj:=ob_RRC_workplace;
        MoveL [[772.2, 543.7, 0.5],[-0.5419, -0.4543, -0.4543, 0.5419],[0,0,0,0],[9E9,9E9,9E9,9E9,9E9,9E9]], s_printSpeed, fine, tool0, \WObj:=ob_RRC_workplace;
        MoveL [[761.3, 548.7, 0.9],[-0.5709, -0.4173, -0.4173, 0.5709],[0,0,0,0],[9E9,9E9,9E9,9E9,9E9,9E9]], s_printSpeed, fine, tool0, \WObj:=ob_RRC_workplace;
        MoveL [[751.3, 555.4, 1.4],[-0.6016, -0.3716, -0.3716, 0.6016],[0,0,0,0],[9E9,9E9,9E9,9E9,9E9,9E9]], s_printSpeed, fine, tool0, \WObj:=ob_RRC_workplace;
        MoveL [[743.1, 564.0, 2.1],[-0.6303, -0.3206, -0.3206, 0.6303],[0,0,0,0],[9E9,9E9,9E9,9E9,9E9,9E9]], s_printSpeed, fine, tool0, \WObj:=ob_RRC_workplace;
        MoveL [[737.1, 574.4, 2.9],[-0.6526, -0.2723, -0.2723, 0.6526],[0,0,0,0],[9E9,9E9,9E9,9E9,9E9,9E9]], s_printSpeed, fine, tool0, \WObj:=ob_RRC_workplace;
        MoveL [[732.4, 585.4, 3.8],[0.6674, 0.2335, -0.2335, 0.6674],[0,0,0,0],[9E9,9E9,9E9,9E9,9E9,9E9]], s_printSpeed, fine, tool0, \WObj:=ob_RRC_workplace;
        MoveL [[727.8, 596.4, 4.7],[0.6770, 0.2041, -0.2041, 0.6770],[0,0,0,0],[9E9,9E9,9E9,9E9,9E9,9E9]], s_printSpeed, fine, tool0, \WObj:=ob_RRC_workplace;
        MoveL [[722.0, 606.9, 5.5],[0.6831, 0.1827, -0.1827, 0.6831],[0,0,0,0],[9E9,9E9,9E9,9E9,9E9,9E9]], s_printSpeed, fine, tool0, \WObj:=ob_RRC_workplace;
        MoveL [[713.3, 615.2, 6.2],[0.6866, 0.1689, -0.1689, 0.6866],[0,0,0,0],[9E9,9E9,9E9,9E9,9E9,9E9]], s_printSpeed, fine, tool0, \WObj:=ob_RRC_workplace;
        MoveL [[702.5, 620.4, 6.6],[0.6884, 0.1614, -0.1614, 0.6884],[0,0,0,0],[9E9,9E9,9E9,9E9,9E9,9E9]], s_printSpeed, fine, tool0, \WObj:=ob_RRC_workplace;
        MoveL [[691.2, 624.4, 6.9],[0.6897, 0.1560, -0.1560, 0.6897],[0,0,0,0],[9E9,9E9,9E9,9E9,9E9,9E9]], s_printSpeed, fine, tool0, \WObj:=ob_RRC_workplace;
        MoveL [[680.2, 629.2, 7.3],[0.6910, 0.1501, -0.1501, 0.6910],[0,0,0,0],[9E9,9E9,9E9,9E9,9E9,9E9]], s_printSpeed, fine, tool0, \WObj:=ob_RRC_workplace;
        MoveL [[670.5, 636.2, 7.8],[0.6926, 0.1425, -0.1425, 0.6926],[0,0,0,0],[9E9,9E9,9E9,9E9,9E9,9E9]], s_printSpeed, fine, tool0, \WObj:=ob_RRC_workplace;
        MoveL [[663.1, 645.7, 8.6],[0.6944, 0.1336, -0.1336, 0.6944],[0,0,0,0],[9E9,9E9,9E9,9E9,9E9,9E9]], s_printSpeed, fine, tool0, \WObj:=ob_RRC_workplace;
        MoveL [[657.7, 656.3, 9.4],[0.6960, 0.1250, -0.1250, 0.6960],[0,0,0,0],[9E9,9E9,9E9,9E9,9E9,9E9]], s_printSpeed, fine, tool0, \WObj:=ob_RRC_workplace;
        MoveL [[653.1, 667.4, 10.3],[0.6973, 0.1175, -0.1175, 0.6973],[0,0,0,0],[9E9,9E9,9E9,9E9,9E9,9E9]], s_printSpeed, fine, tool0, \WObj:=ob_RRC_workplace;
        MoveL [[648.6, 678.5, 11.2],[0.6983, 0.1110, -0.1110, 0.6983],[0,0,0,0],[9E9,9E9,9E9,9E9,9E9,9E9]], s_printSpeed, fine, tool0, \WObj:=ob_RRC_workplace;
        MoveL [[640.0, 686.8, 11.8],[0.6990, 0.1067, -0.1067, 0.6990],[0,0,0,0],[9E9,9E9,9E9,9E9,9E9,9E9]], s_printSpeed, fine, tool0, \WObj:=ob_RRC_workplace;
        MoveL [[632.0, 677.9, 11.1],[0.6983, 0.1113, -0.1113, 0.6983],[0,0,0,0],[9E9,9E9,9E9,9E9,9E9,9E9]], s_printSpeed, fine, tool0, \WObj:=ob_RRC_workplace;
        MoveL [[625.8, 667.6, 10.3],[0.6973, 0.1173, -0.1173, 0.6973],[0,0,0,0],[9E9,9E9,9E9,9E9,9E9,9E9]], s_printSpeed, fine, tool0, \WObj:=ob_RRC_workplace;
        MoveL [[619.6, 657.4, 9.5],[0.6961, 0.1242, -0.1242, 0.6961],[0,0,0,0],[9E9,9E9,9E9,9E9,9E9,9E9]], s_printSpeed, fine, tool0, \WObj:=ob_RRC_workplace;
        MoveL [[612.8, 647.5, 8.7],[0.6947, 0.1320, -0.1320, 0.6947],[0,0,0,0],[9E9,9E9,9E9,9E9,9E9,9E9]], s_printSpeed, fine, tool0, \WObj:=ob_RRC_workplace;
        MoveL [[604.9, 638.6, 8.0],[0.6931, 0.1402, -0.1402, 0.6931],[0,0,0,0],[9E9,9E9,9E9,9E9,9E9,9E9]], s_printSpeed, fine, tool0, \WObj:=ob_RRC_workplace;
        MoveL [[595.3, 631.4, 7.4],[0.6915, 0.1476, -0.1476, 0.6915],[0,0,0,0],[9E9,9E9,9E9,9E9,9E9,9E9]], s_printSpeed, fine, tool0, \WObj:=ob_RRC_workplace;
        MoveL [[584.4, 626.2, 7.0],[0.6902, 0.1537, -0.1537, 0.6902],[0,0,0,0],[9E9,9E9,9E9,9E9,9E9,9E9]], s_printSpeed, fine, tool0, \WObj:=ob_RRC_workplace;
        MoveL [[573.2, 622.0, 6.7],[0.6890, 0.1592, -0.1592, 0.6890],[0,0,0,0],[9E9,9E9,9E9,9E9,9E9,9E9]], s_printSpeed, fine, tool0, \WObj:=ob_RRC_workplace;
        MoveL [[562.3, 617.0, 6.3],[0.6873, 0.1662, -0.1662, 0.6873],[0,0,0,0],[9E9,9E9,9E9,9E9,9E9,9E9]], s_printSpeed, fine, tool0, \WObj:=ob_RRC_workplace;
        MoveL [[553.1, 609.3, 5.7],[0.6842, 0.1784, -0.1784, 0.6842],[0,0,0,0],[9E9,9E9,9E9,9E9,9E9,9E9]], s_printSpeed, fine, tool0, \WObj:=ob_RRC_workplace;
        MoveL [[546.9, 599.1, 4.9],[0.6788, 0.1982, -0.1982, 0.6788],[0,0,0,0],[9E9,9E9,9E9,9E9,9E9,9E9]], s_printSpeed, fine, tool0, \WObj:=ob_RRC_workplace;
        MoveL [[542.1, 588.1, 4.0],[0.6702, 0.2255, -0.2255, 0.6702],[0,0,0,0],[9E9,9E9,9E9,9E9,9E9,9E9]], s_printSpeed, fine, tool0, \WObj:=ob_RRC_workplace;
        MoveL [[537.4, 577.1, 3.1],[0.6569, 0.2617, -0.2617, 0.6569],[0,0,0,0],[9E9,9E9,9E9,9E9,9E9,9E9]], s_printSpeed, fine, tool0, \WObj:=ob_RRC_workplace;
        MoveL [[531.8, 566.5, 2.3],[-0.6367, -0.3076, -0.3076, 0.6367],[0,0,0,0],[9E9,9E9,9E9,9E9,9E9,9E9]], s_printSpeed, fine, tool0, \WObj:=ob_RRC_workplace;
        MoveL [[524.0, 557.4, 1.6],[-0.6094, -0.3586, -0.3586, 0.6094],[0,0,0,0],[9E9,9E9,9E9,9E9,9E9,9E9]], s_printSpeed, fine, tool0, \WObj:=ob_RRC_workplace;
        MoveL [[514.4, 550.3, 1.0],[-0.5789, -0.4061, -0.4061, 0.5789],[0,0,0,0],[9E9,9E9,9E9,9E9,9E9,9E9]], s_printSpeed, fine, tool0, \WObj:=ob_RRC_workplace;
        MoveL [[503.7, 544.8, 0.6],[-0.5491, -0.4455, -0.4455, 0.5491],[0,0,0,0],[9E9,9E9,9E9,9E9,9E9,9E9]], s_printSpeed, fine, tool0, \WObj:=ob_RRC_workplace;
        MoveL [[492.4, 540.7, 0.3],[-0.5227, -0.4762, -0.4762, 0.5227],[0,0,0,0],[9E9,9E9,9E9,9E9,9E9,9E9]], s_printSpeed, fine, tool0, \WObj:=ob_RRC_workplace;
        MoveL [[480.9, 537.5, 0.0],[0.0000, -0.0000, 0.7071, -0.7071],[0,0,0,0],[9E9,9E9,9E9,9E9,9E9,9E9]], s_printSpeed, fine, tool0, \WObj:=ob_RRC_workplace;
    ! layer end
        MoveL [[783.6, 539.5, 0.2],[-0.5165, -0.4829, -0.4829, 0.5165],[0,0,0,0],[9E9,9E9,9E9,9E9,9E9,9E9]], s_printSpeed, fine, tool0, \WObj:=ob_RRC_workplace;
        MoveL [[772.2, 543.3, 0.5],[-0.5418, -0.4544, -0.4544, 0.5418],[0,0,0,0],[9E9,9E9,9E9,9E9,9E9,9E9]], s_printSpeed, fine, tool0, \WObj:=ob_RRC_workplace;
        MoveL [[761.3, 548.4, 1.0],[-0.5706, -0.4176, -0.4176, 0.5706],[0,0,0,0],[9E9,9E9,9E9,9E9,9E9,9E9]], s_printSpeed, fine, tool0, \WObj:=ob_RRC_workplace;
        MoveL [[751.3, 555.0, 1.6],[-0.6012, -0.3722, -0.3722, 0.6012],[0,0,0,0],[9E9,9E9,9E9,9E9,9E9,9E9]], s_printSpeed, fine, tool0, \WObj:=ob_RRC_workplace;
        MoveL [[743.1, 563.7, 2.3],[-0.6297, -0.3216, -0.3216, 0.6297],[0,0,0,0],[9E9,9E9,9E9,9E9,9E9,9E9]], s_printSpeed, fine, tool0, \WObj:=ob_RRC_workplace;
        MoveL [[737.1, 574.0, 3.2],[-0.6519, -0.2738, -0.2738, 0.6519],[0,0,0,0],[9E9,9E9,9E9,9E9,9E9,9E9]], s_printSpeed, fine, tool0, \WObj:=ob_RRC_workplace;
        MoveL [[732.4, 585.1, 4.2],[0.6668, 0.2354, -0.2354, 0.6668],[0,0,0,0],[9E9,9E9,9E9,9E9,9E9,9E9]], s_printSpeed, fine, tool0, \WObj:=ob_RRC_workplace;
        MoveL [[727.8, 596.1, 5.2],[0.6763, 0.2063, -0.2063, 0.6763],[0,0,0,0],[9E9,9E9,9E9,9E9,9E9,9E9]], s_printSpeed, fine, tool0, \WObj:=ob_RRC_workplace;
        MoveL [[722.0, 606.6, 6.1],[0.6825, 0.1850, -0.1850, 0.6825],[0,0,0,0],[9E9,9E9,9E9,9E9,9E9,9E9]], s_printSpeed, fine, tool0, \WObj:=ob_RRC_workplace;
        MoveL [[713.3, 614.8, 6.8],[0.6860, 0.1713, -0.1713, 0.6860],[0,0,0,0],[9E9,9E9,9E9,9E9,9E9,9E9]], s_printSpeed, fine, tool0, \WObj:=ob_RRC_workplace;
        MoveL [[702.5, 620.0, 7.3],[0.6879, 0.1639, -0.1639, 0.6879],[0,0,0,0],[9E9,9E9,9E9,9E9,9E9,9E9]], s_printSpeed, fine, tool0, \WObj:=ob_RRC_workplace;
        MoveL [[691.2, 624.1, 7.6],[0.6891, 0.1585, -0.1585, 0.6891],[0,0,0,0],[9E9,9E9,9E9,9E9,9E9,9E9]], s_printSpeed, fine, tool0, \WObj:=ob_RRC_workplace;
        MoveL [[680.2, 628.9, 8.1],[0.6904, 0.1527, -0.1527, 0.6904],[0,0,0,0],[9E9,9E9,9E9,9E9,9E9,9E9]], s_printSpeed, fine, tool0, \WObj:=ob_RRC_workplace;
        MoveL [[670.5, 635.8, 8.7],[0.6920, 0.1452, -0.1452, 0.6920],[0,0,0,0],[9E9,9E9,9E9,9E9,9E9,9E9]], s_printSpeed, fine, tool0, \WObj:=ob_RRC_workplace;
        MoveL [[663.1, 645.3, 9.5],[0.6938, 0.1363, -0.1363, 0.6938],[0,0,0,0],[9E9,9E9,9E9,9E9,9E9,9E9]], s_printSpeed, fine, tool0, \WObj:=ob_RRC_workplace;
        MoveL [[657.7, 655.9, 10.5],[0.6955, 0.1278, -0.1278, 0.6955],[0,0,0,0],[9E9,9E9,9E9,9E9,9E9,9E9]], s_printSpeed, fine, tool0, \WObj:=ob_RRC_workplace;
        MoveL [[653.1, 667.0, 11.4],[0.6968, 0.1203, -0.1203, 0.6968],[0,0,0,0],[9E9,9E9,9E9,9E9,9E9,9E9]], s_printSpeed, fine, tool0, \WObj:=ob_RRC_workplace;
        MoveL [[648.6, 678.1, 12.4],[0.6979, 0.1138, -0.1138, 0.6979],[0,0,0,0],[9E9,9E9,9E9,9E9,9E9,9E9]], s_printSpeed, fine, tool0, \WObj:=ob_RRC_workplace;
        MoveL [[640.0, 686.4, 13.1],[0.6986, 0.1095, -0.1095, 0.6986],[0,0,0,0],[9E9,9E9,9E9,9E9,9E9,9E9]], s_printSpeed, fine, tool0, \WObj:=ob_RRC_workplace;
        MoveL [[632.0, 677.5, 12.4],[0.6978, 0.1141, -0.1141, 0.6978],[0,0,0,0],[9E9,9E9,9E9,9E9,9E9,9E9]], s_printSpeed, fine, tool0, \WObj:=ob_RRC_workplace;
        MoveL [[625.8, 667.2, 11.4],[0.6968, 0.1201, -0.1201, 0.6968],[0,0,0,0],[9E9,9E9,9E9,9E9,9E9,9E9]], s_printSpeed, fine, tool0, \WObj:=ob_RRC_workplace;
        MoveL [[619.6, 657.0, 10.5],[0.6956, 0.1270, -0.1270, 0.6956],[0,0,0,0],[9E9,9E9,9E9,9E9,9E9,9E9]], s_printSpeed, fine, tool0, \WObj:=ob_RRC_workplace;
        MoveL [[612.8, 647.1, 9.7],[0.6942, 0.1347, -0.1347, 0.6942],[0,0,0,0],[9E9,9E9,9E9,9E9,9E9,9E9]], s_printSpeed, fine, tool0, \WObj:=ob_RRC_workplace;
        MoveL [[604.9, 638.2, 8.9],[0.6925, 0.1429, -0.1429, 0.6925],[0,0,0,0],[9E9,9E9,9E9,9E9,9E9,9E9]], s_printSpeed, fine, tool0, \WObj:=ob_RRC_workplace;
        MoveL [[595.3, 631.1, 8.3],[0.6910, 0.1503, -0.1503, 0.6910],[0,0,0,0],[9E9,9E9,9E9,9E9,9E9,9E9]], s_printSpeed, fine, tool0, \WObj:=ob_RRC_workplace;
        MoveL [[584.4, 625.9, 7.8],[0.6896, 0.1563, -0.1563, 0.6896],[0,0,0,0],[9E9,9E9,9E9,9E9,9E9,9E9]], s_printSpeed, fine, tool0, \WObj:=ob_RRC_workplace;
        MoveL [[573.2, 621.6, 7.4],[0.6884, 0.1617, -0.1617, 0.6884],[0,0,0,0],[9E9,9E9,9E9,9E9,9E9,9E9]], s_printSpeed, fine, tool0, \WObj:=ob_RRC_workplace;
        MoveL [[562.3, 616.6, 7.0],[0.6867, 0.1687, -0.1687, 0.6867],[0,0,0,0],[9E9,9E9,9E9,9E9,9E9,9E9]], s_printSpeed, fine, tool0, \WObj:=ob_RRC_workplace;
        MoveL [[553.1, 608.9, 6.3],[0.6836, 0.1808, -0.1808, 0.6836],[0,0,0,0],[9E9,9E9,9E9,9E9,9E9,9E9]], s_printSpeed, fine, tool0, \WObj:=ob_RRC_workplace;
        MoveL [[546.9, 598.7, 5.4],[0.6781, 0.2004, -0.2004, 0.6781],[0,0,0,0],[9E9,9E9,9E9,9E9,9E9,9E9]], s_printSpeed, fine, tool0, \WObj:=ob_RRC_workplace;
        MoveL [[542.1, 587.8, 4.5],[0.6695, 0.2275, -0.2275, 0.6695],[0,0,0,0],[9E9,9E9,9E9,9E9,9E9,9E9]], s_printSpeed, fine, tool0, \WObj:=ob_RRC_workplace;
        MoveL [[537.4, 576.8, 3.5],[0.6563, 0.2633, -0.2633, 0.6563],[0,0,0,0],[9E9,9E9,9E9,9E9,9E9,9E9]], s_printSpeed, fine, tool0, \WObj:=ob_RRC_workplace;
        MoveL [[531.8, 566.2, 2.6],[-0.6361, -0.3088, -0.3088, 0.6361],[0,0,0,0],[9E9,9E9,9E9,9E9,9E9,9E9]], s_printSpeed, fine, tool0, \WObj:=ob_RRC_workplace;
        MoveL [[524.0, 557.1, 1.8],[-0.6090, -0.3593, -0.3593, 0.6090],[0,0,0,0],[9E9,9E9,9E9,9E9,9E9,9E9]], s_printSpeed, fine, tool0, \WObj:=ob_RRC_workplace;
        MoveL [[514.4, 549.9, 1.1],[-0.5786, -0.4065, -0.4065, 0.5786],[0,0,0,0],[9E9,9E9,9E9,9E9,9E9,9E9]], s_printSpeed, fine, tool0, \WObj:=ob_RRC_workplace;
        MoveL [[503.7, 544.5, 0.6],[-0.5490, -0.4456, -0.4456, 0.5490],[0,0,0,0],[9E9,9E9,9E9,9E9,9E9,9E9]], s_printSpeed, fine, tool0, \WObj:=ob_RRC_workplace;
        MoveL [[492.4, 540.4, 0.3],[-0.5226, -0.4763, -0.4763, 0.5226],[0,0,0,0],[9E9,9E9,9E9,9E9,9E9,9E9]], s_printSpeed, fine, tool0, \WObj:=ob_RRC_workplace;
        MoveL [[480.9, 537.2, 0.0],[-0.0000, 0.0000, -0.7071, 0.7071],[0,0,0,0],[9E9,9E9,9E9,9E9,9E9,9E9]], s_printSpeed, fine, tool0, \WObj:=ob_RRC_workplace;
    ! layer end
        MoveL [[783.6, 539.2, 0.2],[-0.5165, -0.4830, -0.4830, 0.5165],[0,0,0,0],[9E9,9E9,9E9,9E9,9E9,9E9]], s_printSpeed, fine, tool0, \WObj:=ob_RRC_workplace;
        MoveL [[772.2, 543.0, 0.6],[-0.5417, -0.4545, -0.4545, 0.5417],[0,0,0,0],[9E9,9E9,9E9,9E9,9E9,9E9]], s_printSpeed, fine, tool0, \WObj:=ob_RRC_workplace;
        MoveL [[761.3, 548.1, 1.1],[-0.5704, -0.4179, -0.4179, 0.5704],[0,0,0,0],[9E9,9E9,9E9,9E9,9E9,9E9]], s_printSpeed, fine, tool0, \WObj:=ob_RRC_workplace;
        MoveL [[751.3, 554.7, 1.7],[-0.6008, -0.3728, -0.3728, 0.6008],[0,0,0,0],[9E9,9E9,9E9,9E9,9E9,9E9]], s_printSpeed, fine, tool0, \WObj:=ob_RRC_workplace;
        MoveL [[743.1, 563.4, 2.6],[-0.6292, -0.3227, -0.3227, 0.6292],[0,0,0,0],[9E9,9E9,9E9,9E9,9E9,9E9]], s_printSpeed, fine, tool0, \WObj:=ob_RRC_workplace;
        MoveL [[737.1, 573.7, 3.6],[-0.6513, -0.2754, -0.2754, 0.6513],[0,0,0,0],[9E9,9E9,9E9,9E9,9E9,9E9]], s_printSpeed, fine, tool0, \WObj:=ob_RRC_workplace;
        MoveL [[732.4, 584.7, 4.6],[0.6661, 0.2373, -0.2373, 0.6661],[0,0,0,0],[9E9,9E9,9E9,9E9,9E9,9E9]], s_printSpeed, fine, tool0, \WObj:=ob_RRC_workplace;
        MoveL [[727.8, 595.8, 5.7],[0.6757, 0.2085, -0.2085, 0.6757],[0,0,0,0],[9E9,9E9,9E9,9E9,9E9,9E9]], s_printSpeed, fine, tool0, \WObj:=ob_RRC_workplace;
        MoveL [[722.0, 606.2, 6.7],[0.6818, 0.1874, -0.1874, 0.6818],[0,0,0,0],[9E9,9E9,9E9,9E9,9E9,9E9]], s_printSpeed, fine, tool0, \WObj:=ob_RRC_workplace;
        MoveL [[713.3, 614.5, 7.5],[0.6854, 0.1738, -0.1738, 0.6854],[0,0,0,0],[9E9,9E9,9E9,9E9,9E9,9E9]], s_printSpeed, fine, tool0, \WObj:=ob_RRC_workplace;
        MoveL [[702.5, 619.6, 8.0],[0.6872, 0.1664, -0.1664, 0.6872],[0,0,0,0],[9E9,9E9,9E9,9E9,9E9,9E9]], s_printSpeed, fine, tool0, \WObj:=ob_RRC_workplace;
        MoveL [[691.2, 623.7, 8.4],[0.6885, 0.1611, -0.1611, 0.6885],[0,0,0,0],[9E9,9E9,9E9,9E9,9E9,9E9]], s_printSpeed, fine, tool0, \WObj:=ob_RRC_workplace;
        MoveL [[680.2, 628.5, 8.9],[0.6898, 0.1553, -0.1553, 0.6898],[0,0,0,0],[9E9,9E9,9E9,9E9,9E9,9E9]], s_printSpeed, fine, tool0, \WObj:=ob_RRC_workplace;
        MoveL [[670.5, 635.5, 9.6],[0.6915, 0.1478, -0.1478, 0.6915],[0,0,0,0],[9E9,9E9,9E9,9E9,9E9,9E9]], s_printSpeed, fine, tool0, \WObj:=ob_RRC_workplace;
        MoveL [[663.1, 644.9, 10.5],[0.6933, 0.1390, -0.1390, 0.6933],[0,0,0,0],[9E9,9E9,9E9,9E9,9E9,9E9]], s_printSpeed, fine, tool0, \WObj:=ob_RRC_workplace;
        MoveL [[657.7, 655.5, 11.5],[0.6950, 0.1305, -0.1305, 0.6950],[0,0,0,0],[9E9,9E9,9E9,9E9,9E9,9E9]], s_printSpeed, fine, tool0, \WObj:=ob_RRC_workplace;
        MoveL [[653.1, 666.6, 12.6],[0.6963, 0.1231, -0.1231, 0.6963],[0,0,0,0],[9E9,9E9,9E9,9E9,9E9,9E9]], s_printSpeed, fine, tool0, \WObj:=ob_RRC_workplace;
        MoveL [[648.6, 677.7, 13.6],[0.6974, 0.1166, -0.1166, 0.6974],[0,0,0,0],[9E9,9E9,9E9,9E9,9E9,9E9]], s_printSpeed, fine, tool0, \WObj:=ob_RRC_workplace;
        MoveL [[640.0, 686.0, 14.4],[0.6981, 0.1124, -0.1124, 0.6981],[0,0,0,0],[9E9,9E9,9E9,9E9,9E9,9E9]], s_printSpeed, fine, tool0, \WObj:=ob_RRC_workplace;
        MoveL [[632.0, 677.1, 13.6],[0.6974, 0.1170, -0.1170, 0.6974],[0,0,0,0],[9E9,9E9,9E9,9E9,9E9,9E9]], s_printSpeed, fine, tool0, \WObj:=ob_RRC_workplace;
        MoveL [[625.8, 666.8, 12.6],[0.6963, 0.1229, -0.1229, 0.6963],[0,0,0,0],[9E9,9E9,9E9,9E9,9E9,9E9]], s_printSpeed, fine, tool0, \WObj:=ob_RRC_workplace;
        MoveL [[619.6, 656.6, 11.6],[0.6951, 0.1298, -0.1298, 0.6951],[0,0,0,0],[9E9,9E9,9E9,9E9,9E9,9E9]], s_printSpeed, fine, tool0, \WObj:=ob_RRC_workplace;
        MoveL [[612.8, 646.8, 10.6],[0.6936, 0.1374, -0.1374, 0.6936],[0,0,0,0],[9E9,9E9,9E9,9E9,9E9,9E9]], s_printSpeed, fine, tool0, \WObj:=ob_RRC_workplace;
        MoveL [[604.9, 637.8, 9.8],[0.6920, 0.1455, -0.1455, 0.6920],[0,0,0,0],[9E9,9E9,9E9,9E9,9E9,9E9]], s_printSpeed, fine, tool0, \WObj:=ob_RRC_workplace;
        MoveL [[595.3, 630.7, 9.1],[0.6904, 0.1529, -0.1529, 0.6904],[0,0,0,0],[9E9,9E9,9E9,9E9,9E9,9E9]], s_printSpeed, fine, tool0, \WObj:=ob_RRC_workplace;
        MoveL [[584.4, 625.5, 8.6],[0.6890, 0.1589, -0.1589, 0.6890],[0,0,0,0],[9E9,9E9,9E9,9E9,9E9,9E9]], s_printSpeed, fine, tool0, \WObj:=ob_RRC_workplace;
        MoveL [[573.2, 621.2, 8.2],[0.6878, 0.1643, -0.1643, 0.6878],[0,0,0,0],[9E9,9E9,9E9,9E9,9E9,9E9]], s_printSpeed, fine, tool0, \WObj:=ob_RRC_workplace;
        MoveL [[562.3, 616.3, 7.7],[0.6861, 0.1711, -0.1711, 0.6861],[0,0,0,0],[9E9,9E9,9E9,9E9,9E9,9E9]], s_printSpeed, fine, tool0, \WObj:=ob_RRC_workplace;
        MoveL [[553.1, 608.6, 6.9],[0.6830, 0.1832, -0.1832, 0.6830],[0,0,0,0],[9E9,9E9,9E9,9E9,9E9,9E9]], s_printSpeed, fine, tool0, \WObj:=ob_RRC_workplace;
        MoveL [[546.9, 598.4, 6.0],[0.6774, 0.2027, -0.2027, 0.6774],[0,0,0,0],[9E9,9E9,9E9,9E9,9E9,9E9]], s_printSpeed, fine, tool0, \WObj:=ob_RRC_workplace;
        MoveL [[542.1, 587.4, 4.9],[0.6688, 0.2295, -0.2295, 0.6688],[0,0,0,0],[9E9,9E9,9E9,9E9,9E9,9E9]], s_printSpeed, fine, tool0, \WObj:=ob_RRC_workplace;
        MoveL [[537.4, 576.4, 3.8],[0.6556, 0.2650, -0.2650, 0.6556],[0,0,0,0],[9E9,9E9,9E9,9E9,9E9,9E9]], s_printSpeed, fine, tool0, \WObj:=ob_RRC_workplace;
        MoveL [[531.8, 565.9, 2.8],[-0.6355, -0.3100, -0.3100, 0.6355],[0,0,0,0],[9E9,9E9,9E9,9E9,9E9,9E9]], s_printSpeed, fine, tool0, \WObj:=ob_RRC_workplace;
        MoveL [[524.0, 556.8, 1.9],[-0.6086, -0.3601, -0.3601, 0.6086],[0,0,0,0],[9E9,9E9,9E9,9E9,9E9,9E9]], s_printSpeed, fine, tool0, \WObj:=ob_RRC_workplace;
        MoveL [[514.4, 549.6, 1.2],[-0.5784, -0.4068, -0.4068, 0.5784],[0,0,0,0],[9E9,9E9,9E9,9E9,9E9,9E9]], s_printSpeed, fine, tool0, \WObj:=ob_RRC_workplace;
        MoveL [[503.7, 544.2, 0.7],[-0.5489, -0.4458, -0.4458, 0.5489],[0,0,0,0],[9E9,9E9,9E9,9E9,9E9,9E9]], s_printSpeed, fine, tool0, \WObj:=ob_RRC_workplace;
        MoveL [[492.4, 540.1, 0.3],[-0.5226, -0.4763, -0.4763, 0.5226],[0,0,0,0],[9E9,9E9,9E9,9E9,9E9,9E9]], s_printSpeed, fine, tool0, \WObj:=ob_RRC_workplace;
        MoveL [[480.9, 536.9, 0.0],[-0.0000, 0.0000, 0.7071, -0.7071],[0,0,0,0],[9E9,9E9,9E9,9E9,9E9,9E9]], s_printSpeed, fine, tool0, \WObj:=ob_RRC_workplace;
    ! layer end
        MoveL [[783.6, 538.9, 0.2],[-0.5165, -0.4830, -0.4830, 0.5165],[0,0,0,0],[9E9,9E9,9E9,9E9,9E9,9E9]], s_printSpeed, fine, tool0, \WObj:=ob_RRC_workplace;
        MoveL [[772.2, 542.7, 0.6],[-0.5416, -0.4546, -0.4546, 0.5416],[0,0,0,0],[9E9,9E9,9E9,9E9,9E9,9E9]], s_printSpeed, fine, tool0, \WObj:=ob_RRC_workplace;
        MoveL [[761.3, 547.8, 1.2],[-0.5702, -0.4182, -0.4182, 0.5702],[0,0,0,0],[9E9,9E9,9E9,9E9,9E9,9E9]], s_printSpeed, fine, tool0, \WObj:=ob_RRC_workplace;
        MoveL [[751.3, 554.4, 1.9],[-0.6004, -0.3735, -0.3735, 0.6004],[0,0,0,0],[9E9,9E9,9E9,9E9,9E9,9E9]], s_printSpeed, fine, tool0, \WObj:=ob_RRC_workplace;
        MoveL [[743.1, 563.1, 2.8],[-0.6286, -0.3238, -0.3238, 0.6286],[0,0,0,0],[9E9,9E9,9E9,9E9,9E9,9E9]], s_printSpeed, fine, tool0, \WObj:=ob_RRC_workplace;
        MoveL [[737.1, 573.4, 3.9],[-0.6506, -0.2769, -0.2769, 0.6506],[0,0,0,0],[9E9,9E9,9E9,9E9,9E9,9E9]], s_printSpeed, fine, tool0, \WObj:=ob_RRC_workplace;
        MoveL [[732.4, 584.4, 5.1],[0.6654, 0.2392, -0.2392, 0.6654],[0,0,0,0],[9E9,9E9,9E9,9E9,9E9,9E9]], s_printSpeed, fine, tool0, \WObj:=ob_RRC_workplace;
        MoveL [[727.8, 595.4, 6.2],[0.6750, 0.2106, -0.2106, 0.6750],[0,0,0,0],[9E9,9E9,9E9,9E9,9E9,9E9]], s_printSpeed, fine, tool0, \WObj:=ob_RRC_workplace;
        MoveL [[722.0, 605.8, 7.3],[0.6812, 0.1897, -0.1897, 0.6812],[0,0,0,0],[9E9,9E9,9E9,9E9,9E9,9E9]], s_printSpeed, fine, tool0, \WObj:=ob_RRC_workplace;
        MoveL [[713.3, 614.1, 8.2],[0.6848, 0.1762, -0.1762, 0.6848],[0,0,0,0],[9E9,9E9,9E9,9E9,9E9,9E9]], s_printSpeed, fine, tool0, \WObj:=ob_RRC_workplace;
        MoveL [[702.5, 619.3, 8.7],[0.6866, 0.1689, -0.1689, 0.6866],[0,0,0,0],[9E9,9E9,9E9,9E9,9E9,9E9]], s_printSpeed, fine, tool0, \WObj:=ob_RRC_workplace;
        MoveL [[691.2, 623.3, 9.2],[0.6879, 0.1636, -0.1636, 0.6879],[0,0,0,0],[9E9,9E9,9E9,9E9,9E9,9E9]], s_printSpeed, fine, tool0, \WObj:=ob_RRC_workplace;
        MoveL [[680.2, 628.1, 9.7],[0.6892, 0.1579, -0.1579, 0.6892],[0,0,0,0],[9E9,9E9,9E9,9E9,9E9,9E9]], s_printSpeed, fine, tool0, \WObj:=ob_RRC_workplace;
        MoveL [[670.5, 635.1, 10.4],[0.6909, 0.1505, -0.1505, 0.6909],[0,0,0,0],[9E9,9E9,9E9,9E9,9E9,9E9]], s_printSpeed, fine, tool0, \WObj:=ob_RRC_workplace;
        MoveL [[663.1, 644.5, 11.4],[0.6928, 0.1417, -0.1417, 0.6928],[0,0,0,0],[9E9,9E9,9E9,9E9,9E9,9E9]], s_printSpeed, fine, tool0, \WObj:=ob_RRC_workplace;
        MoveL [[657.7, 655.1, 12.5],[0.6944, 0.1333, -0.1333, 0.6944],[0,0,0,0],[9E9,9E9,9E9,9E9,9E9,9E9]], s_printSpeed, fine, tool0, \WObj:=ob_RRC_workplace;
        MoveL [[653.1, 666.2, 13.7],[0.6958, 0.1259, -0.1259, 0.6958],[0,0,0,0],[9E9,9E9,9E9,9E9,9E9,9E9]], s_printSpeed, fine, tool0, \WObj:=ob_RRC_workplace;
        MoveL [[648.6, 677.2, 14.9],[0.6969, 0.1195, -0.1195, 0.6969],[0,0,0,0],[9E9,9E9,9E9,9E9,9E9,9E9]], s_printSpeed, fine, tool0, \WObj:=ob_RRC_workplace;
        MoveL [[640.0, 685.5, 15.8],[0.6976, 0.1153, -0.1153, 0.6976],[0,0,0,0],[9E9,9E9,9E9,9E9,9E9,9E9]], s_printSpeed, fine, tool0, \WObj:=ob_RRC_workplace;
        MoveL [[632.0, 676.6, 14.8],[0.6969, 0.1198, -0.1198, 0.6969],[0,0,0,0],[9E9,9E9,9E9,9E9,9E9,9E9]], s_printSpeed, fine, tool0, \WObj:=ob_RRC_workplace;
        MoveL [[625.8, 666.4, 13.7],[0.6958, 0.1257, -0.1257, 0.6958],[0,0,0,0],[9E9,9E9,9E9,9E9,9E9,9E9]], s_printSpeed, fine, tool0, \WObj:=ob_RRC_workplace;
        MoveL [[619.6, 656.2, 12.7],[0.6946, 0.1325, -0.1325, 0.6946],[0,0,0,0],[9E9,9E9,9E9,9E9,9E9,9E9]], s_printSpeed, fine, tool0, \WObj:=ob_RRC_workplace;
        MoveL [[612.8, 646.4, 11.6],[0.6931, 0.1401, -0.1401, 0.6931],[0,0,0,0],[9E9,9E9,9E9,9E9,9E9,9E9]], s_printSpeed, fine, tool0, \WObj:=ob_RRC_workplace;
        MoveL [[604.9, 637.4, 10.7],[0.6914, 0.1482, -0.1482, 0.6914],[0,0,0,0],[9E9,9E9,9E9,9E9,9E9,9E9]], s_printSpeed, fine, tool0, \WObj:=ob_RRC_workplace;
        MoveL [[595.3, 630.3, 9.9],[0.6898, 0.1555, -0.1555, 0.6898],[0,0,0,0],[9E9,9E9,9E9,9E9,9E9,9E9]], s_printSpeed, fine, tool0, \WObj:=ob_RRC_workplace;
        MoveL [[584.4, 625.1, 9.4],[0.6884, 0.1614, -0.1614, 0.6884],[0,0,0,0],[9E9,9E9,9E9,9E9,9E9,9E9]], s_printSpeed, fine, tool0, \WObj:=ob_RRC_workplace;
        MoveL [[573.2, 620.9, 8.9],[0.6872, 0.1668, -0.1668, 0.6872],[0,0,0,0],[9E9,9E9,9E9,9E9,9E9,9E9]], s_printSpeed, fine, tool0, \WObj:=ob_RRC_workplace;
        MoveL [[562.3, 615.9, 8.4],[0.6855, 0.1736, -0.1736, 0.6855],[0,0,0,0],[9E9,9E9,9E9,9E9,9E9,9E9]], s_printSpeed, fine, tool0, \WObj:=ob_RRC_workplace;
        MoveL [[553.1, 608.2, 7.6],[0.6823, 0.1856, -0.1856, 0.6823],[0,0,0,0],[9E9,9E9,9E9,9E9,9E9,9E9]], s_printSpeed, fine, tool0, \WObj:=ob_RRC_workplace;
        MoveL [[546.9, 598.0, 6.5],[0.6768, 0.2049, -0.2049, 0.6768],[0,0,0,0],[9E9,9E9,9E9,9E9,9E9,9E9]], s_printSpeed, fine, tool0, \WObj:=ob_RRC_workplace;
        MoveL [[542.1, 587.1, 5.3],[0.6682, 0.2314, -0.2314, 0.6682],[0,0,0,0],[9E9,9E9,9E9,9E9,9E9,9E9]], s_printSpeed, fine, tool0, \WObj:=ob_RRC_workplace;
        MoveL [[537.4, 576.1, 4.2],[0.6549, 0.2666, -0.2666, 0.6549],[0,0,0,0],[9E9,9E9,9E9,9E9,9E9,9E9]], s_printSpeed, fine, tool0, \WObj:=ob_RRC_workplace;
        MoveL [[531.8, 565.6, 3.1],[-0.6350, -0.3112, -0.3112, 0.6350],[0,0,0,0],[9E9,9E9,9E9,9E9,9E9,9E9]], s_printSpeed, fine, tool0, \WObj:=ob_RRC_workplace;
        MoveL [[524.0, 556.5, 2.1],[-0.6081, -0.3608, -0.3608, 0.6081],[0,0,0,0],[9E9,9E9,9E9,9E9,9E9,9E9]], s_printSpeed, fine, tool0, \WObj:=ob_RRC_workplace;
        MoveL [[514.4, 549.3, 1.3],[-0.5781, -0.4072, -0.4072, 0.5781],[0,0,0,0],[9E9,9E9,9E9,9E9,9E9,9E9]], s_printSpeed, fine, tool0, \WObj:=ob_RRC_workplace;
        MoveL [[503.7, 543.9, 0.8],[-0.5488, -0.4459, -0.4459, 0.5488],[0,0,0,0],[9E9,9E9,9E9,9E9,9E9,9E9]], s_printSpeed, fine, tool0, \WObj:=ob_RRC_workplace;
        MoveL [[492.4, 539.8, 0.3],[-0.5226, -0.4764, -0.4764, 0.5226],[0,0,0,0],[9E9,9E9,9E9,9E9,9E9,9E9]], s_printSpeed, fine, tool0, \WObj:=ob_RRC_workplace;
        MoveL [[480.9, 536.6, 0.0],[0.0000, -0.0000, 0.7071, -0.7071],[0,0,0,0],[9E9,9E9,9E9,9E9,9E9,9E9]], s_printSpeed, fine, tool0, \WObj:=ob_RRC_workplace;
    ! layer end
        MoveL [[783.6, 538.6, 0.3],[-0.5164, -0.4830, -0.4830, 0.5164],[0,0,0,0],[9E9,9E9,9E9,9E9,9E9,9E9]], s_printSpeed, fine, tool0, \WObj:=ob_RRC_workplace;
        MoveL [[772.2, 542.4, 0.7],[-0.5415, -0.4547, -0.4547, 0.5415],[0,0,0,0],[9E9,9E9,9E9,9E9,9E9,9E9]], s_printSpeed, fine, tool0, \WObj:=ob_RRC_workplace;
        MoveL [[761.3, 547.4, 1.3],[-0.5700, -0.4185, -0.4185, 0.5700],[0,0,0,0],[9E9,9E9,9E9,9E9,9E9,9E9]], s_printSpeed, fine, tool0, \WObj:=ob_RRC_workplace;
        MoveL [[751.3, 554.1, 2.0],[-0.6000, -0.3741, -0.3741, 0.6000],[0,0,0,0],[9E9,9E9,9E9,9E9,9E9,9E9]], s_printSpeed, fine, tool0, \WObj:=ob_RRC_workplace;
        MoveL [[743.1, 562.7, 3.0],[-0.6281, -0.3249, -0.3249, 0.6281],[0,0,0,0],[9E9,9E9,9E9,9E9,9E9,9E9]], s_printSpeed, fine, tool0, \WObj:=ob_RRC_workplace;
        MoveL [[737.1, 573.0, 4.2],[-0.6500, -0.2784, -0.2784, 0.6500],[0,0,0,0],[9E9,9E9,9E9,9E9,9E9,9E9]], s_printSpeed, fine, tool0, \WObj:=ob_RRC_workplace;
        MoveL [[732.4, 584.0, 5.5],[0.6647, 0.2411, -0.2411, 0.6647],[0,0,0,0],[9E9,9E9,9E9,9E9,9E9,9E9]], s_printSpeed, fine, tool0, \WObj:=ob_RRC_workplace;
        MoveL [[727.8, 595.0, 6.7],[0.6743, 0.2128, -0.2128, 0.6743],[0,0,0,0],[9E9,9E9,9E9,9E9,9E9,9E9]], s_printSpeed, fine, tool0, \WObj:=ob_RRC_workplace;
        MoveL [[722.0, 605.5, 7.9],[0.6805, 0.1921, -0.1921, 0.6805],[0,0,0,0],[9E9,9E9,9E9,9E9,9E9,9E9]], s_printSpeed, fine, tool0, \WObj:=ob_RRC_workplace;
        MoveL [[713.3, 613.7, 8.9],[0.6842, 0.1787, -0.1787, 0.6842],[0,0,0,0],[9E9,9E9,9E9,9E9,9E9,9E9]], s_printSpeed, fine, tool0, \WObj:=ob_RRC_workplace;
        MoveL [[702.5, 618.9, 9.5],[0.6860, 0.1714, -0.1714, 0.6860],[0,0,0,0],[9E9,9E9,9E9,9E9,9E9,9E9]], s_printSpeed, fine, tool0, \WObj:=ob_RRC_workplace;
        MoveL [[691.2, 622.9, 9.9],[0.6873, 0.1662, -0.1662, 0.6873],[0,0,0,0],[9E9,9E9,9E9,9E9,9E9,9E9]], s_printSpeed, fine, tool0, \WObj:=ob_RRC_workplace;
        MoveL [[680.2, 627.7, 10.5],[0.6886, 0.1605, -0.1605, 0.6886],[0,0,0,0],[9E9,9E9,9E9,9E9,9E9,9E9]], s_printSpeed, fine, tool0, \WObj:=ob_RRC_workplace;
        MoveL [[670.5, 634.7, 11.3],[0.6903, 0.1531, -0.1531, 0.6903],[0,0,0,0],[9E9,9E9,9E9,9E9,9E9,9E9]], s_printSpeed, fine, tool0, \WObj:=ob_RRC_workplace;
        MoveL [[663.1, 644.1, 12.4],[0.6922, 0.1444, -0.1444, 0.6922],[0,0,0,0],[9E9,9E9,9E9,9E9,9E9,9E9]], s_printSpeed, fine, tool0, \WObj:=ob_RRC_workplace;
        MoveL [[657.7, 654.7, 13.6],[0.6939, 0.1360, -0.1360, 0.6939],[0,0,0,0],[9E9,9E9,9E9,9E9,9E9,9E9]], s_printSpeed, fine, tool0, \WObj:=ob_RRC_workplace;
        MoveL [[653.1, 665.7, 14.8],[0.6953, 0.1286, -0.1286, 0.6953],[0,0,0,0],[9E9,9E9,9E9,9E9,9E9,9E9]], s_printSpeed, fine, tool0, \WObj:=ob_RRC_workplace;
        MoveL [[648.6, 676.8, 16.1],[0.6965, 0.1223, -0.1223, 0.6965],[0,0,0,0],[9E9,9E9,9E9,9E9,9E9,9E9]], s_printSpeed, fine, tool0, \WObj:=ob_RRC_workplace;
        MoveL [[640.0, 685.1, 17.1],[0.6972, 0.1181, -0.1181, 0.6972],[0,0,0,0],[9E9,9E9,9E9,9E9,9E9,9E9]], s_printSpeed, fine, tool0, \WObj:=ob_RRC_workplace;
        MoveL [[632.0, 676.2, 16.0],[0.6964, 0.1226, -0.1226, 0.6964],[0,0,0,0],[9E9,9E9,9E9,9E9,9E9,9E9]], s_printSpeed, fine, tool0, \WObj:=ob_RRC_workplace;
        MoveL [[625.8, 666.0, 14.9],[0.6953, 0.1285, -0.1285, 0.6953],[0,0,0,0],[9E9,9E9,9E9,9E9,9E9,9E9]], s_printSpeed, fine, tool0, \WObj:=ob_RRC_workplace;
        MoveL [[619.6, 655.8, 13.7],[0.6940, 0.1353, -0.1353, 0.6940],[0,0,0,0],[9E9,9E9,9E9,9E9,9E9,9E9]], s_printSpeed, fine, tool0, \WObj:=ob_RRC_workplace;
        MoveL [[612.8, 645.9, 12.6],[0.6925, 0.1428, -0.1428, 0.6925],[0,0,0,0],[9E9,9E9,9E9,9E9,9E9,9E9]], s_printSpeed, fine, tool0, \WObj:=ob_RRC_workplace;
        MoveL [[604.9, 637.0, 11.5],[0.6908, 0.1508, -0.1508, 0.6908],[0,0,0,0],[9E9,9E9,9E9,9E9,9E9,9E9]], s_printSpeed, fine, tool0, \WObj:=ob_RRC_workplace;
        MoveL [[595.3, 629.9, 10.7],[0.6892, 0.1581, -0.1581, 0.6892],[0,0,0,0],[9E9,9E9,9E9,9E9,9E9,9E9]], s_printSpeed, fine, tool0, \WObj:=ob_RRC_workplace;
        MoveL [[584.4, 624.7, 10.1],[0.6878, 0.1640, -0.1640, 0.6878],[0,0,0,0],[9E9,9E9,9E9,9E9,9E9,9E9]], s_printSpeed, fine, tool0, \WObj:=ob_RRC_workplace;
        MoveL [[573.2, 620.5, 9.7],[0.6865, 0.1693, -0.1693, 0.6865],[0,0,0,0],[9E9,9E9,9E9,9E9,9E9,9E9]], s_printSpeed, fine, tool0, \WObj:=ob_RRC_workplace;
        MoveL [[562.3, 615.5, 9.1],[0.6848, 0.1761, -0.1761, 0.6848],[0,0,0,0],[9E9,9E9,9E9,9E9,9E9,9E9]], s_printSpeed, fine, tool0, \WObj:=ob_RRC_workplace;
        MoveL [[553.1, 607.8, 8.2],[0.6817, 0.1880, -0.1880, 0.6817],[0,0,0,0],[9E9,9E9,9E9,9E9,9E9,9E9]], s_printSpeed, fine, tool0, \WObj:=ob_RRC_workplace;
        MoveL [[546.9, 597.7, 7.0],[0.6761, 0.2071, -0.2071, 0.6761],[0,0,0,0],[9E9,9E9,9E9,9E9,9E9,9E9]], s_printSpeed, fine, tool0, \WObj:=ob_RRC_workplace;
        MoveL [[542.1, 586.7, 5.8],[0.6675, 0.2334, -0.2334, 0.6675],[0,0,0,0],[9E9,9E9,9E9,9E9,9E9,9E9]], s_printSpeed, fine, tool0, \WObj:=ob_RRC_workplace;
        MoveL [[537.4, 575.8, 4.5],[0.6543, 0.2682, -0.2682, 0.6543],[0,0,0,0],[9E9,9E9,9E9,9E9,9E9,9E9]], s_printSpeed, fine, tool0, \WObj:=ob_RRC_workplace;
        MoveL [[531.8, 565.2, 3.3],[-0.6344, -0.3124, -0.3124, 0.6344],[0,0,0,0],[9E9,9E9,9E9,9E9,9E9,9E9]], s_printSpeed, fine, tool0, \WObj:=ob_RRC_workplace;
        MoveL [[524.0, 556.1, 2.3],[-0.6077, -0.3615, -0.3615, 0.6077],[0,0,0,0],[9E9,9E9,9E9,9E9,9E9,9E9]], s_printSpeed, fine, tool0, \WObj:=ob_RRC_workplace;
        MoveL [[514.4, 549.0, 1.5],[-0.5778, -0.4076, -0.4076, 0.5778],[0,0,0,0],[9E9,9E9,9E9,9E9,9E9,9E9]], s_printSpeed, fine, tool0, \WObj:=ob_RRC_workplace;
        MoveL [[503.7, 543.6, 0.8],[-0.5486, -0.4461, -0.4461, 0.5486],[0,0,0,0],[9E9,9E9,9E9,9E9,9E9,9E9]], s_printSpeed, fine, tool0, \WObj:=ob_RRC_workplace;
        MoveL [[492.4, 539.5, 0.4],[-0.5225, -0.4764, -0.4764, 0.5225],[0,0,0,0],[9E9,9E9,9E9,9E9,9E9,9E9]], s_printSpeed, fine, tool0, \WObj:=ob_RRC_workplace;
        MoveL [[480.9, 536.3, 0.0],[-0.5000, -0.5000, -0.5000, 0.5000],[0,0,0,0],[9E9,9E9,9E9,9E9,9E9,9E9]], s_printSpeed, fine, tool0, \WObj:=ob_RRC_workplace;
    ! layer end
        MoveL [[783.6, 538.3, 0.3],[-0.5164, -0.4830, -0.4830, 0.5164],[0,0,0,0],[9E9,9E9,9E9,9E9,9E9,9E9]], s_printSpeed, fine, tool0, \WObj:=ob_RRC_workplace;
        MoveL [[772.2, 542.1, 0.8],[-0.5414, -0.4548, -0.4548, 0.5414],[0,0,0,0],[9E9,9E9,9E9,9E9,9E9,9E9]], s_printSpeed, fine, tool0, \WObj:=ob_RRC_workplace;
        MoveL [[761.3, 547.1, 1.4],[-0.5697, -0.4188, -0.4188, 0.5697],[0,0,0,0],[9E9,9E9,9E9,9E9,9E9,9E9]], s_printSpeed, fine, tool0, \WObj:=ob_RRC_workplace;
        MoveL [[751.3, 553.8, 2.2],[-0.5996, -0.3747, -0.3747, 0.5996],[0,0,0,0],[9E9,9E9,9E9,9E9,9E9,9E9]], s_printSpeed, fine, tool0, \WObj:=ob_RRC_workplace;
        MoveL [[743.1, 562.4, 3.3],[-0.6275, -0.3259, -0.3259, 0.6275],[0,0,0,0],[9E9,9E9,9E9,9E9,9E9,9E9]], s_printSpeed, fine, tool0, \WObj:=ob_RRC_workplace;
        MoveL [[737.1, 572.7, 4.5],[-0.6493, -0.2800, -0.2800, 0.6493],[0,0,0,0],[9E9,9E9,9E9,9E9,9E9,9E9]], s_printSpeed, fine, tool0, \WObj:=ob_RRC_workplace;
        MoveL [[732.4, 583.7, 5.9],[0.6640, 0.2430, -0.2430, 0.6640],[0,0,0,0],[9E9,9E9,9E9,9E9,9E9,9E9]], s_printSpeed, fine, tool0, \WObj:=ob_RRC_workplace;
        MoveL [[727.8, 594.7, 7.3],[0.6736, 0.2149, -0.2149, 0.6736],[0,0,0,0],[9E9,9E9,9E9,9E9,9E9,9E9]], s_printSpeed, fine, tool0, \WObj:=ob_RRC_workplace;
        MoveL [[722.0, 605.1, 8.5],[0.6799, 0.1944, -0.1944, 0.6799],[0,0,0,0],[9E9,9E9,9E9,9E9,9E9,9E9]], s_printSpeed, fine, tool0, \WObj:=ob_RRC_workplace;
        MoveL [[713.3, 613.3, 9.6],[0.6835, 0.1811, -0.1811, 0.6835],[0,0,0,0],[9E9,9E9,9E9,9E9,9E9,9E9]], s_printSpeed, fine, tool0, \WObj:=ob_RRC_workplace;
        MoveL [[702.5, 618.5, 10.2],[0.6854, 0.1739, -0.1739, 0.6854],[0,0,0,0],[9E9,9E9,9E9,9E9,9E9,9E9]], s_printSpeed, fine, tool0, \WObj:=ob_RRC_workplace;
        MoveL [[691.2, 622.6, 10.7],[0.6867, 0.1687, -0.1687, 0.6867],[0,0,0,0],[9E9,9E9,9E9,9E9,9E9,9E9]], s_printSpeed, fine, tool0, \WObj:=ob_RRC_workplace;
        MoveL [[680.2, 627.3, 11.3],[0.6880, 0.1631, -0.1631, 0.6880],[0,0,0,0],[9E9,9E9,9E9,9E9,9E9,9E9]], s_printSpeed, fine, tool0, \WObj:=ob_RRC_workplace;
        MoveL [[670.5, 634.3, 12.1],[0.6897, 0.1557, -0.1557, 0.6897],[0,0,0,0],[9E9,9E9,9E9,9E9,9E9,9E9]], s_printSpeed, fine, tool0, \WObj:=ob_RRC_workplace;
        MoveL [[663.1, 643.7, 13.3],[0.6916, 0.1471, -0.1471, 0.6916],[0,0,0,0],[9E9,9E9,9E9,9E9,9E9,9E9]], s_printSpeed, fine, tool0, \WObj:=ob_RRC_workplace;
        MoveL [[657.7, 654.3, 14.6],[0.6934, 0.1388, -0.1388, 0.6934],[0,0,0,0],[9E9,9E9,9E9,9E9,9E9,9E9]], s_printSpeed, fine, tool0, \WObj:=ob_RRC_workplace;
        MoveL [[653.1, 665.3, 16.0],[0.6948, 0.1314, -0.1314, 0.6948],[0,0,0,0],[9E9,9E9,9E9,9E9,9E9,9E9]], s_printSpeed, fine, tool0, \WObj:=ob_RRC_workplace;
        MoveL [[648.6, 676.4, 17.3],[0.6959, 0.1251, -0.1251, 0.6959],[0,0,0,0],[9E9,9E9,9E9,9E9,9E9,9E9]], s_printSpeed, fine, tool0, \WObj:=ob_RRC_workplace;
        MoveL [[640.0, 684.6, 18.4],[0.6967, 0.1209, -0.1209, 0.6967],[0,0,0,0],[9E9,9E9,9E9,9E9,9E9,9E9]], s_printSpeed, fine, tool0, \WObj:=ob_RRC_workplace;
        MoveL [[632.0, 675.8, 17.3],[0.6959, 0.1254, -0.1254, 0.6959],[0,0,0,0],[9E9,9E9,9E9,9E9,9E9,9E9]], s_printSpeed, fine, tool0, \WObj:=ob_RRC_workplace;
        MoveL [[625.8, 665.6, 16.0],[0.6948, 0.1313, -0.1313, 0.6948],[0,0,0,0],[9E9,9E9,9E9,9E9,9E9,9E9]], s_printSpeed, fine, tool0, \WObj:=ob_RRC_workplace;
        MoveL [[619.6, 655.4, 14.7],[0.6935, 0.1380, -0.1380, 0.6935],[0,0,0,0],[9E9,9E9,9E9,9E9,9E9,9E9]], s_printSpeed, fine, tool0, \WObj:=ob_RRC_workplace;
        MoveL [[612.8, 645.5, 13.5],[0.6920, 0.1455, -0.1455, 0.6920],[0,0,0,0],[9E9,9E9,9E9,9E9,9E9,9E9]], s_printSpeed, fine, tool0, \WObj:=ob_RRC_workplace;
        MoveL [[604.9, 636.6, 12.4],[0.6903, 0.1535, -0.1535, 0.6903],[0,0,0,0],[9E9,9E9,9E9,9E9,9E9,9E9]], s_printSpeed, fine, tool0, \WObj:=ob_RRC_workplace;
        MoveL [[595.3, 629.5, 11.6],[0.6886, 0.1607, -0.1607, 0.6886],[0,0,0,0],[9E9,9E9,9E9,9E9,9E9,9E9]], s_printSpeed, fine, tool0, \WObj:=ob_RRC_workplace;
        MoveL [[584.4, 624.3, 10.9],[0.6872, 0.1665, -0.1665, 0.6872],[0,0,0,0],[9E9,9E9,9E9,9E9,9E9,9E9]], s_printSpeed, fine, tool0, \WObj:=ob_RRC_workplace;
        MoveL [[573.2, 620.1, 10.4],[0.6859, 0.1718, -0.1718, 0.6859],[0,0,0,0],[9E9,9E9,9E9,9E9,9E9,9E9]], s_printSpeed, fine, tool0, \WObj:=ob_RRC_workplace;
        MoveL [[562.3, 615.1, 9.8],[0.6842, 0.1785, -0.1785, 0.6842],[0,0,0,0],[9E9,9E9,9E9,9E9,9E9,9E9]], s_printSpeed, fine, tool0, \WObj:=ob_RRC_workplace;
        MoveL [[553.1, 607.5, 8.8],[0.6810, 0.1903, -0.1903, 0.6810],[0,0,0,0],[9E9,9E9,9E9,9E9,9E9,9E9]], s_printSpeed, fine, tool0, \WObj:=ob_RRC_workplace;
        MoveL [[546.9, 597.3, 7.6],[0.6754, 0.2093, -0.2093, 0.6754],[0,0,0,0],[9E9,9E9,9E9,9E9,9E9,9E9]], s_printSpeed, fine, tool0, \WObj:=ob_RRC_workplace;
        MoveL [[542.1, 586.4, 6.2],[0.6668, 0.2353, -0.2353, 0.6668],[0,0,0,0],[9E9,9E9,9E9,9E9,9E9,9E9]], s_printSpeed, fine, tool0, \WObj:=ob_RRC_workplace;
        MoveL [[537.4, 575.4, 4.9],[0.6536, 0.2698, -0.2698, 0.6536],[0,0,0,0],[9E9,9E9,9E9,9E9,9E9,9E9]], s_printSpeed, fine, tool0, \WObj:=ob_RRC_workplace;
        MoveL [[531.8, 564.9, 3.6],[-0.6338, -0.3136, -0.3136, 0.6338],[0,0,0,0],[9E9,9E9,9E9,9E9,9E9,9E9]], s_printSpeed, fine, tool0, \WObj:=ob_RRC_workplace;
        MoveL [[524.0, 555.8, 2.4],[-0.6073, -0.3623, -0.3623, 0.6073],[0,0,0,0],[9E9,9E9,9E9,9E9,9E9,9E9]], s_printSpeed, fine, tool0, \WObj:=ob_RRC_workplace;
        MoveL [[514.4, 548.7, 1.6],[-0.5776, -0.4080, -0.4080, 0.5776],[0,0,0,0],[9E9,9E9,9E9,9E9,9E9,9E9]], s_printSpeed, fine, tool0, \WObj:=ob_RRC_workplace;
        MoveL [[503.7, 543.3, 0.9],[-0.5485, -0.4462, -0.4462, 0.5485],[0,0,0,0],[9E9,9E9,9E9,9E9,9E9,9E9]], s_printSpeed, fine, tool0, \WObj:=ob_RRC_workplace;
        MoveL [[492.4, 539.2, 0.4],[-0.5225, -0.4765, -0.4765, 0.5225],[0,0,0,0],[9E9,9E9,9E9,9E9,9E9,9E9]], s_printSpeed, fine, tool0, \WObj:=ob_RRC_workplace;
        MoveL [[480.9, 536.0, 0.0],[0.5000, 0.5000, 0.5000, -0.5000],[0,0,0,0],[9E9,9E9,9E9,9E9,9E9,9E9]], s_printSpeed, fine, tool0, \WObj:=ob_RRC_workplace;
    ! layer end
        MoveL [[783.6, 538.0, 0.3],[-0.5164, -0.4831, -0.4831, 0.5164],[0,0,0,0],[9E9,9E9,9E9,9E9,9E9,9E9]], s_printSpeed, fine, tool0, \WObj:=ob_RRC_workplace;
        MoveL [[772.2, 541.8, 0.8],[-0.5413, -0.4550, -0.4550, 0.5413],[0,0,0,0],[9E9,9E9,9E9,9E9,9E9,9E9]], s_printSpeed, fine, tool0, \WObj:=ob_RRC_workplace;
        MoveL [[761.3, 546.8, 1.5],[-0.5695, -0.4191, -0.4191, 0.5695],[0,0,0,0],[9E9,9E9,9E9,9E9,9E9,9E9]], s_printSpeed, fine, tool0, \WObj:=ob_RRC_workplace;
        MoveL [[751.3, 553.5, 2.4],[-0.5992, -0.3754, -0.3754, 0.5992],[0,0,0,0],[9E9,9E9,9E9,9E9,9E9,9E9]], s_printSpeed, fine, tool0, \WObj:=ob_RRC_workplace;
        MoveL [[743.1, 562.1, 3.5],[-0.6269, -0.3270, -0.3270, 0.6269],[0,0,0,0],[9E9,9E9,9E9,9E9,9E9,9E9]], s_printSpeed, fine, tool0, \WObj:=ob_RRC_workplace;
        MoveL [[737.1, 572.4, 4.9],[-0.6487, -0.2815, -0.2815, 0.6487],[0,0,0,0],[9E9,9E9,9E9,9E9,9E9,9E9]], s_printSpeed, fine, tool0, \WObj:=ob_RRC_workplace;
        MoveL [[732.4, 583.3, 6.3],[0.6634, 0.2449, -0.2449, 0.6634],[0,0,0,0],[9E9,9E9,9E9,9E9,9E9,9E9]], s_printSpeed, fine, tool0, \WObj:=ob_RRC_workplace;
        MoveL [[727.8, 594.3, 7.8],[0.6730, 0.2171, -0.2171, 0.6730],[0,0,0,0],[9E9,9E9,9E9,9E9,9E9,9E9]], s_printSpeed, fine, tool0, \WObj:=ob_RRC_workplace;
        MoveL [[722.0, 604.7, 9.1],[0.6792, 0.1967, -0.1967, 0.6792],[0,0,0,0],[9E9,9E9,9E9,9E9,9E9,9E9]], s_printSpeed, fine, tool0, \WObj:=ob_RRC_workplace;
        MoveL [[713.3, 613.0, 10.2],[0.6829, 0.1835, -0.1835, 0.6829],[0,0,0,0],[9E9,9E9,9E9,9E9,9E9,9E9]], s_printSpeed, fine, tool0, \WObj:=ob_RRC_workplace;
        MoveL [[702.5, 618.1, 10.9],[0.6848, 0.1764, -0.1764, 0.6848],[0,0,0,0],[9E9,9E9,9E9,9E9,9E9,9E9]], s_printSpeed, fine, tool0, \WObj:=ob_RRC_workplace;
        MoveL [[691.2, 622.2, 11.5],[0.6861, 0.1712, -0.1712, 0.6861],[0,0,0,0],[9E9,9E9,9E9,9E9,9E9,9E9]], s_printSpeed, fine, tool0, \WObj:=ob_RRC_workplace;
        MoveL [[680.2, 626.9, 12.1],[0.6874, 0.1656, -0.1656, 0.6874],[0,0,0,0],[9E9,9E9,9E9,9E9,9E9,9E9]], s_printSpeed, fine, tool0, \WObj:=ob_RRC_workplace;
        MoveL [[670.5, 633.9, 13.0],[0.6891, 0.1584, -0.1584, 0.6891],[0,0,0,0],[9E9,9E9,9E9,9E9,9E9,9E9]], s_printSpeed, fine, tool0, \WObj:=ob_RRC_workplace;
        MoveL [[663.1, 643.3, 14.3],[0.6911, 0.1498, -0.1498, 0.6911],[0,0,0,0],[9E9,9E9,9E9,9E9,9E9,9E9]], s_printSpeed, fine, tool0, \WObj:=ob_RRC_workplace;
        MoveL [[657.7, 653.9, 15.7],[0.6928, 0.1415, -0.1415, 0.6928],[0,0,0,0],[9E9,9E9,9E9,9E9,9E9,9E9]], s_printSpeed, fine, tool0, \WObj:=ob_RRC_workplace;
        MoveL [[653.1, 664.9, 17.1],[0.6943, 0.1342, -0.1342, 0.6943],[0,0,0,0],[9E9,9E9,9E9,9E9,9E9,9E9]], s_printSpeed, fine, tool0, \WObj:=ob_RRC_workplace;
        MoveL [[648.6, 675.9, 18.6],[0.6954, 0.1279, -0.1279, 0.6954],[0,0,0,0],[9E9,9E9,9E9,9E9,9E9,9E9]], s_printSpeed, fine, tool0, \WObj:=ob_RRC_workplace;
        MoveL [[640.0, 684.2, 19.7],[0.6962, 0.1238, -0.1238, 0.6962],[0,0,0,0],[9E9,9E9,9E9,9E9,9E9,9E9]], s_printSpeed, fine, tool0, \WObj:=ob_RRC_workplace;
        MoveL [[632.0, 675.3, 18.5],[0.6954, 0.1282, -0.1282, 0.6954],[0,0,0,0],[9E9,9E9,9E9,9E9,9E9,9E9]], s_printSpeed, fine, tool0, \WObj:=ob_RRC_workplace;
        MoveL [[625.8, 665.1, 17.1],[0.6943, 0.1340, -0.1340, 0.6943],[0,0,0,0],[9E9,9E9,9E9,9E9,9E9,9E9]], s_printSpeed, fine, tool0, \WObj:=ob_RRC_workplace;
        MoveL [[619.6, 654.9, 15.8],[0.6930, 0.1407, -0.1407, 0.6930],[0,0,0,0],[9E9,9E9,9E9,9E9,9E9,9E9]], s_printSpeed, fine, tool0, \WObj:=ob_RRC_workplace;
        MoveL [[612.8, 645.1, 14.5],[0.6914, 0.1482, -0.1482, 0.6914],[0,0,0,0],[9E9,9E9,9E9,9E9,9E9,9E9]], s_printSpeed, fine, tool0, \WObj:=ob_RRC_workplace;
        MoveL [[604.9, 636.2, 13.3],[0.6897, 0.1561, -0.1561, 0.6897],[0,0,0,0],[9E9,9E9,9E9,9E9,9E9,9E9]], s_printSpeed, fine, tool0, \WObj:=ob_RRC_workplace;
        MoveL [[595.3, 629.1, 12.4],[0.6880, 0.1633, -0.1633, 0.6880],[0,0,0,0],[9E9,9E9,9E9,9E9,9E9,9E9]], s_printSpeed, fine, tool0, \WObj:=ob_RRC_workplace;
        MoveL [[584.4, 623.9, 11.7],[0.6866, 0.1691, -0.1691, 0.6866],[0,0,0,0],[9E9,9E9,9E9,9E9,9E9,9E9]], s_printSpeed, fine, tool0, \WObj:=ob_RRC_workplace;
        MoveL [[573.2, 619.7, 11.1],[0.6853, 0.1743, -0.1743, 0.6853],[0,0,0,0],[9E9,9E9,9E9,9E9,9E9,9E9]], s_printSpeed, fine, tool0, \WObj:=ob_RRC_workplace;
        MoveL [[562.3, 614.7, 10.5],[0.6836, 0.1810, -0.1810, 0.6836],[0,0,0,0],[9E9,9E9,9E9,9E9,9E9,9E9]], s_printSpeed, fine, tool0, \WObj:=ob_RRC_workplace;
        MoveL [[553.1, 607.1, 9.5],[0.6803, 0.1927, -0.1927, 0.6803],[0,0,0,0],[9E9,9E9,9E9,9E9,9E9,9E9]], s_printSpeed, fine, tool0, \WObj:=ob_RRC_workplace;
        MoveL [[546.9, 596.9, 8.1],[0.6747, 0.2115, -0.2115, 0.6747],[0,0,0,0],[9E9,9E9,9E9,9E9,9E9,9E9]], s_printSpeed, fine, tool0, \WObj:=ob_RRC_workplace;
        MoveL [[542.1, 586.0, 6.7],[0.6661, 0.2373, -0.2373, 0.6661],[0,0,0,0],[9E9,9E9,9E9,9E9,9E9,9E9]], s_printSpeed, fine, tool0, \WObj:=ob_RRC_workplace;
        MoveL [[537.4, 575.1, 5.2],[-0.6529, -0.2715, -0.2715, 0.6529],[0,0,0,0],[9E9,9E9,9E9,9E9,9E9,9E9]], s_printSpeed, fine, tool0, \WObj:=ob_RRC_workplace;
        MoveL [[531.8, 564.6, 3.8],[-0.6332, -0.3148, -0.3148, 0.6332],[0,0,0,0],[9E9,9E9,9E9,9E9,9E9,9E9]], s_printSpeed, fine, tool0, \WObj:=ob_RRC_workplace;
        MoveL [[524.0, 555.5, 2.6],[-0.6068, -0.3630, -0.3630, 0.6068],[0,0,0,0],[9E9,9E9,9E9,9E9,9E9,9E9]], s_printSpeed, fine, tool0, \WObj:=ob_RRC_workplace;
        MoveL [[514.4, 548.4, 1.7],[-0.5773, -0.4083, -0.4083, 0.5773],[0,0,0,0],[9E9,9E9,9E9,9E9,9E9,9E9]], s_printSpeed, fine, tool0, \WObj:=ob_RRC_workplace;
        MoveL [[503.7, 543.0, 1.0],[-0.5484, -0.4464, -0.4464, 0.5484],[0,0,0,0],[9E9,9E9,9E9,9E9,9E9,9E9]], s_printSpeed, fine, tool0, \WObj:=ob_RRC_workplace;
        MoveL [[492.4, 538.9, 0.4],[-0.5224, -0.4765, -0.4765, 0.5224],[0,0,0,0],[9E9,9E9,9E9,9E9,9E9,9E9]], s_printSpeed, fine, tool0, \WObj:=ob_RRC_workplace;
        MoveL [[480.9, 535.7, 0.0],[-0.5000, -0.5000, -0.5000, 0.5000],[0,0,0,0],[9E9,9E9,9E9,9E9,9E9,9E9]], s_printSpeed, fine, tool0, \WObj:=ob_RRC_workplace;
    ! layer end
        MoveL [[783.6, 537.7, 0.3],[-0.5163, -0.4831, -0.4831, 0.5163],[0,0,0,0],[9E9,9E9,9E9,9E9,9E9,9E9]], s_printSpeed, fine, tool0, \WObj:=ob_RRC_workplace;
        MoveL [[772.2, 541.5, 0.9],[-0.5412, -0.4551, -0.4551, 0.5412],[0,0,0,0],[9E9,9E9,9E9,9E9,9E9,9E9]], s_printSpeed, fine, tool0, \WObj:=ob_RRC_workplace;
        MoveL [[761.3, 546.5, 1.6],[-0.5693, -0.4194, -0.4194, 0.5693],[0,0,0,0],[9E9,9E9,9E9,9E9,9E9,9E9]], s_printSpeed, fine, tool0, \WObj:=ob_RRC_workplace;
        MoveL [[751.3, 553.1, 2.5],[-0.5988, -0.3760, -0.3760, 0.5988],[0,0,0,0],[9E9,9E9,9E9,9E9,9E9,9E9]], s_printSpeed, fine, tool0, \WObj:=ob_RRC_workplace;
        MoveL [[743.1, 561.7, 3.7],[-0.6264, -0.3281, -0.3281, 0.6264],[0,0,0,0],[9E9,9E9,9E9,9E9,9E9,9E9]], s_printSpeed, fine, tool0, \WObj:=ob_RRC_workplace;
        MoveL [[737.1, 572.0, 5.2],[-0.6480, -0.2830, -0.2830, 0.6480],[0,0,0,0],[9E9,9E9,9E9,9E9,9E9,9E9]], s_printSpeed, fine, tool0, \WObj:=ob_RRC_workplace;
        MoveL [[732.4, 583.0, 6.7],[0.6627, 0.2467, -0.2467, 0.6627],[0,0,0,0],[9E9,9E9,9E9,9E9,9E9,9E9]], s_printSpeed, fine, tool0, \WObj:=ob_RRC_workplace;
