MODULE fdm_print
    VAR speeddata s_printSpeed:=v5;
    VAR speeddata s_travelSpeed:=v300;

    PROC Extrude10Sec ()
        SetDO DO_10, 1;
        SetDO\SDelay:=10, DO_10, 0;
    ENDPROC

    PROC main()
        IF RobOS() = FALSE THEN
            s_travelSpeed := vmax; ! run at max speed in robotstudio
            s_printSpeed := vmax;
        ENDIF
        print;
    ENDPROC

    PROC print()
        MoveAbsJ [[0.0,0.0,0.0,0.0,0.0,0.0], [9E9,9E9,9E9,9E9,9E9,9E9]], s_travelSpeed, fine, tool0;
        SetDO DO_1, 1; ! heater on
        TPWrite "Press play when extruder is at right temperature";
        Stop;
        MoveJ [[581.4, 277.6, 3.7],[-0.4956, 0.5044, 0.5044, 0.4956],[0,0,0,0],[9E9,9E9,9E9,9E9,9E9,9E9]], s_travelSpeed, fine, tool0, \WObj:=ob_RRC_workplace;
        SetDO DO_10, 1; ! stepper off
        MoveL [[581.4, 277.6, 3.7],[-0.4956, 0.5044, 0.5044, 0.4956],[0,0,0,0],[9E9,9E9,9E9,9E9,9E9,9E9]], s_printSpeed, fine, tool0, \WObj:=ob_RRC_workplace;
        MoveL [[569.7, 277.2, 1.0],[-0.4988, 0.5012, 0.5012, 0.4988],[0,0,0,0],[9E9,9E9,9E9,9E9,9E9,9E9]], s_printSpeed, fine, tool0, \WObj:=ob_RRC_workplace;
        MoveL [[557.8, 277.0, 0.1],[-0.4999, 0.5001, 0.5001, 0.4999],[0,0,0,0],[9E9,9E9,9E9,9E9,9E9,9E9]], s_printSpeed, fine, tool0, \WObj:=ob_RRC_workplace;
        MoveL [[546.8, 277.9, 4.9],[-0.4943, 0.5057, 0.5057, 0.4943],[0,0,0,0],[9E9,9E9,9E9,9E9,9E9,9E9]], s_printSpeed, fine, tool0, \WObj:=ob_RRC_workplace;
        MoveL [[545.7, 279.9, 16.7],[-0.4850, 0.5146, 0.5146, 0.4850],[0,0,0,0],[9E9,9E9,9E9,9E9,9E9,9E9]], s_printSpeed, fine, tool0, \WObj:=ob_RRC_workplace;
        MoveL [[547.9, 282.0, 28.3],[-0.4792, 0.5200, 0.5200, 0.4792],[0,0,0,0],[9E9,9E9,9E9,9E9,9E9,9E9]], s_printSpeed, fine, tool0, \WObj:=ob_RRC_workplace;
        MoveL [[550.0, 284.0, 39.9],[-0.4751, 0.5237, 0.5237, 0.4751],[0,0,0,0],[9E9,9E9,9E9,9E9,9E9,9E9]], s_printSpeed, fine, tool0, \WObj:=ob_RRC_workplace;
        MoveL [[544.0, 285.9, 50.2],[-0.4725, 0.5261, 0.5261, 0.4725],[0,0,0,0],[9E9,9E9,9E9,9E9,9E9,9E9]], s_printSpeed, fine, tool0, \WObj:=ob_RRC_workplace;
        MoveL [[532.1, 285.7, 49.2],[-0.4727, 0.5259, 0.5259, 0.4727],[0,0,0,0],[9E9,9E9,9E9,9E9,9E9,9E9]], s_printSpeed, fine, tool0, \WObj:=ob_RRC_workplace;
        MoveL [[520.3, 285.2, 46.7],[-0.4733, 0.5253, 0.5253, 0.4733],[0,0,0,0],[9E9,9E9,9E9,9E9,9E9,9E9]], s_printSpeed, fine, tool0, \WObj:=ob_RRC_workplace;
        MoveL [[508.4, 285.1, 45.7],[-0.4736, 0.5251, 0.5251, 0.4736],[0,0,0,0],[9E9,9E9,9E9,9E9,9E9,9E9]], s_printSpeed, fine, tool0, \WObj:=ob_RRC_workplace;
        MoveL [[501.8, 286.8, 55.5],[-0.4714, 0.5271, 0.5271, 0.4714],[0,0,0,0],[9E9,9E9,9E9,9E9,9E9,9E9]], s_printSpeed, fine, tool0, \WObj:=ob_RRC_workplace;
        MoveL [[503.8, 288.8, 67.2],[-0.4693, 0.5289, 0.5289, 0.4693],[0,0,0,0],[9E9,9E9,9E9,9E9,9E9,9E9]], s_printSpeed, fine, tool0, \WObj:=ob_RRC_workplace;
        MoveL [[506.2, 290.9, 78.8],[-0.4677, 0.5304, 0.5304, 0.4677],[0,0,0,0],[9E9,9E9,9E9,9E9,9E9,9E9]], s_printSpeed, fine, tool0, \WObj:=ob_RRC_workplace;
        MoveL [[505.3, 293.0, 90.6],[-0.4663, 0.5315, 0.5315, 0.4663],[0,0,0,0],[9E9,9E9,9E9,9E9,9E9,9E9]], s_printSpeed, fine, tool0, \WObj:=ob_RRC_workplace;
        MoveL [[493.4, 293.3, 92.6],[-0.4661, 0.5317, 0.5317, 0.4661],[0,0,0,0],[9E9,9E9,9E9,9E9,9E9,9E9]], s_printSpeed, fine, tool0, \WObj:=ob_RRC_workplace;
        MoveL [[481.7, 292.9, 90.2],[-0.4664, 0.5315, 0.5315, 0.4664],[0,0,0,0],[9E9,9E9,9E9,9E9,9E9,9E9]], s_printSpeed, fine, tool0, \WObj:=ob_RRC_workplace;
        MoveL [[469.9, 292.5, 88.2],[-0.4666, 0.5313, 0.5313, 0.4666],[0,0,0,0],[9E9,9E9,9E9,9E9,9E9,9E9]], s_printSpeed, fine, tool0, \WObj:=ob_RRC_workplace;
        MoveL [[458.9, 293.4, 92.9],[-0.4661, 0.5318, 0.5318, 0.4661],[0,0,0,0],[9E9,9E9,9E9,9E9,9E9,9E9]], s_printSpeed, fine, tool0, \WObj:=ob_RRC_workplace;
        MoveL [[458.8, 295.5, 104.7],[-0.4650, 0.5327, 0.5327, 0.4650],[0,0,0,0],[9E9,9E9,9E9,9E9,9E9,9E9]], s_printSpeed, fine, tool0, \WObj:=ob_RRC_workplace;
        MoveL [[461.1, 297.5, 116.3],[-0.4641, 0.5335, 0.5335, 0.4641],[0,0,0,0],[9E9,9E9,9E9,9E9,9E9,9E9]], s_printSpeed, fine, tool0, \WObj:=ob_RRC_workplace;
        MoveL [[462.8, 299.6, 128.0],[-0.4633, 0.5342, 0.5342, 0.4633],[0,0,0,0],[9E9,9E9,9E9,9E9,9E9,9E9]], s_printSpeed, fine, tool0, \WObj:=ob_RRC_workplace;
        MoveL [[454.5, 301.1, 136.6],[-0.4628, 0.5346, 0.5346, 0.4628],[0,0,0,0],[9E9,9E9,9E9,9E9,9E9,9E9]], s_printSpeed, fine, tool0, \WObj:=ob_RRC_workplace;
        MoveL [[442.6, 300.8, 134.9],[-0.4629, 0.5345, 0.5345, 0.4629],[0,0,0,0],[9E9,9E9,9E9,9E9,9E9,9E9]], s_printSpeed, fine, tool0, \WObj:=ob_RRC_workplace;
        MoveL [[430.8, 300.4, 132.8],[-0.4630, 0.5344, 0.5344, 0.4630],[0,0,0,0],[9E9,9E9,9E9,9E9,9E9,9E9]], s_printSpeed, fine, tool0, \WObj:=ob_RRC_workplace;
        MoveL [[418.8, 300.3, 132.0],[-0.4631, 0.5344, 0.5344, 0.4631],[0,0,0,0],[9E9,9E9,9E9,9E9,9E9,9E9]], s_printSpeed, fine, tool0, \WObj:=ob_RRC_workplace;
        MoveL [[406.9, 300.5, 133.5],[-0.4630, 0.5344, 0.5344, 0.4630],[0,0,0,0],[9E9,9E9,9E9,9E9,9E9,9E9]], s_printSpeed, fine, tool0, \WObj:=ob_RRC_workplace;
        MoveL [[395.2, 300.1, 131.2],[-0.4631, 0.5343, 0.5343, 0.4631],[0,0,0,0],[9E9,9E9,9E9,9E9,9E9,9E9]], s_printSpeed, fine, tool0, \WObj:=ob_RRC_workplace;
        MoveL [[395.7, 298.1, 119.4],[-0.4639, 0.5337, 0.5337, 0.4639],[0,0,0,0],[9E9,9E9,9E9,9E9,9E9,9E9]], s_printSpeed, fine, tool0, \WObj:=ob_RRC_workplace;
        MoveL [[398.2, 296.0, 107.8],[-0.4647, 0.5329, 0.5329, 0.4647],[0,0,0,0],[9E9,9E9,9E9,9E9,9E9,9E9]], s_printSpeed, fine, tool0, \WObj:=ob_RRC_workplace;
        MoveL [[399.7, 293.9, 96.1],[-0.4658, 0.5320, 0.5320, 0.4658],[0,0,0,0],[9E9,9E9,9E9,9E9,9E9,9E9]], s_printSpeed, fine, tool0, \WObj:=ob_RRC_workplace;
        MoveL [[391.2, 292.5, 87.7],[-0.4666, 0.5313, 0.5313, 0.4666],[0,0,0,0],[9E9,9E9,9E9,9E9,9E9,9E9]], s_printSpeed, fine, tool0, \WObj:=ob_RRC_workplace;
        MoveL [[379.4, 292.8, 89.4],[-0.4664, 0.5314, 0.5314, 0.4664],[0,0,0,0],[9E9,9E9,9E9,9E9,9E9,9E9]], s_printSpeed, fine, tool0, \WObj:=ob_RRC_workplace;
        MoveL [[367.6, 293.2, 91.9],[-0.4662, 0.5317, 0.5317, 0.4662],[0,0,0,0],[9E9,9E9,9E9,9E9,9E9,9E9]], s_printSpeed, fine, tool0, \WObj:=ob_RRC_workplace;
        MoveL [[355.6, 293.3, 92.2],[-0.4662, 0.5317, 0.5317, 0.4662],[0,0,0,0],[9E9,9E9,9E9,9E9,9E9,9E9]], s_printSpeed, fine, tool0, \WObj:=ob_RRC_workplace;
        MoveL [[352.0, 291.3, 80.9],[-0.4674, 0.5306, 0.5306, 0.4674],[0,0,0,0],[9E9,9E9,9E9,9E9,9E9,9E9]], s_printSpeed, fine, tool0, \WObj:=ob_RRC_workplace;
        MoveL [[354.3, 289.2, 69.3],[-0.4690, 0.5292, 0.5292, 0.4690],[0,0,0,0],[9E9,9E9,9E9,9E9,9E9,9E9]], s_printSpeed, fine, tool0, \WObj:=ob_RRC_workplace;
        MoveL [[356.5, 287.2, 57.7],[-0.4709, 0.5275, 0.5275, 0.4709],[0,0,0,0],[9E9,9E9,9E9,9E9,9E9,9E9]], s_printSpeed, fine, tool0, \WObj:=ob_RRC_workplace;
        MoveL [[353.1, 285.2, 46.4],[-0.4734, 0.5253, 0.5253, 0.4734],[0,0,0,0],[9E9,9E9,9E9,9E9,9E9,9E9]], s_printSpeed, fine, tool0, \WObj:=ob_RRC_workplace;
        MoveL [[341.1, 285.1, 46.2],[-0.4734, 0.5252, 0.5252, 0.4734],[0,0,0,0],[9E9,9E9,9E9,9E9,9E9,9E9]], s_printSpeed, fine, tool0, \WObj:=ob_RRC_workplace;
        MoveL [[329.3, 285.6, 48.6],[-0.4729, 0.5257, 0.5257, 0.4729],[0,0,0,0],[9E9,9E9,9E9,9E9,9E9,9E9]], s_printSpeed, fine, tool0, \WObj:=ob_RRC_workplace;
        MoveL [[317.5, 285.9, 50.3],[-0.4725, 0.5261, 0.5261, 0.4725],[0,0,0,0],[9E9,9E9,9E9,9E9,9E9,9E9]], s_printSpeed, fine, tool0, \WObj:=ob_RRC_workplace;
        MoveL [[308.5, 284.5, 42.5],[-0.4744, 0.5243, 0.5243, 0.4744],[0,0,0,0],[9E9,9E9,9E9,9E9,9E9,9E9]], s_printSpeed, fine, tool0, \WObj:=ob_RRC_workplace;
        MoveL [[310.1, 282.4, 30.7],[-0.4782, 0.5209, 0.5209, 0.4782],[0,0,0,0],[9E9,9E9,9E9,9E9,9E9,9E9]], s_printSpeed, fine, tool0, \WObj:=ob_RRC_workplace;
        MoveL [[312.5, 280.4, 19.2],[-0.4835, 0.5160, 0.5160, 0.4835],[0,0,0,0],[9E9,9E9,9E9,9E9,9E9,9E9]], s_printSpeed, fine, tool0, \WObj:=ob_RRC_workplace;
        MoveL [[312.8, 278.3, 7.4],[-0.4919, 0.5079, 0.5079, 0.4919],[0,0,0,0],[9E9,9E9,9E9,9E9,9E9,9E9]], s_printSpeed, fine, tool0, \WObj:=ob_RRC_workplace;
        MoveL [[303.2, 277.0, 0.3],[-0.4996, 0.5004, 0.5004, 0.4996],[0,0,0,0],[9E9,9E9,9E9,9E9,9E9,9E9]], s_printSpeed, fine, tool0, \WObj:=ob_RRC_workplace;
        MoveL [[291.2, 277.1, 0.6],[-0.4992, 0.5008, 0.5008, 0.4992],[0,0,0,0],[9E9,9E9,9E9,9E9,9E9,9E9]], s_printSpeed, fine, tool0, \WObj:=ob_RRC_workplace;
        MoveL [[279.4, 277.5, 3.0],[-0.4963, 0.5037, 0.5037, 0.4963],[0,0,0,0],[9E9,9E9,9E9,9E9,9E9,9E9]], s_printSpeed, fine, tool0, \WObj:=ob_RRC_workplace;
        MoveL [[268.0, 278.2, 6.6],[-0.4926, 0.5072, 0.5072, 0.4926],[0,0,0,0],[9E9,9E9,9E9,9E9,9E9,9E9]], s_printSpeed, fine, tool0, \WObj:=ob_RRC_workplace;
    ! layer end
        MoveL [[581.4, 278.0, 3.7],[-0.4954, 0.5046, 0.5046, 0.4954],[0,0,0,0],[9E9,9E9,9E9,9E9,9E9,9E9]], s_printSpeed, fine, tool0, \WObj:=ob_RRC_workplace;
        MoveL [[569.7, 277.5, 1.0],[-0.4987, 0.5013, 0.5013, 0.4987],[0,0,0,0],[9E9,9E9,9E9,9E9,9E9,9E9]], s_printSpeed, fine, tool0, \WObj:=ob_RRC_workplace;
        MoveL [[557.8, 277.3, 0.1],[-0.4999, 0.5001, 0.5001, 0.4999],[0,0,0,0],[9E9,9E9,9E9,9E9,9E9,9E9]], s_printSpeed, fine, tool0, \WObj:=ob_RRC_workplace;
        MoveL [[546.8, 278.2, 4.9],[-0.4940, 0.5059, 0.5059, 0.4940],[0,0,0,0],[9E9,9E9,9E9,9E9,9E9,9E9]], s_printSpeed, fine, tool0, \WObj:=ob_RRC_workplace;
        MoveL [[545.7, 280.4, 16.7],[-0.4842, 0.5153, 0.5153, 0.4842],[0,0,0,0],[9E9,9E9,9E9,9E9,9E9,9E9]], s_printSpeed, fine, tool0, \WObj:=ob_RRC_workplace;
        MoveL [[547.9, 282.5, 28.2],[-0.4781, 0.5210, 0.5210, 0.4781],[0,0,0,0],[9E9,9E9,9E9,9E9,9E9,9E9]], s_printSpeed, fine, tool0, \WObj:=ob_RRC_workplace;
        MoveL [[550.0, 284.7, 39.9],[-0.4739, 0.5248, 0.5248, 0.4739],[0,0,0,0],[9E9,9E9,9E9,9E9,9E9,9E9]], s_printSpeed, fine, tool0, \WObj:=ob_RRC_workplace;
        MoveL [[544.0, 286.6, 50.1],[-0.4711, 0.5273, 0.5273, 0.4711],[0,0,0,0],[9E9,9E9,9E9,9E9,9E9,9E9]], s_printSpeed, fine, tool0, \WObj:=ob_RRC_workplace;
        MoveL [[532.1, 286.4, 49.1],[-0.4714, 0.5271, 0.5271, 0.4714],[0,0,0,0],[9E9,9E9,9E9,9E9,9E9,9E9]], s_printSpeed, fine, tool0, \WObj:=ob_RRC_workplace;
        MoveL [[520.3, 285.9, 46.7],[-0.4720, 0.5265, 0.5265, 0.4720],[0,0,0,0],[9E9,9E9,9E9,9E9,9E9,9E9]], s_printSpeed, fine, tool0, \WObj:=ob_RRC_workplace;
        MoveL [[508.4, 285.8, 45.6],[-0.4723, 0.5263, 0.5263, 0.4723],[0,0,0,0],[9E9,9E9,9E9,9E9,9E9,9E9]], s_printSpeed, fine, tool0, \WObj:=ob_RRC_workplace;
        MoveL [[501.8, 287.6, 55.5],[-0.4699, 0.5284, 0.5284, 0.4699],[0,0,0,0],[9E9,9E9,9E9,9E9,9E9,9E9]], s_printSpeed, fine, tool0, \WObj:=ob_RRC_workplace;
        MoveL [[503.8, 289.7, 67.1],[-0.4677, 0.5303, 0.5303, 0.4677],[0,0,0,0],[9E9,9E9,9E9,9E9,9E9,9E9]], s_printSpeed, fine, tool0, \WObj:=ob_RRC_workplace;
        MoveL [[506.2, 291.9, 78.7],[-0.4660, 0.5318, 0.5318, 0.4660],[0,0,0,0],[9E9,9E9,9E9,9E9,9E9,9E9]], s_printSpeed, fine, tool0, \WObj:=ob_RRC_workplace;
        MoveL [[505.3, 294.1, 90.4],[-0.4646, 0.5330, 0.5330, 0.4646],[0,0,0,0],[9E9,9E9,9E9,9E9,9E9,9E9]], s_printSpeed, fine, tool0, \WObj:=ob_RRC_workplace;
        MoveL [[493.4, 294.4, 92.4],[-0.4644, 0.5332, 0.5332, 0.4644],[0,0,0,0],[9E9,9E9,9E9,9E9,9E9,9E9]], s_printSpeed, fine, tool0, \WObj:=ob_RRC_workplace;
        MoveL [[481.7, 294.0, 90.1],[-0.4646, 0.5330, 0.5330, 0.4646],[0,0,0,0],[9E9,9E9,9E9,9E9,9E9,9E9]], s_printSpeed, fine, tool0, \WObj:=ob_RRC_workplace;
        MoveL [[469.9, 293.6, 88.0],[-0.4649, 0.5328, 0.5328, 0.4649],[0,0,0,0],[9E9,9E9,9E9,9E9,9E9,9E9]], s_printSpeed, fine, tool0, \WObj:=ob_RRC_workplace;
        MoveL [[458.9, 294.5, 92.8],[-0.4644, 0.5333, 0.5333, 0.4644],[0,0,0,0],[9E9,9E9,9E9,9E9,9E9,9E9]], s_printSpeed, fine, tool0, \WObj:=ob_RRC_workplace;
        MoveL [[458.8, 296.7, 104.6],[-0.4632, 0.5342, 0.5342, 0.4632],[0,0,0,0],[9E9,9E9,9E9,9E9,9E9,9E9]], s_printSpeed, fine, tool0, \WObj:=ob_RRC_workplace;
        MoveL [[461.1, 298.8, 116.1],[-0.4623, 0.5351, 0.5351, 0.4623],[0,0,0,0],[9E9,9E9,9E9,9E9,9E9,9E9]], s_printSpeed, fine, tool0, \WObj:=ob_RRC_workplace;
        MoveL [[462.8, 301.0, 127.8],[-0.4615, 0.5358, 0.5358, 0.4615],[0,0,0,0],[9E9,9E9,9E9,9E9,9E9,9E9]], s_printSpeed, fine, tool0, \WObj:=ob_RRC_workplace;
        MoveL [[454.5, 302.6, 136.4],[-0.4609, 0.5362, 0.5362, 0.4609],[0,0,0,0],[9E9,9E9,9E9,9E9,9E9,9E9]], s_printSpeed, fine, tool0, \WObj:=ob_RRC_workplace;
        MoveL [[442.6, 302.3, 134.7],[-0.4610, 0.5361, 0.5361, 0.4610],[0,0,0,0],[9E9,9E9,9E9,9E9,9E9,9E9]], s_printSpeed, fine, tool0, \WObj:=ob_RRC_workplace;
        MoveL [[430.8, 301.9, 132.6],[-0.4612, 0.5360, 0.5360, 0.4612],[0,0,0,0],[9E9,9E9,9E9,9E9,9E9,9E9]], s_printSpeed, fine, tool0, \WObj:=ob_RRC_workplace;
        MoveL [[418.8, 301.7, 131.8],[-0.4612, 0.5360, 0.5360, 0.4612],[0,0,0,0],[9E9,9E9,9E9,9E9,9E9,9E9]], s_printSpeed, fine, tool0, \WObj:=ob_RRC_workplace;
        MoveL [[406.9, 302.0, 133.3],[-0.4611, 0.5361, 0.5361, 0.4611],[0,0,0,0],[9E9,9E9,9E9,9E9,9E9,9E9]], s_printSpeed, fine, tool0, \WObj:=ob_RRC_workplace;
        MoveL [[395.2, 301.6, 131.0],[-0.4613, 0.5359, 0.5359, 0.4613],[0,0,0,0],[9E9,9E9,9E9,9E9,9E9,9E9]], s_printSpeed, fine, tool0, \WObj:=ob_RRC_workplace;
        MoveL [[395.7, 299.4, 119.2],[-0.4621, 0.5353, 0.5353, 0.4621],[0,0,0,0],[9E9,9E9,9E9,9E9,9E9,9E9]], s_printSpeed, fine, tool0, \WObj:=ob_RRC_workplace;
        MoveL [[398.2, 297.3, 107.7],[-0.4630, 0.5345, 0.5345, 0.4630],[0,0,0,0],[9E9,9E9,9E9,9E9,9E9,9E9]], s_printSpeed, fine, tool0, \WObj:=ob_RRC_workplace;
        MoveL [[399.7, 295.1, 96.0],[-0.4640, 0.5335, 0.5335, 0.4640],[0,0,0,0],[9E9,9E9,9E9,9E9,9E9,9E9]], s_printSpeed, fine, tool0, \WObj:=ob_RRC_workplace;
        MoveL [[391.2, 293.5, 87.6],[-0.4649, 0.5328, 0.5328, 0.4649],[0,0,0,0],[9E9,9E9,9E9,9E9,9E9,9E9]], s_printSpeed, fine, tool0, \WObj:=ob_RRC_workplace;
        MoveL [[379.4, 293.8, 89.2],[-0.4647, 0.5329, 0.5329, 0.4647],[0,0,0,0],[9E9,9E9,9E9,9E9,9E9,9E9]], s_printSpeed, fine, tool0, \WObj:=ob_RRC_workplace;
        MoveL [[367.6, 294.3, 91.8],[-0.4645, 0.5332, 0.5332, 0.4645],[0,0,0,0],[9E9,9E9,9E9,9E9,9E9,9E9]], s_printSpeed, fine, tool0, \WObj:=ob_RRC_workplace;
        MoveL [[355.6, 294.4, 92.0],[-0.4644, 0.5332, 0.5332, 0.4644],[0,0,0,0],[9E9,9E9,9E9,9E9,9E9,9E9]], s_printSpeed, fine, tool0, \WObj:=ob_RRC_workplace;
        MoveL [[352.0, 292.3, 80.8],[-0.4658, 0.5320, 0.5320, 0.4658],[0,0,0,0],[9E9,9E9,9E9,9E9,9E9,9E9]], s_printSpeed, fine, tool0, \WObj:=ob_RRC_workplace;
        MoveL [[354.3, 290.1, 69.2],[-0.4674, 0.5306, 0.5306, 0.4674],[0,0,0,0],[9E9,9E9,9E9,9E9,9E9,9E9]], s_printSpeed, fine, tool0, \WObj:=ob_RRC_workplace;
        MoveL [[356.5, 288.0, 57.6],[-0.4695, 0.5288, 0.5288, 0.4695],[0,0,0,0],[9E9,9E9,9E9,9E9,9E9,9E9]], s_printSpeed, fine, tool0, \WObj:=ob_RRC_workplace;
        MoveL [[353.1, 285.9, 46.3],[-0.4721, 0.5265, 0.5265, 0.4721],[0,0,0,0],[9E9,9E9,9E9,9E9,9E9,9E9]], s_printSpeed, fine, tool0, \WObj:=ob_RRC_workplace;
        MoveL [[341.1, 285.8, 46.1],[-0.4721, 0.5264, 0.5264, 0.4721],[0,0,0,0],[9E9,9E9,9E9,9E9,9E9,9E9]], s_printSpeed, fine, tool0, \WObj:=ob_RRC_workplace;
        MoveL [[329.3, 286.3, 48.5],[-0.4715, 0.5270, 0.5270, 0.4715],[0,0,0,0],[9E9,9E9,9E9,9E9,9E9,9E9]], s_printSpeed, fine, tool0, \WObj:=ob_RRC_workplace;
        MoveL [[317.5, 286.6, 50.3],[-0.4711, 0.5273, 0.5273, 0.4711],[0,0,0,0],[9E9,9E9,9E9,9E9,9E9,9E9]], s_printSpeed, fine, tool0, \WObj:=ob_RRC_workplace;
        MoveL [[308.5, 285.2, 42.4],[-0.4731, 0.5255, 0.5255, 0.4731],[0,0,0,0],[9E9,9E9,9E9,9E9,9E9,9E9]], s_printSpeed, fine, tool0, \WObj:=ob_RRC_workplace;
        MoveL [[310.1, 283.0, 30.7],[-0.4771, 0.5219, 0.5219, 0.4771],[0,0,0,0],[9E9,9E9,9E9,9E9,9E9,9E9]], s_printSpeed, fine, tool0, \WObj:=ob_RRC_workplace;
        MoveL [[312.5, 280.8, 19.1],[-0.4827, 0.5167, 0.5167, 0.4827],[0,0,0,0],[9E9,9E9,9E9,9E9,9E9,9E9]], s_printSpeed, fine, tool0, \WObj:=ob_RRC_workplace;
        MoveL [[312.8, 278.7, 7.3],[-0.4915, 0.5083, 0.5083, 0.4915],[0,0,0,0],[9E9,9E9,9E9,9E9,9E9,9E9]], s_printSpeed, fine, tool0, \WObj:=ob_RRC_workplace;
        MoveL [[303.2, 277.4, 0.3],[-0.4996, 0.5004, 0.5004, 0.4996],[0,0,0,0],[9E9,9E9,9E9,9E9,9E9,9E9]], s_printSpeed, fine, tool0, \WObj:=ob_RRC_workplace;
        MoveL [[291.2, 277.4, 0.6],[-0.4992, 0.5008, 0.5008, 0.4992],[0,0,0,0],[9E9,9E9,9E9,9E9,9E9,9E9]], s_printSpeed, fine, tool0, \WObj:=ob_RRC_workplace;
        MoveL [[279.4, 277.9, 3.0],[-0.4961, 0.5039, 0.5039, 0.4961],[0,0,0,0],[9E9,9E9,9E9,9E9,9E9,9E9]], s_printSpeed, fine, tool0, \WObj:=ob_RRC_workplace;
        MoveL [[268.0, 278.5, 6.6],[-0.4923, 0.5076, 0.5076, 0.4923],[0,0,0,0],[9E9,9E9,9E9,9E9,9E9,9E9]], s_printSpeed, fine, tool0, \WObj:=ob_RRC_workplace;
    ! layer end
        MoveL [[581.4, 278.3, 3.7],[-0.4952, 0.5048, 0.5048, 0.4952],[0,0,0,0],[9E9,9E9,9E9,9E9,9E9,9E9]], s_printSpeed, fine, tool0, \WObj:=ob_RRC_workplace;
        MoveL [[569.7, 277.8, 1.0],[-0.4986, 0.5014, 0.5014, 0.4986],[0,0,0,0],[9E9,9E9,9E9,9E9,9E9,9E9]], s_printSpeed, fine, tool0, \WObj:=ob_RRC_workplace;
        MoveL [[557.8, 277.6, 0.1],[-0.4999, 0.5001, 0.5001, 0.4999],[0,0,0,0],[9E9,9E9,9E9,9E9,9E9,9E9]], s_printSpeed, fine, tool0, \WObj:=ob_RRC_workplace;
        MoveL [[546.8, 278.6, 4.9],[-0.4937, 0.5062, 0.5062, 0.4937],[0,0,0,0],[9E9,9E9,9E9,9E9,9E9,9E9]], s_printSpeed, fine, tool0, \WObj:=ob_RRC_workplace;
        MoveL [[545.7, 280.8, 16.6],[-0.4835, 0.5160, 0.5160, 0.4835],[0,0,0,0],[9E9,9E9,9E9,9E9,9E9,9E9]], s_printSpeed, fine, tool0, \WObj:=ob_RRC_workplace;
        MoveL [[547.9, 283.1, 28.2],[-0.4771, 0.5219, 0.5219, 0.4771],[0,0,0,0],[9E9,9E9,9E9,9E9,9E9,9E9]], s_printSpeed, fine, tool0, \WObj:=ob_RRC_workplace;
        MoveL [[550.0, 285.3, 39.8],[-0.4726, 0.5259, 0.5259, 0.4726],[0,0,0,0],[9E9,9E9,9E9,9E9,9E9,9E9]], s_printSpeed, fine, tool0, \WObj:=ob_RRC_workplace;
        MoveL [[544.0, 287.3, 50.1],[-0.4697, 0.5285, 0.5285, 0.4697],[0,0,0,0],[9E9,9E9,9E9,9E9,9E9,9E9]], s_printSpeed, fine, tool0, \WObj:=ob_RRC_workplace;
        MoveL [[532.1, 287.1, 49.0],[-0.4700, 0.5283, 0.5283, 0.4700],[0,0,0,0],[9E9,9E9,9E9,9E9,9E9,9E9]], s_printSpeed, fine, tool0, \WObj:=ob_RRC_workplace;
        MoveL [[520.3, 286.7, 46.6],[-0.4706, 0.5277, 0.5277, 0.4706],[0,0,0,0],[9E9,9E9,9E9,9E9,9E9,9E9]], s_printSpeed, fine, tool0, \WObj:=ob_RRC_workplace;
        MoveL [[508.4, 286.5, 45.5],[-0.4709, 0.5275, 0.5275, 0.4709],[0,0,0,0],[9E9,9E9,9E9,9E9,9E9,9E9]], s_printSpeed, fine, tool0, \WObj:=ob_RRC_workplace;
        MoveL [[501.8, 288.4, 55.4],[-0.4685, 0.5297, 0.5297, 0.4685],[0,0,0,0],[9E9,9E9,9E9,9E9,9E9,9E9]], s_printSpeed, fine, tool0, \WObj:=ob_RRC_workplace;
        MoveL [[503.8, 290.6, 67.0],[-0.4662, 0.5317, 0.5317, 0.4662],[0,0,0,0],[9E9,9E9,9E9,9E9,9E9,9E9]], s_printSpeed, fine, tool0, \WObj:=ob_RRC_workplace;
        MoveL [[506.2, 292.9, 78.5],[-0.4644, 0.5332, 0.5332, 0.4644],[0,0,0,0],[9E9,9E9,9E9,9E9,9E9,9E9]], s_printSpeed, fine, tool0, \WObj:=ob_RRC_workplace;
        MoveL [[505.3, 295.2, 90.3],[-0.4629, 0.5345, 0.5345, 0.4629],[0,0,0,0],[9E9,9E9,9E9,9E9,9E9,9E9]], s_printSpeed, fine, tool0, \WObj:=ob_RRC_workplace;
        MoveL [[493.4, 295.5, 92.3],[-0.4627, 0.5347, 0.5347, 0.4627],[0,0,0,0],[9E9,9E9,9E9,9E9,9E9,9E9]], s_printSpeed, fine, tool0, \WObj:=ob_RRC_workplace;
        MoveL [[481.7, 295.1, 89.9],[-0.4629, 0.5345, 0.5345, 0.4629],[0,0,0,0],[9E9,9E9,9E9,9E9,9E9,9E9]], s_printSpeed, fine, tool0, \WObj:=ob_RRC_workplace;
        MoveL [[469.9, 294.7, 87.9],[-0.4632, 0.5343, 0.5343, 0.4632],[0,0,0,0],[9E9,9E9,9E9,9E9,9E9,9E9]], s_printSpeed, fine, tool0, \WObj:=ob_RRC_workplace;
        MoveL [[458.9, 295.6, 92.6],[-0.4626, 0.5348, 0.5348, 0.4626],[0,0,0,0],[9E9,9E9,9E9,9E9,9E9,9E9]], s_printSpeed, fine, tool0, \WObj:=ob_RRC_workplace;
        MoveL [[458.8, 297.9, 104.4],[-0.4614, 0.5358, 0.5358, 0.4614],[0,0,0,0],[9E9,9E9,9E9,9E9,9E9,9E9]], s_printSpeed, fine, tool0, \WObj:=ob_RRC_workplace;
        MoveL [[461.1, 300.2, 116.0],[-0.4605, 0.5366, 0.5366, 0.4605],[0,0,0,0],[9E9,9E9,9E9,9E9,9E9,9E9]], s_printSpeed, fine, tool0, \WObj:=ob_RRC_workplace;
        MoveL [[462.8, 302.4, 127.6],[-0.4596, 0.5374, 0.5374, 0.4596],[0,0,0,0],[9E9,9E9,9E9,9E9,9E9,9E9]], s_printSpeed, fine, tool0, \WObj:=ob_RRC_workplace;
        MoveL [[454.5, 304.1, 136.1],[-0.4590, 0.5378, 0.5378, 0.4590],[0,0,0,0],[9E9,9E9,9E9,9E9,9E9,9E9]], s_printSpeed, fine, tool0, \WObj:=ob_RRC_workplace;
        MoveL [[442.6, 303.7, 134.5],[-0.4591, 0.5378, 0.5378, 0.4591],[0,0,0,0],[9E9,9E9,9E9,9E9,9E9,9E9]], s_printSpeed, fine, tool0, \WObj:=ob_RRC_workplace;
        MoveL [[430.8, 303.3, 132.3],[-0.4593, 0.5376, 0.5376, 0.4593],[0,0,0,0],[9E9,9E9,9E9,9E9,9E9,9E9]], s_printSpeed, fine, tool0, \WObj:=ob_RRC_workplace;
        MoveL [[418.8, 303.2, 131.6],[-0.4593, 0.5376, 0.5376, 0.4593],[0,0,0,0],[9E9,9E9,9E9,9E9,9E9,9E9]], s_printSpeed, fine, tool0, \WObj:=ob_RRC_workplace;
        MoveL [[406.9, 303.5, 133.1],[-0.4592, 0.5377, 0.5377, 0.4592],[0,0,0,0],[9E9,9E9,9E9,9E9,9E9,9E9]], s_printSpeed, fine, tool0, \WObj:=ob_RRC_workplace;
        MoveL [[395.2, 303.0, 130.8],[-0.4594, 0.5376, 0.5376, 0.4594],[0,0,0,0],[9E9,9E9,9E9,9E9,9E9,9E9]], s_printSpeed, fine, tool0, \WObj:=ob_RRC_workplace;
        MoveL [[395.7, 300.7, 119.0],[-0.4602, 0.5368, 0.5368, 0.4602],[0,0,0,0],[9E9,9E9,9E9,9E9,9E9,9E9]], s_printSpeed, fine, tool0, \WObj:=ob_RRC_workplace;
        MoveL [[398.2, 298.5, 107.5],[-0.4612, 0.5360, 0.5360, 0.4612],[0,0,0,0],[9E9,9E9,9E9,9E9,9E9,9E9]], s_printSpeed, fine, tool0, \WObj:=ob_RRC_workplace;
        MoveL [[399.7, 296.2, 95.8],[-0.4623, 0.5351, 0.5351, 0.4623],[0,0,0,0],[9E9,9E9,9E9,9E9,9E9,9E9]], s_printSpeed, fine, tool0, \WObj:=ob_RRC_workplace;
        MoveL [[391.2, 294.6, 87.4],[-0.4632, 0.5342, 0.5342, 0.4632],[0,0,0,0],[9E9,9E9,9E9,9E9,9E9,9E9]], s_printSpeed, fine, tool0, \WObj:=ob_RRC_workplace;
        MoveL [[379.4, 294.9, 89.1],[-0.4630, 0.5344, 0.5344, 0.4630],[0,0,0,0],[9E9,9E9,9E9,9E9,9E9,9E9]], s_printSpeed, fine, tool0, \WObj:=ob_RRC_workplace;
        MoveL [[367.6, 295.4, 91.6],[-0.4627, 0.5347, 0.5347, 0.4627],[0,0,0,0],[9E9,9E9,9E9,9E9,9E9,9E9]], s_printSpeed, fine, tool0, \WObj:=ob_RRC_workplace;
        MoveL [[355.6, 295.5, 91.9],[-0.4627, 0.5347, 0.5347, 0.4627],[0,0,0,0],[9E9,9E9,9E9,9E9,9E9,9E9]], s_printSpeed, fine, tool0, \WObj:=ob_RRC_workplace;
        MoveL [[352.0, 293.3, 80.7],[-0.4641, 0.5335, 0.5335, 0.4641],[0,0,0,0],[9E9,9E9,9E9,9E9,9E9,9E9]], s_printSpeed, fine, tool0, \WObj:=ob_RRC_workplace;
        MoveL [[354.3, 291.0, 69.1],[-0.4658, 0.5320, 0.5320, 0.4658],[0,0,0,0],[9E9,9E9,9E9,9E9,9E9,9E9]], s_printSpeed, fine, tool0, \WObj:=ob_RRC_workplace;
        MoveL [[356.5, 288.8, 57.5],[-0.4680, 0.5301, 0.5301, 0.4680],[0,0,0,0],[9E9,9E9,9E9,9E9,9E9,9E9]], s_printSpeed, fine, tool0, \WObj:=ob_RRC_workplace;
        MoveL [[353.1, 286.6, 46.2],[-0.4707, 0.5277, 0.5277, 0.4707],[0,0,0,0],[9E9,9E9,9E9,9E9,9E9,9E9]], s_printSpeed, fine, tool0, \WObj:=ob_RRC_workplace;
        MoveL [[341.1, 286.6, 46.1],[-0.4708, 0.5276, 0.5276, 0.4708],[0,0,0,0],[9E9,9E9,9E9,9E9,9E9,9E9]], s_printSpeed, fine, tool0, \WObj:=ob_RRC_workplace;
        MoveL [[329.3, 287.0, 48.4],[-0.4701, 0.5282, 0.5282, 0.4701],[0,0,0,0],[9E9,9E9,9E9,9E9,9E9,9E9]], s_printSpeed, fine, tool0, \WObj:=ob_RRC_workplace;
        MoveL [[317.5, 287.4, 50.2],[-0.4697, 0.5286, 0.5286, 0.4697],[0,0,0,0],[9E9,9E9,9E9,9E9,9E9,9E9]], s_printSpeed, fine, tool0, \WObj:=ob_RRC_workplace;
        MoveL [[308.5, 285.8, 42.3],[-0.4718, 0.5267, 0.5267, 0.4718],[0,0,0,0],[9E9,9E9,9E9,9E9,9E9,9E9]], s_printSpeed, fine, tool0, \WObj:=ob_RRC_workplace;
        MoveL [[310.1, 283.6, 30.6],[-0.4760, 0.5229, 0.5229, 0.4760],[0,0,0,0],[9E9,9E9,9E9,9E9,9E9,9E9]], s_printSpeed, fine, tool0, \WObj:=ob_RRC_workplace;
        MoveL [[312.5, 281.3, 19.1],[-0.4819, 0.5175, 0.5175, 0.4819],[0,0,0,0],[9E9,9E9,9E9,9E9,9E9,9E9]], s_printSpeed, fine, tool0, \WObj:=ob_RRC_workplace;
        MoveL [[312.8, 279.0, 7.3],[-0.4911, 0.5087, 0.5087, 0.4911],[0,0,0,0],[9E9,9E9,9E9,9E9,9E9,9E9]], s_printSpeed, fine, tool0, \WObj:=ob_RRC_workplace;
        MoveL [[303.2, 277.7, 0.3],[-0.4996, 0.5004, 0.5004, 0.4996],[0,0,0,0],[9E9,9E9,9E9,9E9,9E9,9E9]], s_printSpeed, fine, tool0, \WObj:=ob_RRC_workplace;
        MoveL [[291.2, 277.7, 0.6],[-0.4991, 0.5008, 0.5008, 0.4991],[0,0,0,0],[9E9,9E9,9E9,9E9,9E9,9E9]], s_printSpeed, fine, tool0, \WObj:=ob_RRC_workplace;
        MoveL [[279.4, 278.2, 3.0],[-0.4959, 0.5040, 0.5040, 0.4959],[0,0,0,0],[9E9,9E9,9E9,9E9,9E9,9E9]], s_printSpeed, fine, tool0, \WObj:=ob_RRC_workplace;
        MoveL [[268.0, 278.9, 6.6],[-0.4919, 0.5080, 0.5080, 0.4919],[0,0,0,0],[9E9,9E9,9E9,9E9,9E9,9E9]], s_printSpeed, fine, tool0, \WObj:=ob_RRC_workplace;
    ! layer end
        MoveL [[581.4, 278.6, 3.7],[-0.4950, 0.5050, 0.5050, 0.4950],[0,0,0,0],[9E9,9E9,9E9,9E9,9E9,9E9]], s_printSpeed, fine, tool0, \WObj:=ob_RRC_workplace;
        MoveL [[569.7, 278.1, 1.0],[-0.4986, 0.5014, 0.5014, 0.4986],[0,0,0,0],[9E9,9E9,9E9,9E9,9E9,9E9]], s_printSpeed, fine, tool0, \WObj:=ob_RRC_workplace;
        MoveL [[557.8, 277.9, 0.1],[-0.4999, 0.5001, 0.5001, 0.4999],[0,0,0,0],[9E9,9E9,9E9,9E9,9E9,9E9]], s_printSpeed, fine, tool0, \WObj:=ob_RRC_workplace;
        MoveL [[546.8, 278.9, 4.9],[-0.4934, 0.5065, 0.5065, 0.4934],[0,0,0,0],[9E9,9E9,9E9,9E9,9E9,9E9]], s_printSpeed, fine, tool0, \WObj:=ob_RRC_workplace;
        MoveL [[545.7, 281.3, 16.6],[-0.4827, 0.5167, 0.5167, 0.4827],[0,0,0,0],[9E9,9E9,9E9,9E9,9E9,9E9]], s_printSpeed, fine, tool0, \WObj:=ob_RRC_workplace;
        MoveL [[547.9, 283.6, 28.1],[-0.4760, 0.5229, 0.5229, 0.4760],[0,0,0,0],[9E9,9E9,9E9,9E9,9E9,9E9]], s_printSpeed, fine, tool0, \WObj:=ob_RRC_workplace;
        MoveL [[550.0, 286.0, 39.7],[-0.4714, 0.5271, 0.5271, 0.4714],[0,0,0,0],[9E9,9E9,9E9,9E9,9E9,9E9]], s_printSpeed, fine, tool0, \WObj:=ob_RRC_workplace;
        MoveL [[544.0, 288.1, 50.0],[-0.4683, 0.5298, 0.5298, 0.4683],[0,0,0,0],[9E9,9E9,9E9,9E9,9E9,9E9]], s_printSpeed, fine, tool0, \WObj:=ob_RRC_workplace;
        MoveL [[532.1, 287.9, 48.9],[-0.4686, 0.5295, 0.5295, 0.4686],[0,0,0,0],[9E9,9E9,9E9,9E9,9E9,9E9]], s_printSpeed, fine, tool0, \WObj:=ob_RRC_workplace;
        MoveL [[520.3, 287.4, 46.5],[-0.4693, 0.5289, 0.5289, 0.4693],[0,0,0,0],[9E9,9E9,9E9,9E9,9E9,9E9]], s_printSpeed, fine, tool0, \WObj:=ob_RRC_workplace;
        MoveL [[508.4, 287.2, 45.4],[-0.4696, 0.5287, 0.5287, 0.4696],[0,0,0,0],[9E9,9E9,9E9,9E9,9E9,9E9]], s_printSpeed, fine, tool0, \WObj:=ob_RRC_workplace;
        MoveL [[501.8, 289.2, 55.3],[-0.4670, 0.5309, 0.5309, 0.4670],[0,0,0,0],[9E9,9E9,9E9,9E9,9E9,9E9]], s_printSpeed, fine, tool0, \WObj:=ob_RRC_workplace;
        MoveL [[503.8, 291.5, 66.9],[-0.4646, 0.5330, 0.5330, 0.4646],[0,0,0,0],[9E9,9E9,9E9,9E9,9E9,9E9]], s_printSpeed, fine, tool0, \WObj:=ob_RRC_workplace;
        MoveL [[506.2, 293.9, 78.4],[-0.4627, 0.5347, 0.5347, 0.4627],[0,0,0,0],[9E9,9E9,9E9,9E9,9E9,9E9]], s_printSpeed, fine, tool0, \WObj:=ob_RRC_workplace;
        MoveL [[505.3, 296.2, 90.1],[-0.4612, 0.5360, 0.5360, 0.4612],[0,0,0,0],[9E9,9E9,9E9,9E9,9E9,9E9]], s_printSpeed, fine, tool0, \WObj:=ob_RRC_workplace;
        MoveL [[493.4, 296.7, 92.1],[-0.4609, 0.5362, 0.5362, 0.4609],[0,0,0,0],[9E9,9E9,9E9,9E9,9E9,9E9]], s_printSpeed, fine, tool0, \WObj:=ob_RRC_workplace;
        MoveL [[481.7, 296.2, 89.8],[-0.4612, 0.5360, 0.5360, 0.4612],[0,0,0,0],[9E9,9E9,9E9,9E9,9E9,9E9]], s_printSpeed, fine, tool0, \WObj:=ob_RRC_workplace;
        MoveL [[469.9, 295.8, 87.7],[-0.4615, 0.5358, 0.5358, 0.4615],[0,0,0,0],[9E9,9E9,9E9,9E9,9E9,9E9]], s_printSpeed, fine, tool0, \WObj:=ob_RRC_workplace;
        MoveL [[458.9, 296.7, 92.4],[-0.4609, 0.5363, 0.5363, 0.4609],[0,0,0,0],[9E9,9E9,9E9,9E9,9E9,9E9]], s_printSpeed, fine, tool0, \WObj:=ob_RRC_workplace;
        MoveL [[458.8, 299.1, 104.2],[-0.4597, 0.5373, 0.5373, 0.4597],[0,0,0,0],[9E9,9E9,9E9,9E9,9E9,9E9]], s_printSpeed, fine, tool0, \WObj:=ob_RRC_workplace;
        MoveL [[461.1, 301.5, 115.8],[-0.4586, 0.5382, 0.5382, 0.4586],[0,0,0,0],[9E9,9E9,9E9,9E9,9E9,9E9]], s_printSpeed, fine, tool0, \WObj:=ob_RRC_workplace;
        MoveL [[462.8, 303.8, 127.4],[-0.4577, 0.5390, 0.5390, 0.4577],[0,0,0,0],[9E9,9E9,9E9,9E9,9E9,9E9]], s_printSpeed, fine, tool0, \WObj:=ob_RRC_workplace;
        MoveL [[454.5, 305.6, 135.9],[-0.4571, 0.5395, 0.5395, 0.4571],[0,0,0,0],[9E9,9E9,9E9,9E9,9E9,9E9]], s_printSpeed, fine, tool0, \WObj:=ob_RRC_workplace;
        MoveL [[442.6, 305.2, 134.2],[-0.4572, 0.5394, 0.5394, 0.4572],[0,0,0,0],[9E9,9E9,9E9,9E9,9E9,9E9]], s_printSpeed, fine, tool0, \WObj:=ob_RRC_workplace;
        MoveL [[430.8, 304.8, 132.1],[-0.4574, 0.5393, 0.5393, 0.4574],[0,0,0,0],[9E9,9E9,9E9,9E9,9E9,9E9]], s_printSpeed, fine, tool0, \WObj:=ob_RRC_workplace;
        MoveL [[418.8, 304.6, 131.3],[-0.4574, 0.5392, 0.5392, 0.4574],[0,0,0,0],[9E9,9E9,9E9,9E9,9E9,9E9]], s_printSpeed, fine, tool0, \WObj:=ob_RRC_workplace;
        MoveL [[406.9, 304.9, 132.8],[-0.4573, 0.5393, 0.5393, 0.4573],[0,0,0,0],[9E9,9E9,9E9,9E9,9E9,9E9]], s_printSpeed, fine, tool0, \WObj:=ob_RRC_workplace;
        MoveL [[395.2, 304.5, 130.5],[-0.4575, 0.5392, 0.5392, 0.4575],[0,0,0,0],[9E9,9E9,9E9,9E9,9E9,9E9]], s_printSpeed, fine, tool0, \WObj:=ob_RRC_workplace;
        MoveL [[395.7, 302.1, 118.8],[-0.4584, 0.5384, 0.5384, 0.4584],[0,0,0,0],[9E9,9E9,9E9,9E9,9E9,9E9]], s_printSpeed, fine, tool0, \WObj:=ob_RRC_workplace;
        MoveL [[398.2, 299.7, 107.3],[-0.4594, 0.5376, 0.5376, 0.4594],[0,0,0,0],[9E9,9E9,9E9,9E9,9E9,9E9]], s_printSpeed, fine, tool0, \WObj:=ob_RRC_workplace;
        MoveL [[399.7, 297.4, 95.6],[-0.4605, 0.5366, 0.5366, 0.4605],[0,0,0,0],[9E9,9E9,9E9,9E9,9E9,9E9]], s_printSpeed, fine, tool0, \WObj:=ob_RRC_workplace;
        MoveL [[391.2, 295.7, 87.3],[-0.4615, 0.5357, 0.5357, 0.4615],[0,0,0,0],[9E9,9E9,9E9,9E9,9E9,9E9]], s_printSpeed, fine, tool0, \WObj:=ob_RRC_workplace;
        MoveL [[379.4, 296.0, 88.9],[-0.4613, 0.5359, 0.5359, 0.4613],[0,0,0,0],[9E9,9E9,9E9,9E9,9E9,9E9]], s_printSpeed, fine, tool0, \WObj:=ob_RRC_workplace;
        MoveL [[367.6, 296.5, 91.5],[-0.4610, 0.5362, 0.5362, 0.4610],[0,0,0,0],[9E9,9E9,9E9,9E9,9E9,9E9]], s_printSpeed, fine, tool0, \WObj:=ob_RRC_workplace;
        MoveL [[355.6, 296.6, 91.7],[-0.4610, 0.5362, 0.5362, 0.4610],[0,0,0,0],[9E9,9E9,9E9,9E9,9E9,9E9]], s_printSpeed, fine, tool0, \WObj:=ob_RRC_workplace;
        MoveL [[352.0, 294.3, 80.5],[-0.4624, 0.5349, 0.5349, 0.4624],[0,0,0,0],[9E9,9E9,9E9,9E9,9E9,9E9]], s_printSpeed, fine, tool0, \WObj:=ob_RRC_workplace;
        MoveL [[354.3, 291.9, 69.0],[-0.4643, 0.5334, 0.5334, 0.4643],[0,0,0,0],[9E9,9E9,9E9,9E9,9E9,9E9]], s_printSpeed, fine, tool0, \WObj:=ob_RRC_workplace;
        MoveL [[356.5, 289.6, 57.4],[-0.4665, 0.5314, 0.5314, 0.4665],[0,0,0,0],[9E9,9E9,9E9,9E9,9E9,9E9]], s_printSpeed, fine, tool0, \WObj:=ob_RRC_workplace;
        MoveL [[353.1, 287.3, 46.2],[-0.4694, 0.5289, 0.5289, 0.4694],[0,0,0,0],[9E9,9E9,9E9,9E9,9E9,9E9]], s_printSpeed, fine, tool0, \WObj:=ob_RRC_workplace;
        MoveL [[341.1, 287.3, 46.0],[-0.4694, 0.5288, 0.5288, 0.4694],[0,0,0,0],[9E9,9E9,9E9,9E9,9E9,9E9]], s_printSpeed, fine, tool0, \WObj:=ob_RRC_workplace;
        MoveL [[329.3, 287.7, 48.3],[-0.4688, 0.5294, 0.5294, 0.4688],[0,0,0,0],[9E9,9E9,9E9,9E9,9E9,9E9]], s_printSpeed, fine, tool0, \WObj:=ob_RRC_workplace;
        MoveL [[317.5, 288.1, 50.1],[-0.4683, 0.5298, 0.5298, 0.4683],[0,0,0,0],[9E9,9E9,9E9,9E9,9E9,9E9]], s_printSpeed, fine, tool0, \WObj:=ob_RRC_workplace;
        MoveL [[308.5, 286.5, 42.3],[-0.4706, 0.5278, 0.5278, 0.4706],[0,0,0,0],[9E9,9E9,9E9,9E9,9E9,9E9]], s_printSpeed, fine, tool0, \WObj:=ob_RRC_workplace;
        MoveL [[310.1, 284.1, 30.6],[-0.4749, 0.5239, 0.5239, 0.4749],[0,0,0,0],[9E9,9E9,9E9,9E9,9E9,9E9]], s_printSpeed, fine, tool0, \WObj:=ob_RRC_workplace;
        MoveL [[312.5, 281.8, 19.1],[-0.4811, 0.5183, 0.5183, 0.4811],[0,0,0,0],[9E9,9E9,9E9,9E9,9E9,9E9]], s_printSpeed, fine, tool0, \WObj:=ob_RRC_workplace;
        MoveL [[312.8, 279.4, 7.3],[-0.4907, 0.5091, 0.5091, 0.4907],[0,0,0,0],[9E9,9E9,9E9,9E9,9E9,9E9]], s_printSpeed, fine, tool0, \WObj:=ob_RRC_workplace;
        MoveL [[303.2, 278.0, 0.3],[-0.4996, 0.5004, 0.5004, 0.4996],[0,0,0,0],[9E9,9E9,9E9,9E9,9E9,9E9]], s_printSpeed, fine, tool0, \WObj:=ob_RRC_workplace;
        MoveL [[291.2, 278.0, 0.6],[-0.4991, 0.5009, 0.5009, 0.4991],[0,0,0,0],[9E9,9E9,9E9,9E9,9E9,9E9]], s_printSpeed, fine, tool0, \WObj:=ob_RRC_workplace;
        MoveL [[279.4, 278.5, 3.0],[-0.4957, 0.5042, 0.5042, 0.4957],[0,0,0,0],[9E9,9E9,9E9,9E9,9E9,9E9]], s_printSpeed, fine, tool0, \WObj:=ob_RRC_workplace;
        MoveL [[268.0, 279.2, 6.6],[-0.4916, 0.5083, 0.5083, 0.4916],[0,0,0,0],[9E9,9E9,9E9,9E9,9E9,9E9]], s_printSpeed, fine, tool0, \WObj:=ob_RRC_workplace;
    ! layer end
        MoveL [[581.4, 279.0, 3.6],[-0.4947, 0.5052, 0.5052, 0.4947],[0,0,0,0],[9E9,9E9,9E9,9E9,9E9,9E9]], s_printSpeed, fine, tool0, \WObj:=ob_RRC_workplace;
        MoveL [[569.7, 278.4, 1.0],[-0.4985, 0.5015, 0.5015, 0.4985],[0,0,0,0],[9E9,9E9,9E9,9E9,9E9,9E9]], s_printSpeed, fine, tool0, \WObj:=ob_RRC_workplace;
        MoveL [[557.8, 278.2, 0.1],[-0.4999, 0.5001, 0.5001, 0.4999],[0,0,0,0],[9E9,9E9,9E9,9E9,9E9,9E9]], s_printSpeed, fine, tool0, \WObj:=ob_RRC_workplace;
        MoveL [[546.8, 279.2, 4.9],[-0.4932, 0.5067, 0.5067, 0.4932],[0,0,0,0],[9E9,9E9,9E9,9E9,9E9,9E9]], s_printSpeed, fine, tool0, \WObj:=ob_RRC_workplace;
        MoveL [[545.7, 281.7, 16.6],[-0.4820, 0.5174, 0.5174, 0.4820],[0,0,0,0],[9E9,9E9,9E9,9E9,9E9,9E9]], s_printSpeed, fine, tool0, \WObj:=ob_RRC_workplace;
        MoveL [[547.9, 284.2, 28.1],[-0.4750, 0.5238, 0.5238, 0.4750],[0,0,0,0],[9E9,9E9,9E9,9E9,9E9,9E9]], s_printSpeed, fine, tool0, \WObj:=ob_RRC_workplace;
        MoveL [[550.0, 286.6, 39.7],[-0.4701, 0.5282, 0.5282, 0.4701],[0,0,0,0],[9E9,9E9,9E9,9E9,9E9,9E9]], s_printSpeed, fine, tool0, \WObj:=ob_RRC_workplace;
        MoveL [[544.0, 288.8, 49.9],[-0.4669, 0.5310, 0.5310, 0.4669],[0,0,0,0],[9E9,9E9,9E9,9E9,9E9,9E9]], s_printSpeed, fine, tool0, \WObj:=ob_RRC_workplace;
        MoveL [[532.1, 288.6, 48.9],[-0.4672, 0.5308, 0.5308, 0.4672],[0,0,0,0],[9E9,9E9,9E9,9E9,9E9,9E9]], s_printSpeed, fine, tool0, \WObj:=ob_RRC_workplace;
        MoveL [[520.3, 288.1, 46.4],[-0.4679, 0.5301, 0.5301, 0.4679],[0,0,0,0],[9E9,9E9,9E9,9E9,9E9,9E9]], s_printSpeed, fine, tool0, \WObj:=ob_RRC_workplace;
        MoveL [[508.4, 287.8, 45.4],[-0.4682, 0.5299, 0.5299, 0.4682],[0,0,0,0],[9E9,9E9,9E9,9E9,9E9,9E9]], s_printSpeed, fine, tool0, \WObj:=ob_RRC_workplace;
        MoveL [[501.8, 289.9, 55.2],[-0.4656, 0.5322, 0.5322, 0.4656],[0,0,0,0],[9E9,9E9,9E9,9E9,9E9,9E9]], s_printSpeed, fine, tool0, \WObj:=ob_RRC_workplace;
        MoveL [[503.8, 292.4, 66.8],[-0.4631, 0.5344, 0.5344, 0.4631],[0,0,0,0],[9E9,9E9,9E9,9E9,9E9,9E9]], s_printSpeed, fine, tool0, \WObj:=ob_RRC_workplace;
        MoveL [[506.2, 294.8, 78.2],[-0.4611, 0.5361, 0.5361, 0.4611],[0,0,0,0],[9E9,9E9,9E9,9E9,9E9,9E9]], s_printSpeed, fine, tool0, \WObj:=ob_RRC_workplace;
        MoveL [[505.3, 297.3, 89.9],[-0.4595, 0.5375, 0.5375, 0.4595],[0,0,0,0],[9E9,9E9,9E9,9E9,9E9,9E9]], s_printSpeed, fine, tool0, \WObj:=ob_RRC_workplace;
        MoveL [[493.4, 297.8, 91.9],[-0.4592, 0.5377, 0.5377, 0.4592],[0,0,0,0],[9E9,9E9,9E9,9E9,9E9,9E9]], s_printSpeed, fine, tool0, \WObj:=ob_RRC_workplace;
        MoveL [[481.7, 297.3, 89.6],[-0.4595, 0.5375, 0.5375, 0.4595],[0,0,0,0],[9E9,9E9,9E9,9E9,9E9,9E9]], s_printSpeed, fine, tool0, \WObj:=ob_RRC_workplace;
        MoveL [[469.9, 296.8, 87.6],[-0.4598, 0.5372, 0.5372, 0.4598],[0,0,0,0],[9E9,9E9,9E9,9E9,9E9,9E9]], s_printSpeed, fine, tool0, \WObj:=ob_RRC_workplace;
        MoveL [[458.9, 297.8, 92.3],[-0.4592, 0.5377, 0.5377, 0.4592],[0,0,0,0],[9E9,9E9,9E9,9E9,9E9,9E9]], s_printSpeed, fine, tool0, \WObj:=ob_RRC_workplace;
        MoveL [[458.8, 300.3, 104.0],[-0.4579, 0.5389, 0.5389, 0.4579],[0,0,0,0],[9E9,9E9,9E9,9E9,9E9,9E9]], s_printSpeed, fine, tool0, \WObj:=ob_RRC_workplace;
        MoveL [[461.1, 302.8, 115.5],[-0.4568, 0.5398, 0.5398, 0.4568],[0,0,0,0],[9E9,9E9,9E9,9E9,9E9,9E9]], s_printSpeed, fine, tool0, \WObj:=ob_RRC_workplace;
        MoveL [[462.8, 305.3, 127.2],[-0.4558, 0.5406, 0.5406, 0.4558],[0,0,0,0],[9E9,9E9,9E9,9E9,9E9,9E9]], s_printSpeed, fine, tool0, \WObj:=ob_RRC_workplace;
        MoveL [[454.5, 307.1, 135.6],[-0.4552, 0.5411, 0.5411, 0.4552],[0,0,0,0],[9E9,9E9,9E9,9E9,9E9,9E9]], s_printSpeed, fine, tool0, \WObj:=ob_RRC_workplace;
        MoveL [[442.6, 306.7, 134.0],[-0.4553, 0.5410, 0.5410, 0.4553],[0,0,0,0],[9E9,9E9,9E9,9E9,9E9,9E9]], s_printSpeed, fine, tool0, \WObj:=ob_RRC_workplace;
        MoveL [[430.8, 306.3, 131.9],[-0.4555, 0.5409, 0.5409, 0.4555],[0,0,0,0],[9E9,9E9,9E9,9E9,9E9,9E9]], s_printSpeed, fine, tool0, \WObj:=ob_RRC_workplace;
        MoveL [[418.8, 306.1, 131.1],[-0.4555, 0.5408, 0.5408, 0.4555],[0,0,0,0],[9E9,9E9,9E9,9E9,9E9,9E9]], s_printSpeed, fine, tool0, \WObj:=ob_RRC_workplace;
        MoveL [[406.9, 306.4, 132.6],[-0.4554, 0.5409, 0.5409, 0.4554],[0,0,0,0],[9E9,9E9,9E9,9E9,9E9,9E9]], s_printSpeed, fine, tool0, \WObj:=ob_RRC_workplace;
        MoveL [[395.2, 305.9, 130.3],[-0.4556, 0.5408, 0.5408, 0.4556],[0,0,0,0],[9E9,9E9,9E9,9E9,9E9,9E9]], s_printSpeed, fine, tool0, \WObj:=ob_RRC_workplace;
        MoveL [[395.7, 303.4, 118.6],[-0.4565, 0.5400, 0.5400, 0.4565],[0,0,0,0],[9E9,9E9,9E9,9E9,9E9,9E9]], s_printSpeed, fine, tool0, \WObj:=ob_RRC_workplace;
        MoveL [[398.2, 301.0, 107.1],[-0.4576, 0.5391, 0.5391, 0.4576],[0,0,0,0],[9E9,9E9,9E9,9E9,9E9,9E9]], s_printSpeed, fine, tool0, \WObj:=ob_RRC_workplace;
        MoveL [[399.7, 298.5, 95.5],[-0.4588, 0.5381, 0.5381, 0.4588],[0,0,0,0],[9E9,9E9,9E9,9E9,9E9,9E9]], s_printSpeed, fine, tool0, \WObj:=ob_RRC_workplace;
        MoveL [[391.2, 296.7, 87.1],[-0.4598, 0.5372, 0.5372, 0.4598],[0,0,0,0],[9E9,9E9,9E9,9E9,9E9,9E9]], s_printSpeed, fine, tool0, \WObj:=ob_RRC_workplace;
        MoveL [[379.4, 297.1, 88.8],[-0.4596, 0.5374, 0.5374, 0.4596],[0,0,0,0],[9E9,9E9,9E9,9E9,9E9,9E9]], s_printSpeed, fine, tool0, \WObj:=ob_RRC_workplace;
        MoveL [[367.6, 297.6, 91.3],[-0.4593, 0.5376, 0.5376, 0.4593],[0,0,0,0],[9E9,9E9,9E9,9E9,9E9,9E9]], s_printSpeed, fine, tool0, \WObj:=ob_RRC_workplace;
        MoveL [[355.6, 297.7, 91.5],[-0.4593, 0.5377, 0.5377, 0.4593],[0,0,0,0],[9E9,9E9,9E9,9E9,9E9,9E9]], s_printSpeed, fine, tool0, \WObj:=ob_RRC_workplace;
        MoveL [[352.0, 295.3, 80.4],[-0.4608, 0.5364, 0.5364, 0.4608],[0,0,0,0],[9E9,9E9,9E9,9E9,9E9,9E9]], s_printSpeed, fine, tool0, \WObj:=ob_RRC_workplace;
        MoveL [[354.3, 292.8, 68.8],[-0.4627, 0.5347, 0.5347, 0.4627],[0,0,0,0],[9E9,9E9,9E9,9E9,9E9,9E9]], s_printSpeed, fine, tool0, \WObj:=ob_RRC_workplace;
        MoveL [[356.5, 290.4, 57.3],[-0.4651, 0.5327, 0.5327, 0.4651],[0,0,0,0],[9E9,9E9,9E9,9E9,9E9,9E9]], s_printSpeed, fine, tool0, \WObj:=ob_RRC_workplace;
        MoveL [[353.1, 288.0, 46.1],[-0.4680, 0.5300, 0.5300, 0.4680],[0,0,0,0],[9E9,9E9,9E9,9E9,9E9,9E9]], s_printSpeed, fine, tool0, \WObj:=ob_RRC_workplace;
        MoveL [[341.1, 288.0, 45.9],[-0.4681, 0.5300, 0.5300, 0.4681],[0,0,0,0],[9E9,9E9,9E9,9E9,9E9,9E9]], s_printSpeed, fine, tool0, \WObj:=ob_RRC_workplace;
        MoveL [[329.3, 288.5, 48.3],[-0.4674, 0.5306, 0.5306, 0.4674],[0,0,0,0],[9E9,9E9,9E9,9E9,9E9,9E9]], s_printSpeed, fine, tool0, \WObj:=ob_RRC_workplace;
        MoveL [[317.5, 288.8, 50.0],[-0.4669, 0.5310, 0.5310, 0.4669],[0,0,0,0],[9E9,9E9,9E9,9E9,9E9,9E9]], s_printSpeed, fine, tool0, \WObj:=ob_RRC_workplace;
        MoveL [[308.5, 287.2, 42.2],[-0.4693, 0.5290, 0.5290, 0.4693],[0,0,0,0],[9E9,9E9,9E9,9E9,9E9,9E9]], s_printSpeed, fine, tool0, \WObj:=ob_RRC_workplace;
        MoveL [[310.1, 284.7, 30.5],[-0.4738, 0.5249, 0.5249, 0.4738],[0,0,0,0],[9E9,9E9,9E9,9E9,9E9,9E9]], s_printSpeed, fine, tool0, \WObj:=ob_RRC_workplace;
        MoveL [[312.5, 282.2, 19.0],[-0.4802, 0.5190, 0.5190, 0.4802],[0,0,0,0],[9E9,9E9,9E9,9E9,9E9,9E9]], s_printSpeed, fine, tool0, \WObj:=ob_RRC_workplace;
        MoveL [[312.8, 279.8, 7.3],[-0.4903, 0.5095, 0.5095, 0.4903],[0,0,0,0],[9E9,9E9,9E9,9E9,9E9,9E9]], s_printSpeed, fine, tool0, \WObj:=ob_RRC_workplace;
        MoveL [[303.2, 278.3, 0.3],[-0.4996, 0.5004, 0.5004, 0.4996],[0,0,0,0],[9E9,9E9,9E9,9E9,9E9,9E9]], s_printSpeed, fine, tool0, \WObj:=ob_RRC_workplace;
        MoveL [[291.2, 278.3, 0.6],[-0.4991, 0.5009, 0.5009, 0.4991],[0,0,0,0],[9E9,9E9,9E9,9E9,9E9,9E9]], s_printSpeed, fine, tool0, \WObj:=ob_RRC_workplace;
        MoveL [[279.4, 278.8, 3.0],[-0.4956, 0.5044, 0.5044, 0.4956],[0,0,0,0],[9E9,9E9,9E9,9E9,9E9,9E9]], s_printSpeed, fine, tool0, \WObj:=ob_RRC_workplace;
        MoveL [[268.0, 279.6, 6.5],[-0.4912, 0.5086, 0.5086, 0.4912],[0,0,0,0],[9E9,9E9,9E9,9E9,9E9,9E9]], s_printSpeed, fine, tool0, \WObj:=ob_RRC_workplace;
    ! layer end
        MoveL [[581.4, 279.3, 3.6],[-0.4945, 0.5054, 0.5054, 0.4945],[0,0,0,0],[9E9,9E9,9E9,9E9,9E9,9E9]], s_printSpeed, fine, tool0, \WObj:=ob_RRC_workplace;
        MoveL [[569.7, 278.7, 1.0],[-0.4985, 0.5015, 0.5015, 0.4985],[0,0,0,0],[9E9,9E9,9E9,9E9,9E9,9E9]], s_printSpeed, fine, tool0, \WObj:=ob_RRC_workplace;
        MoveL [[557.8, 278.5, 0.1],[-0.4999, 0.5001, 0.5001, 0.4999],[0,0,0,0],[9E9,9E9,9E9,9E9,9E9,9E9]], s_printSpeed, fine, tool0, \WObj:=ob_RRC_workplace;
        MoveL [[546.8, 279.6, 4.9],[-0.4929, 0.5070, 0.5070, 0.4929],[0,0,0,0],[9E9,9E9,9E9,9E9,9E9,9E9]], s_printSpeed, fine, tool0, \WObj:=ob_RRC_workplace;
        MoveL [[545.7, 282.2, 16.5],[-0.4812, 0.5181, 0.5181, 0.4812],[0,0,0,0],[9E9,9E9,9E9,9E9,9E9,9E9]], s_printSpeed, fine, tool0, \WObj:=ob_RRC_workplace;
        MoveL [[547.9, 284.7, 28.0],[-0.4739, 0.5248, 0.5248, 0.4739],[0,0,0,0],[9E9,9E9,9E9,9E9,9E9,9E9]], s_printSpeed, fine, tool0, \WObj:=ob_RRC_workplace;
        MoveL [[550.0, 287.3, 39.6],[-0.4689, 0.5293, 0.5293, 0.4689],[0,0,0,0],[9E9,9E9,9E9,9E9,9E9,9E9]], s_printSpeed, fine, tool0, \WObj:=ob_RRC_workplace;
        MoveL [[544.0, 289.5, 49.8],[-0.4655, 0.5322, 0.5322, 0.4655],[0,0,0,0],[9E9,9E9,9E9,9E9,9E9,9E9]], s_printSpeed, fine, tool0, \WObj:=ob_RRC_workplace;
        MoveL [[532.1, 289.3, 48.8],[-0.4658, 0.5320, 0.5320, 0.4658],[0,0,0,0],[9E9,9E9,9E9,9E9,9E9,9E9]], s_printSpeed, fine, tool0, \WObj:=ob_RRC_workplace;
        MoveL [[520.3, 288.8, 46.3],[-0.4666, 0.5313, 0.5313, 0.4666],[0,0,0,0],[9E9,9E9,9E9,9E9,9E9,9E9]], s_printSpeed, fine, tool0, \WObj:=ob_RRC_workplace;
        MoveL [[508.4, 288.5, 45.3],[-0.4669, 0.5310, 0.5310, 0.4669],[0,0,0,0],[9E9,9E9,9E9,9E9,9E9,9E9]], s_printSpeed, fine, tool0, \WObj:=ob_RRC_workplace;
        MoveL [[501.8, 290.7, 55.1],[-0.4641, 0.5335, 0.5335, 0.4641],[0,0,0,0],[9E9,9E9,9E9,9E9,9E9,9E9]], s_printSpeed, fine, tool0, \WObj:=ob_RRC_workplace;
        MoveL [[503.8, 293.3, 66.6],[-0.4615, 0.5357, 0.5357, 0.4615],[0,0,0,0],[9E9,9E9,9E9,9E9,9E9,9E9]], s_printSpeed, fine, tool0, \WObj:=ob_RRC_workplace;
        MoveL [[506.2, 295.8, 78.1],[-0.4594, 0.5375, 0.5375, 0.4594],[0,0,0,0],[9E9,9E9,9E9,9E9,9E9,9E9]], s_printSpeed, fine, tool0, \WObj:=ob_RRC_workplace;
        MoveL [[505.3, 298.4, 89.8],[-0.4577, 0.5390, 0.5390, 0.4577],[0,0,0,0],[9E9,9E9,9E9,9E9,9E9,9E9]], s_printSpeed, fine, tool0, \WObj:=ob_RRC_workplace;
        MoveL [[493.4, 298.9, 91.8],[-0.4575, 0.5392, 0.5392, 0.4575],[0,0,0,0],[9E9,9E9,9E9,9E9,9E9,9E9]], s_printSpeed, fine, tool0, \WObj:=ob_RRC_workplace;
        MoveL [[481.7, 298.4, 89.5],[-0.4578, 0.5389, 0.5389, 0.4578],[0,0,0,0],[9E9,9E9,9E9,9E9,9E9,9E9]], s_printSpeed, fine, tool0, \WObj:=ob_RRC_workplace;
        MoveL [[469.9, 297.9, 87.4],[-0.4580, 0.5387, 0.5387, 0.4580],[0,0,0,0],[9E9,9E9,9E9,9E9,9E9,9E9]], s_printSpeed, fine, tool0, \WObj:=ob_RRC_workplace;
        MoveL [[458.9, 298.9, 92.1],[-0.4574, 0.5392, 0.5392, 0.4574],[0,0,0,0],[9E9,9E9,9E9,9E9,9E9,9E9]], s_printSpeed, fine, tool0, \WObj:=ob_RRC_workplace;
        MoveL [[458.8, 301.5, 103.8],[-0.4561, 0.5404, 0.5404, 0.4561],[0,0,0,0],[9E9,9E9,9E9,9E9,9E9,9E9]], s_printSpeed, fine, tool0, \WObj:=ob_RRC_workplace;
        MoveL [[461.1, 304.1, 115.3],[-0.4549, 0.5413, 0.5413, 0.4549],[0,0,0,0],[9E9,9E9,9E9,9E9,9E9,9E9]], s_printSpeed, fine, tool0, \WObj:=ob_RRC_workplace;
        MoveL [[462.8, 306.7, 126.9],[-0.4539, 0.5422, 0.5422, 0.4539],[0,0,0,0],[9E9,9E9,9E9,9E9,9E9,9E9]], s_printSpeed, fine, tool0, \WObj:=ob_RRC_workplace;
        MoveL [[454.5, 308.6, 135.4],[-0.4533, 0.5427, 0.5427, 0.4533],[0,0,0,0],[9E9,9E9,9E9,9E9,9E9,9E9]], s_printSpeed, fine, tool0, \WObj:=ob_RRC_workplace;
        MoveL [[442.6, 308.2, 133.7],[-0.4534, 0.5426, 0.5426, 0.4534],[0,0,0,0],[9E9,9E9,9E9,9E9,9E9,9E9]], s_printSpeed, fine, tool0, \WObj:=ob_RRC_workplace;
        MoveL [[430.8, 307.7, 131.6],[-0.4536, 0.5425, 0.5425, 0.4536],[0,0,0,0],[9E9,9E9,9E9,9E9,9E9,9E9]], s_printSpeed, fine, tool0, \WObj:=ob_RRC_workplace;
        MoveL [[418.8, 307.5, 130.8],[-0.4536, 0.5424, 0.5424, 0.4536],[0,0,0,0],[9E9,9E9,9E9,9E9,9E9,9E9]], s_printSpeed, fine, tool0, \WObj:=ob_RRC_workplace;
        MoveL [[406.9, 307.9, 132.3],[-0.4535, 0.5425, 0.5425, 0.4535],[0,0,0,0],[9E9,9E9,9E9,9E9,9E9,9E9]], s_printSpeed, fine, tool0, \WObj:=ob_RRC_workplace;
        MoveL [[395.2, 307.4, 130.1],[-0.4537, 0.5424, 0.5424, 0.4537],[0,0,0,0],[9E9,9E9,9E9,9E9,9E9,9E9]], s_printSpeed, fine, tool0, \WObj:=ob_RRC_workplace;
        MoveL [[395.7, 304.8, 118.4],[-0.4547, 0.5416, 0.5416, 0.4547],[0,0,0,0],[9E9,9E9,9E9,9E9,9E9,9E9]], s_printSpeed, fine, tool0, \WObj:=ob_RRC_workplace;
        MoveL [[398.2, 302.2, 106.9],[-0.4557, 0.5406, 0.5406, 0.4557],[0,0,0,0],[9E9,9E9,9E9,9E9,9E9,9E9]], s_printSpeed, fine, tool0, \WObj:=ob_RRC_workplace;
        MoveL [[399.7, 299.6, 95.3],[-0.4570, 0.5396, 0.5396, 0.4570],[0,0,0,0],[9E9,9E9,9E9,9E9,9E9,9E9]], s_printSpeed, fine, tool0, \WObj:=ob_RRC_workplace;
        MoveL [[391.2, 297.8, 87.0],[-0.4581, 0.5386, 0.5386, 0.4581],[0,0,0,0],[9E9,9E9,9E9,9E9,9E9,9E9]], s_printSpeed, fine, tool0, \WObj:=ob_RRC_workplace;
        MoveL [[379.4, 298.2, 88.6],[-0.4579, 0.5388, 0.5388, 0.4579],[0,0,0,0],[9E9,9E9,9E9,9E9,9E9,9E9]], s_printSpeed, fine, tool0, \WObj:=ob_RRC_workplace;
        MoveL [[367.6, 298.7, 91.1],[-0.4576, 0.5391, 0.5391, 0.4576],[0,0,0,0],[9E9,9E9,9E9,9E9,9E9,9E9]], s_printSpeed, fine, tool0, \WObj:=ob_RRC_workplace;
        MoveL [[355.6, 298.8, 91.4],[-0.4575, 0.5391, 0.5391, 0.4575],[0,0,0,0],[9E9,9E9,9E9,9E9,9E9,9E9]], s_printSpeed, fine, tool0, \WObj:=ob_RRC_workplace;
        MoveL [[352.0, 296.3, 80.2],[-0.4591, 0.5378, 0.5378, 0.4591],[0,0,0,0],[9E9,9E9,9E9,9E9,9E9,9E9]], s_printSpeed, fine, tool0, \WObj:=ob_RRC_workplace;
        MoveL [[354.3, 293.8, 68.7],[-0.4611, 0.5361, 0.5361, 0.4611],[0,0,0,0],[9E9,9E9,9E9,9E9,9E9,9E9]], s_printSpeed, fine, tool0, \WObj:=ob_RRC_workplace;
        MoveL [[356.5, 291.2, 57.2],[-0.4636, 0.5340, 0.5340, 0.4636],[0,0,0,0],[9E9,9E9,9E9,9E9,9E9,9E9]], s_printSpeed, fine, tool0, \WObj:=ob_RRC_workplace;
        MoveL [[353.1, 288.7, 46.0],[-0.4667, 0.5312, 0.5312, 0.4667],[0,0,0,0],[9E9,9E9,9E9,9E9,9E9,9E9]], s_printSpeed, fine, tool0, \WObj:=ob_RRC_workplace;
        MoveL [[341.1, 288.7, 45.8],[-0.4667, 0.5312, 0.5312, 0.4667],[0,0,0,0],[9E9,9E9,9E9,9E9,9E9,9E9]], s_printSpeed, fine, tool0, \WObj:=ob_RRC_workplace;
        MoveL [[329.3, 289.2, 48.2],[-0.4660, 0.5318, 0.5318, 0.4660],[0,0,0,0],[9E9,9E9,9E9,9E9,9E9,9E9]], s_printSpeed, fine, tool0, \WObj:=ob_RRC_workplace;
        MoveL [[317.5, 289.6, 49.9],[-0.4655, 0.5323, 0.5323, 0.4655],[0,0,0,0],[9E9,9E9,9E9,9E9,9E9,9E9]], s_printSpeed, fine, tool0, \WObj:=ob_RRC_workplace;
        MoveL [[308.5, 287.8, 42.1],[-0.4680, 0.5301, 0.5301, 0.4680],[0,0,0,0],[9E9,9E9,9E9,9E9,9E9,9E9]], s_printSpeed, fine, tool0, \WObj:=ob_RRC_workplace;
        MoveL [[310.1, 285.3, 30.5],[-0.4727, 0.5259, 0.5259, 0.4727],[0,0,0,0],[9E9,9E9,9E9,9E9,9E9,9E9]], s_printSpeed, fine, tool0, \WObj:=ob_RRC_workplace;
        MoveL [[312.5, 282.7, 19.0],[-0.4794, 0.5198, 0.5198, 0.4794],[0,0,0,0],[9E9,9E9,9E9,9E9,9E9,9E9]], s_printSpeed, fine, tool0, \WObj:=ob_RRC_workplace;
        MoveL [[312.8, 280.1, 7.3],[-0.4900, 0.5099, 0.5099, 0.4900],[0,0,0,0],[9E9,9E9,9E9,9E9,9E9,9E9]], s_printSpeed, fine, tool0, \WObj:=ob_RRC_workplace;
        MoveL [[303.2, 278.6, 0.3],[-0.4995, 0.5005, 0.5005, 0.4995],[0,0,0,0],[9E9,9E9,9E9,9E9,9E9,9E9]], s_printSpeed, fine, tool0, \WObj:=ob_RRC_workplace;
        MoveL [[291.2, 278.6, 0.6],[-0.4990, 0.5010, 0.5010, 0.4990],[0,0,0,0],[9E9,9E9,9E9,9E9,9E9,9E9]], s_printSpeed, fine, tool0, \WObj:=ob_RRC_workplace;
        MoveL [[279.4, 279.2, 3.0],[-0.4954, 0.5046, 0.5046, 0.4954],[0,0,0,0],[9E9,9E9,9E9,9E9,9E9,9E9]], s_printSpeed, fine, tool0, \WObj:=ob_RRC_workplace;
        MoveL [[268.0, 279.9, 6.5],[-0.4908, 0.5090, 0.5090, 0.4908],[0,0,0,0],[9E9,9E9,9E9,9E9,9E9,9E9]], s_printSpeed, fine, tool0, \WObj:=ob_RRC_workplace;
    ! layer end
        MoveL [[581.4, 279.6, 3.6],[-0.4943, 0.5056, 0.5056, 0.4943],[0,0,0,0],[9E9,9E9,9E9,9E9,9E9,9E9]], s_printSpeed, fine, tool0, \WObj:=ob_RRC_workplace;
        MoveL [[569.7, 279.0, 1.0],[-0.4984, 0.5016, 0.5016, 0.4984],[0,0,0,0],[9E9,9E9,9E9,9E9,9E9,9E9]], s_printSpeed, fine, tool0, \WObj:=ob_RRC_workplace;
        MoveL [[557.8, 278.8, 0.1],[-0.4999, 0.5001, 0.5001, 0.4999],[0,0,0,0],[9E9,9E9,9E9,9E9,9E9,9E9]], s_printSpeed, fine, tool0, \WObj:=ob_RRC_workplace;
        MoveL [[546.8, 279.9, 4.9],[-0.4926, 0.5073, 0.5073, 0.4926],[0,0,0,0],[9E9,9E9,9E9,9E9,9E9,9E9]], s_printSpeed, fine, tool0, \WObj:=ob_RRC_workplace;
        MoveL [[545.7, 282.6, 16.5],[-0.4805, 0.5188, 0.5188, 0.4805],[0,0,0,0],[9E9,9E9,9E9,9E9,9E9,9E9]], s_printSpeed, fine, tool0, \WObj:=ob_RRC_workplace;
        MoveL [[547.9, 285.3, 28.0],[-0.4729, 0.5257, 0.5257, 0.4729],[0,0,0,0],[9E9,9E9,9E9,9E9,9E9,9E9]], s_printSpeed, fine, tool0, \WObj:=ob_RRC_workplace;
        MoveL [[550.0, 287.9, 39.5],[-0.4676, 0.5304, 0.5304, 0.4676],[0,0,0,0],[9E9,9E9,9E9,9E9,9E9,9E9]], s_printSpeed, fine, tool0, \WObj:=ob_RRC_workplace;
        MoveL [[544.0, 290.3, 49.7],[-0.4641, 0.5335, 0.5335, 0.4641],[0,0,0,0],[9E9,9E9,9E9,9E9,9E9,9E9]], s_printSpeed, fine, tool0, \WObj:=ob_RRC_workplace;
        MoveL [[532.1, 290.0, 48.7],[-0.4644, 0.5332, 0.5332, 0.4644],[0,0,0,0],[9E9,9E9,9E9,9E9,9E9,9E9]], s_printSpeed, fine, tool0, \WObj:=ob_RRC_workplace;
        MoveL [[520.3, 289.5, 46.2],[-0.4652, 0.5325, 0.5325, 0.4652],[0,0,0,0],[9E9,9E9,9E9,9E9,9E9,9E9]], s_printSpeed, fine, tool0, \WObj:=ob_RRC_workplace;
        MoveL [[508.4, 289.2, 45.2],[-0.4656, 0.5322, 0.5322, 0.4656],[0,0,0,0],[9E9,9E9,9E9,9E9,9E9,9E9]], s_printSpeed, fine, tool0, \WObj:=ob_RRC_workplace;
        MoveL [[501.8, 291.5, 55.0],[-0.4626, 0.5348, 0.5348, 0.4626],[0,0,0,0],[9E9,9E9,9E9,9E9,9E9,9E9]], s_printSpeed, fine, tool0, \WObj:=ob_RRC_workplace;
        MoveL [[503.8, 294.2, 66.5],[-0.4599, 0.5371, 0.5371, 0.4599],[0,0,0,0],[9E9,9E9,9E9,9E9,9E9,9E9]], s_printSpeed, fine, tool0, \WObj:=ob_RRC_workplace;
        MoveL [[506.2, 296.8, 77.9],[-0.4578, 0.5389, 0.5389, 0.4578],[0,0,0,0],[9E9,9E9,9E9,9E9,9E9,9E9]], s_printSpeed, fine, tool0, \WObj:=ob_RRC_workplace;
        MoveL [[505.3, 299.5, 89.6],[-0.4560, 0.5404, 0.5404, 0.4560],[0,0,0,0],[9E9,9E9,9E9,9E9,9E9,9E9]], s_printSpeed, fine, tool0, \WObj:=ob_RRC_workplace;
        MoveL [[493.4, 300.0, 91.6],[-0.4557, 0.5407, 0.5407, 0.4557],[0,0,0,0],[9E9,9E9,9E9,9E9,9E9,9E9]], s_printSpeed, fine, tool0, \WObj:=ob_RRC_workplace;
        MoveL [[481.7, 299.4, 89.3],[-0.4560, 0.5404, 0.5404, 0.4560],[0,0,0,0],[9E9,9E9,9E9,9E9,9E9,9E9]], s_printSpeed, fine, tool0, \WObj:=ob_RRC_workplace;
        MoveL [[469.9, 299.0, 87.2],[-0.4563, 0.5402, 0.5402, 0.4563],[0,0,0,0],[9E9,9E9,9E9,9E9,9E9,9E9]], s_printSpeed, fine, tool0, \WObj:=ob_RRC_workplace;
        MoveL [[458.9, 300.0, 91.9],[-0.4557, 0.5407, 0.5407, 0.4557],[0,0,0,0],[9E9,9E9,9E9,9E9,9E9,9E9]], s_printSpeed, fine, tool0, \WObj:=ob_RRC_workplace;
        MoveL [[458.8, 302.8, 103.6],[-0.4543, 0.5419, 0.5419, 0.4543],[0,0,0,0],[9E9,9E9,9E9,9E9,9E9,9E9]], s_printSpeed, fine, tool0, \WObj:=ob_RRC_workplace;
        MoveL [[461.1, 305.4, 115.1],[-0.4531, 0.5429, 0.5429, 0.4531],[0,0,0,0],[9E9,9E9,9E9,9E9,9E9,9E9]], s_printSpeed, fine, tool0, \WObj:=ob_RRC_workplace;
        MoveL [[462.8, 308.1, 126.7],[-0.4521, 0.5437, 0.5437, 0.4521],[0,0,0,0],[9E9,9E9,9E9,9E9,9E9,9E9]], s_printSpeed, fine, tool0, \WObj:=ob_RRC_workplace;
        MoveL [[454.5, 310.0, 135.1],[-0.4514, 0.5443, 0.5443, 0.4514],[0,0,0,0],[9E9,9E9,9E9,9E9,9E9,9E9]], s_printSpeed, fine, tool0, \WObj:=ob_RRC_workplace;
        MoveL [[442.6, 309.7, 133.5],[-0.4515, 0.5442, 0.5442, 0.4515],[0,0,0,0],[9E9,9E9,9E9,9E9,9E9,9E9]], s_printSpeed, fine, tool0, \WObj:=ob_RRC_workplace;
        MoveL [[430.8, 309.2, 131.4],[-0.4517, 0.5440, 0.5440, 0.4517],[0,0,0,0],[9E9,9E9,9E9,9E9,9E9,9E9]], s_printSpeed, fine, tool0, \WObj:=ob_RRC_workplace;
        MoveL [[418.8, 309.0, 130.6],[-0.4517, 0.5440, 0.5440, 0.4517],[0,0,0,0],[9E9,9E9,9E9,9E9,9E9,9E9]], s_printSpeed, fine, tool0, \WObj:=ob_RRC_workplace;
        MoveL [[406.9, 309.3, 132.1],[-0.4516, 0.5441, 0.5441, 0.4516],[0,0,0,0],[9E9,9E9,9E9,9E9,9E9,9E9]], s_printSpeed, fine, tool0, \WObj:=ob_RRC_workplace;
        MoveL [[395.2, 308.8, 129.8],[-0.4518, 0.5439, 0.5439, 0.4518],[0,0,0,0],[9E9,9E9,9E9,9E9,9E9,9E9]], s_printSpeed, fine, tool0, \WObj:=ob_RRC_workplace;
        MoveL [[395.7, 306.1, 118.1],[-0.4528, 0.5431, 0.5431, 0.4528],[0,0,0,0],[9E9,9E9,9E9,9E9,9E9,9E9]], s_printSpeed, fine, tool0, \WObj:=ob_RRC_workplace;
        MoveL [[398.2, 303.5, 106.7],[-0.4539, 0.5422, 0.5422, 0.4539],[0,0,0,0],[9E9,9E9,9E9,9E9,9E9,9E9]], s_printSpeed, fine, tool0, \WObj:=ob_RRC_workplace;
        MoveL [[399.7, 300.8, 95.1],[-0.4553, 0.5410, 0.5410, 0.4553],[0,0,0,0],[9E9,9E9,9E9,9E9,9E9,9E9]], s_printSpeed, fine, tool0, \WObj:=ob_RRC_workplace;
        MoveL [[391.2, 298.9, 86.8],[-0.4564, 0.5401, 0.5401, 0.4564],[0,0,0,0],[9E9,9E9,9E9,9E9,9E9,9E9]], s_printSpeed, fine, tool0, \WObj:=ob_RRC_workplace;
        MoveL [[379.4, 299.2, 88.4],[-0.4562, 0.5403, 0.5403, 0.4562],[0,0,0,0],[9E9,9E9,9E9,9E9,9E9,9E9]], s_printSpeed, fine, tool0, \WObj:=ob_RRC_workplace;
        MoveL [[367.6, 299.8, 90.9],[-0.4558, 0.5406, 0.5406, 0.4558],[0,0,0,0],[9E9,9E9,9E9,9E9,9E9,9E9]], s_printSpeed, fine, tool0, \WObj:=ob_RRC_workplace;
        MoveL [[355.6, 299.9, 91.2],[-0.4558, 0.5406, 0.5406, 0.4558],[0,0,0,0],[9E9,9E9,9E9,9E9,9E9,9E9]], s_printSpeed, fine, tool0, \WObj:=ob_RRC_workplace;
        MoveL [[352.0, 297.3, 80.1],[-0.4574, 0.5392, 0.5392, 0.4574],[0,0,0,0],[9E9,9E9,9E9,9E9,9E9,9E9]], s_printSpeed, fine, tool0, \WObj:=ob_RRC_workplace;
        MoveL [[354.3, 294.7, 68.6],[-0.4595, 0.5375, 0.5375, 0.4595],[0,0,0,0],[9E9,9E9,9E9,9E9,9E9,9E9]], s_printSpeed, fine, tool0, \WObj:=ob_RRC_workplace;
        MoveL [[356.5, 292.0, 57.1],[-0.4621, 0.5352, 0.5352, 0.4621],[0,0,0,0],[9E9,9E9,9E9,9E9,9E9,9E9]], s_printSpeed, fine, tool0, \WObj:=ob_RRC_workplace;
        MoveL [[353.1, 289.4, 45.9],[-0.4653, 0.5324, 0.5324, 0.4653],[0,0,0,0],[9E9,9E9,9E9,9E9,9E9,9E9]], s_printSpeed, fine, tool0, \WObj:=ob_RRC_workplace;
        MoveL [[341.1, 289.4, 45.7],[-0.4654, 0.5324, 0.5324, 0.4654],[0,0,0,0],[9E9,9E9,9E9,9E9,9E9,9E9]], s_printSpeed, fine, tool0, \WObj:=ob_RRC_workplace;
        MoveL [[329.3, 289.9, 48.1],[-0.4646, 0.5330, 0.5330, 0.4646],[0,0,0,0],[9E9,9E9,9E9,9E9,9E9,9E9]], s_printSpeed, fine, tool0, \WObj:=ob_RRC_workplace;
        MoveL [[317.5, 290.3, 49.8],[-0.4641, 0.5335, 0.5335, 0.4641],[0,0,0,0],[9E9,9E9,9E9,9E9,9E9,9E9]], s_printSpeed, fine, tool0, \WObj:=ob_RRC_workplace;
        MoveL [[308.5, 288.5, 42.0],[-0.4667, 0.5313, 0.5313, 0.4667],[0,0,0,0],[9E9,9E9,9E9,9E9,9E9,9E9]], s_printSpeed, fine, tool0, \WObj:=ob_RRC_workplace;
        MoveL [[310.1, 285.8, 30.4],[-0.4716, 0.5269, 0.5269, 0.4716],[0,0,0,0],[9E9,9E9,9E9,9E9,9E9,9E9]], s_printSpeed, fine, tool0, \WObj:=ob_RRC_workplace;
        MoveL [[312.5, 283.2, 19.0],[-0.4786, 0.5205, 0.5205, 0.4786],[0,0,0,0],[9E9,9E9,9E9,9E9,9E9,9E9]], s_printSpeed, fine, tool0, \WObj:=ob_RRC_workplace;
        MoveL [[312.8, 280.5, 7.3],[-0.4896, 0.5102, 0.5102, 0.4896],[0,0,0,0],[9E9,9E9,9E9,9E9,9E9,9E9]], s_printSpeed, fine, tool0, \WObj:=ob_RRC_workplace;
        MoveL [[303.2, 278.9, 0.3],[-0.4995, 0.5005, 0.5005, 0.4995],[0,0,0,0],[9E9,9E9,9E9,9E9,9E9,9E9]], s_printSpeed, fine, tool0, \WObj:=ob_RRC_workplace;
        MoveL [[291.2, 278.9, 0.6],[-0.4990, 0.5010, 0.5010, 0.4990],[0,0,0,0],[9E9,9E9,9E9,9E9,9E9,9E9]], s_printSpeed, fine, tool0, \WObj:=ob_RRC_workplace;
        MoveL [[279.4, 279.5, 3.0],[-0.4952, 0.5048, 0.5048, 0.4952],[0,0,0,0],[9E9,9E9,9E9,9E9,9E9,9E9]], s_printSpeed, fine, tool0, \WObj:=ob_RRC_workplace;
        MoveL [[268.0, 280.3, 6.5],[-0.4905, 0.5093, 0.5093, 0.4905],[0,0,0,0],[9E9,9E9,9E9,9E9,9E9,9E9]], s_printSpeed, fine, tool0, \WObj:=ob_RRC_workplace;
    ! layer end
        MoveL [[581.4, 280.0, 3.6],[-0.4941, 0.5058, 0.5058, 0.4941],[0,0,0,0],[9E9,9E9,9E9,9E9,9E9,9E9]], s_printSpeed, fine, tool0, \WObj:=ob_RRC_workplace;
        MoveL [[569.7, 279.3, 0.9],[-0.4983, 0.5017, 0.5017, 0.4983],[0,0,0,0],[9E9,9E9,9E9,9E9,9E9,9E9]], s_printSpeed, fine, tool0, \WObj:=ob_RRC_workplace;
        MoveL [[557.8, 279.1, 0.1],[-0.4999, 0.5001, 0.5001, 0.4999],[0,0,0,0],[9E9,9E9,9E9,9E9,9E9,9E9]], s_printSpeed, fine, tool0, \WObj:=ob_RRC_workplace;
        MoveL [[546.8, 280.3, 4.9],[-0.4923, 0.5076, 0.5076, 0.4923],[0,0,0,0],[9E9,9E9,9E9,9E9,9E9,9E9]], s_printSpeed, fine, tool0, \WObj:=ob_RRC_workplace;
        MoveL [[545.7, 283.1, 16.5],[-0.4797, 0.5195, 0.5195, 0.4797],[0,0,0,0],[9E9,9E9,9E9,9E9,9E9,9E9]], s_printSpeed, fine, tool0, \WObj:=ob_RRC_workplace;
        MoveL [[547.9, 285.8, 27.9],[-0.4718, 0.5267, 0.5267, 0.4718],[0,0,0,0],[9E9,9E9,9E9,9E9,9E9,9E9]], s_printSpeed, fine, tool0, \WObj:=ob_RRC_workplace;
        MoveL [[550.0, 288.6, 39.4],[-0.4663, 0.5315, 0.5315, 0.4663],[0,0,0,0],[9E9,9E9,9E9,9E9,9E9,9E9]], s_printSpeed, fine, tool0, \WObj:=ob_RRC_workplace;
        MoveL [[544.0, 291.0, 49.6],[-0.4627, 0.5347, 0.5347, 0.4627],[0,0,0,0],[9E9,9E9,9E9,9E9,9E9,9E9]], s_printSpeed, fine, tool0, \WObj:=ob_RRC_workplace;
        MoveL [[532.1, 290.8, 48.6],[-0.4630, 0.5344, 0.5344, 0.4630],[0,0,0,0],[9E9,9E9,9E9,9E9,9E9,9E9]], s_printSpeed, fine, tool0, \WObj:=ob_RRC_workplace;
        MoveL [[520.3, 290.2, 46.1],[-0.4638, 0.5337, 0.5337, 0.4638],[0,0,0,0],[9E9,9E9,9E9,9E9,9E9,9E9]], s_printSpeed, fine, tool0, \WObj:=ob_RRC_workplace;
        MoveL [[508.4, 289.9, 45.1],[-0.4642, 0.5334, 0.5334, 0.4642],[0,0,0,0],[9E9,9E9,9E9,9E9,9E9,9E9]], s_printSpeed, fine, tool0, \WObj:=ob_RRC_workplace;
        MoveL [[501.8, 292.3, 54.8],[-0.4612, 0.5360, 0.5360, 0.4612],[0,0,0,0],[9E9,9E9,9E9,9E9,9E9,9E9]], s_printSpeed, fine, tool0, \WObj:=ob_RRC_workplace;
        MoveL [[503.8, 295.1, 66.4],[-0.4583, 0.5384, 0.5384, 0.4583],[0,0,0,0],[9E9,9E9,9E9,9E9,9E9,9E9]], s_printSpeed, fine, tool0, \WObj:=ob_RRC_workplace;
        MoveL [[506.2, 297.8, 77.8],[-0.4561, 0.5403, 0.5403, 0.4561],[0,0,0,0],[9E9,9E9,9E9,9E9,9E9,9E9]], s_printSpeed, fine, tool0, \WObj:=ob_RRC_workplace;
        MoveL [[505.3, 300.6, 89.4],[-0.4543, 0.5419, 0.5419, 0.4543],[0,0,0,0],[9E9,9E9,9E9,9E9,9E9,9E9]], s_printSpeed, fine, tool0, \WObj:=ob_RRC_workplace;
        MoveL [[493.4, 301.1, 91.4],[-0.4540, 0.5421, 0.5421, 0.4540],[0,0,0,0],[9E9,9E9,9E9,9E9,9E9,9E9]], s_printSpeed, fine, tool0, \WObj:=ob_RRC_workplace;
        MoveL [[481.7, 300.5, 89.1],[-0.4543, 0.5419, 0.5419, 0.4543],[0,0,0,0],[9E9,9E9,9E9,9E9,9E9,9E9]], s_printSpeed, fine, tool0, \WObj:=ob_RRC_workplace;
        MoveL [[469.9, 300.0, 87.1],[-0.4546, 0.5416, 0.5416, 0.4546],[0,0,0,0],[9E9,9E9,9E9,9E9,9E9,9E9]], s_printSpeed, fine, tool0, \WObj:=ob_RRC_workplace;
        MoveL [[458.9, 301.2, 91.7],[-0.4539, 0.5422, 0.5422, 0.4539],[0,0,0,0],[9E9,9E9,9E9,9E9,9E9,9E9]], s_printSpeed, fine, tool0, \WObj:=ob_RRC_workplace;
        MoveL [[458.8, 304.0, 103.4],[-0.4525, 0.5434, 0.5434, 0.4525],[0,0,0,0],[9E9,9E9,9E9,9E9,9E9,9E9]], s_printSpeed, fine, tool0, \WObj:=ob_RRC_workplace;
        MoveL [[461.1, 306.7, 114.9],[-0.4512, 0.5444, 0.5444, 0.4512],[0,0,0,0],[9E9,9E9,9E9,9E9,9E9,9E9]], s_printSpeed, fine, tool0, \WObj:=ob_RRC_workplace;
        MoveL [[462.8, 309.5, 126.4],[-0.4502, 0.5453, 0.5453, 0.4502],[0,0,0,0],[9E9,9E9,9E9,9E9,9E9,9E9]], s_printSpeed, fine, tool0, \WObj:=ob_RRC_workplace;
        MoveL [[454.5, 311.5, 134.8],[-0.4495, 0.5459, 0.5459, 0.4495],[0,0,0,0],[9E9,9E9,9E9,9E9,9E9,9E9]], s_printSpeed, fine, tool0, \WObj:=ob_RRC_workplace;
        MoveL [[442.6, 311.1, 133.2],[-0.4496, 0.5458, 0.5458, 0.4496],[0,0,0,0],[9E9,9E9,9E9,9E9,9E9,9E9]], s_printSpeed, fine, tool0, \WObj:=ob_RRC_workplace;
        MoveL [[430.8, 310.6, 131.1],[-0.4498, 0.5456, 0.5456, 0.4498],[0,0,0,0],[9E9,9E9,9E9,9E9,9E9,9E9]], s_printSpeed, fine, tool0, \WObj:=ob_RRC_workplace;
        MoveL [[418.8, 310.4, 130.3],[-0.4498, 0.5456, 0.5456, 0.4498],[0,0,0,0],[9E9,9E9,9E9,9E9,9E9,9E9]], s_printSpeed, fine, tool0, \WObj:=ob_RRC_workplace;
        MoveL [[406.9, 310.8, 131.8],[-0.4497, 0.5457, 0.5457, 0.4497],[0,0,0,0],[9E9,9E9,9E9,9E9,9E9,9E9]], s_printSpeed, fine, tool0, \WObj:=ob_RRC_workplace;
        MoveL [[395.2, 310.2, 129.5],[-0.4499, 0.5455, 0.5455, 0.4499],[0,0,0,0],[9E9,9E9,9E9,9E9,9E9,9E9]], s_printSpeed, fine, tool0, \WObj:=ob_RRC_workplace;
        MoveL [[395.7, 307.4, 117.9],[-0.4509, 0.5447, 0.5447, 0.4509],[0,0,0,0],[9E9,9E9,9E9,9E9,9E9,9E9]], s_printSpeed, fine, tool0, \WObj:=ob_RRC_workplace;
        MoveL [[398.2, 304.7, 106.5],[-0.4521, 0.5437, 0.5437, 0.4521],[0,0,0,0],[9E9,9E9,9E9,9E9,9E9,9E9]], s_printSpeed, fine, tool0, \WObj:=ob_RRC_workplace;
        MoveL [[399.7, 301.9, 94.9],[-0.4535, 0.5425, 0.5425, 0.4535],[0,0,0,0],[9E9,9E9,9E9,9E9,9E9,9E9]], s_printSpeed, fine, tool0, \WObj:=ob_RRC_workplace;
        MoveL [[391.2, 299.9, 86.6],[-0.4547, 0.5415, 0.5415, 0.4547],[0,0,0,0],[9E9,9E9,9E9,9E9,9E9,9E9]], s_printSpeed, fine, tool0, \WObj:=ob_RRC_workplace;
        MoveL [[379.4, 300.3, 88.2],[-0.4544, 0.5417, 0.5417, 0.4544],[0,0,0,0],[9E9,9E9,9E9,9E9,9E9,9E9]], s_printSpeed, fine, tool0, \WObj:=ob_RRC_workplace;
        MoveL [[367.6, 300.9, 90.7],[-0.4541, 0.5421, 0.5421, 0.4541],[0,0,0,0],[9E9,9E9,9E9,9E9,9E9,9E9]], s_printSpeed, fine, tool0, \WObj:=ob_RRC_workplace;
        MoveL [[355.6, 301.0, 91.0],[-0.4540, 0.5421, 0.5421, 0.4540],[0,0,0,0],[9E9,9E9,9E9,9E9,9E9,9E9]], s_printSpeed, fine, tool0, \WObj:=ob_RRC_workplace;
        MoveL [[352.0, 298.3, 79.9],[-0.4557, 0.5406, 0.5406, 0.4557],[0,0,0,0],[9E9,9E9,9E9,9E9,9E9,9E9]], s_printSpeed, fine, tool0, \WObj:=ob_RRC_workplace;
        MoveL [[354.3, 295.6, 68.4],[-0.4579, 0.5388, 0.5388, 0.4579],[0,0,0,0],[9E9,9E9,9E9,9E9,9E9,9E9]], s_printSpeed, fine, tool0, \WObj:=ob_RRC_workplace;
        MoveL [[356.5, 292.8, 57.0],[-0.4606, 0.5365, 0.5365, 0.4606],[0,0,0,0],[9E9,9E9,9E9,9E9,9E9,9E9]], s_printSpeed, fine, tool0, \WObj:=ob_RRC_workplace;
        MoveL [[353.1, 290.1, 45.8],[-0.4640, 0.5336, 0.5336, 0.4640],[0,0,0,0],[9E9,9E9,9E9,9E9,9E9,9E9]], s_printSpeed, fine, tool0, \WObj:=ob_RRC_workplace;
        MoveL [[341.1, 290.1, 45.6],[-0.4640, 0.5336, 0.5336, 0.4640],[0,0,0,0],[9E9,9E9,9E9,9E9,9E9,9E9]], s_printSpeed, fine, tool0, \WObj:=ob_RRC_workplace;
        MoveL [[329.3, 290.6, 48.0],[-0.4632, 0.5342, 0.5342, 0.4632],[0,0,0,0],[9E9,9E9,9E9,9E9,9E9,9E9]], s_printSpeed, fine, tool0, \WObj:=ob_RRC_workplace;
        MoveL [[317.5, 291.1, 49.7],[-0.4627, 0.5347, 0.5347, 0.4627],[0,0,0,0],[9E9,9E9,9E9,9E9,9E9,9E9]], s_printSpeed, fine, tool0, \WObj:=ob_RRC_workplace;
        MoveL [[308.5, 289.2, 41.9],[-0.4654, 0.5324, 0.5324, 0.4654],[0,0,0,0],[9E9,9E9,9E9,9E9,9E9,9E9]], s_printSpeed, fine, tool0, \WObj:=ob_RRC_workplace;
        MoveL [[310.1, 286.4, 30.4],[-0.4705, 0.5279, 0.5279, 0.4705],[0,0,0,0],[9E9,9E9,9E9,9E9,9E9,9E9]], s_printSpeed, fine, tool0, \WObj:=ob_RRC_workplace;
        MoveL [[312.5, 283.6, 18.9],[-0.4778, 0.5213, 0.5213, 0.4778],[0,0,0,0],[9E9,9E9,9E9,9E9,9E9,9E9]], s_printSpeed, fine, tool0, \WObj:=ob_RRC_workplace;
        MoveL [[312.8, 280.8, 7.3],[-0.4892, 0.5106, 0.5106, 0.4892],[0,0,0,0],[9E9,9E9,9E9,9E9,9E9,9E9]], s_printSpeed, fine, tool0, \WObj:=ob_RRC_workplace;
        MoveL [[303.2, 279.2, 0.3],[-0.4995, 0.5005, 0.5005, 0.4995],[0,0,0,0],[9E9,9E9,9E9,9E9,9E9,9E9]], s_printSpeed, fine, tool0, \WObj:=ob_RRC_workplace;
        MoveL [[291.2, 279.2, 0.6],[-0.4990, 0.5010, 0.5010, 0.4990],[0,0,0,0],[9E9,9E9,9E9,9E9,9E9,9E9]], s_printSpeed, fine, tool0, \WObj:=ob_RRC_workplace;
        MoveL [[279.4, 279.8, 3.0],[-0.4950, 0.5049, 0.5049, 0.4950],[0,0,0,0],[9E9,9E9,9E9,9E9,9E9,9E9]], s_printSpeed, fine, tool0, \WObj:=ob_RRC_workplace;
        MoveL [[268.0, 280.7, 6.5],[-0.4901, 0.5097, 0.5097, 0.4901],[0,0,0,0],[9E9,9E9,9E9,9E9,9E9,9E9]], s_printSpeed, fine, tool0, \WObj:=ob_RRC_workplace;
    ! layer end
        MoveL [[581.4, 280.3, 3.6],[-0.4939, 0.5060, 0.5060, 0.4939],[0,0,0,0],[9E9,9E9,9E9,9E9,9E9,9E9]], s_printSpeed, fine, tool0, \WObj:=ob_RRC_workplace;
        MoveL [[569.7, 279.6, 0.9],[-0.4983, 0.5017, 0.5017, 0.4983],[0,0,0,0],[9E9,9E9,9E9,9E9,9E9,9E9]], s_printSpeed, fine, tool0, \WObj:=ob_RRC_workplace;
        MoveL [[557.8, 279.4, 0.1],[-0.4999, 0.5001, 0.5001, 0.4999],[0,0,0,0],[9E9,9E9,9E9,9E9,9E9,9E9]], s_printSpeed, fine, tool0, \WObj:=ob_RRC_workplace;
        MoveL [[546.8, 280.6, 4.8],[-0.4920, 0.5078, 0.5078, 0.4920],[0,0,0,0],[9E9,9E9,9E9,9E9,9E9,9E9]], s_printSpeed, fine, tool0, \WObj:=ob_RRC_workplace;
        MoveL [[545.7, 283.5, 16.4],[-0.4790, 0.5202, 0.5202, 0.4790],[0,0,0,0],[9E9,9E9,9E9,9E9,9E9,9E9]], s_printSpeed, fine, tool0, \WObj:=ob_RRC_workplace;
        MoveL [[547.9, 286.4, 27.9],[-0.4708, 0.5276, 0.5276, 0.4708],[0,0,0,0],[9E9,9E9,9E9,9E9,9E9,9E9]], s_printSpeed, fine, tool0, \WObj:=ob_RRC_workplace;
        MoveL [[550.0, 289.2, 39.3],[-0.4651, 0.5327, 0.5327, 0.4651],[0,0,0,0],[9E9,9E9,9E9,9E9,9E9,9E9]], s_printSpeed, fine, tool0, \WObj:=ob_RRC_workplace;
        MoveL [[544.0, 291.8, 49.5],[-0.4613, 0.5359, 0.5359, 0.4613],[0,0,0,0],[9E9,9E9,9E9,9E9,9E9,9E9]], s_printSpeed, fine, tool0, \WObj:=ob_RRC_workplace;
        MoveL [[532.1, 291.5, 48.5],[-0.4616, 0.5356, 0.5356, 0.4616],[0,0,0,0],[9E9,9E9,9E9,9E9,9E9,9E9]], s_printSpeed, fine, tool0, \WObj:=ob_RRC_workplace;
        MoveL [[520.3, 290.9, 46.0],[-0.4625, 0.5349, 0.5349, 0.4625],[0,0,0,0],[9E9,9E9,9E9,9E9,9E9,9E9]], s_printSpeed, fine, tool0, \WObj:=ob_RRC_workplace;
        MoveL [[508.4, 290.6, 45.0],[-0.4628, 0.5346, 0.5346, 0.4628],[0,0,0,0],[9E9,9E9,9E9,9E9,9E9,9E9]], s_printSpeed, fine, tool0, \WObj:=ob_RRC_workplace;
        MoveL [[501.8, 293.1, 54.7],[-0.4597, 0.5373, 0.5373, 0.4597],[0,0,0,0],[9E9,9E9,9E9,9E9,9E9,9E9]], s_printSpeed, fine, tool0, \WObj:=ob_RRC_workplace;
        MoveL [[503.8, 295.9, 66.2],[-0.4568, 0.5398, 0.5398, 0.4568],[0,0,0,0],[9E9,9E9,9E9,9E9,9E9,9E9]], s_printSpeed, fine, tool0, \WObj:=ob_RRC_workplace;
        MoveL [[506.2, 298.8, 77.6],[-0.4544, 0.5417, 0.5417, 0.4544],[0,0,0,0],[9E9,9E9,9E9,9E9,9E9,9E9]], s_printSpeed, fine, tool0, \WObj:=ob_RRC_workplace;
        MoveL [[505.3, 301.7, 89.2],[-0.4525, 0.5433, 0.5433, 0.4525],[0,0,0,0],[9E9,9E9,9E9,9E9,9E9,9E9]], s_printSpeed, fine, tool0, \WObj:=ob_RRC_workplace;
        MoveL [[493.4, 302.2, 91.2],[-0.4522, 0.5436, 0.5436, 0.4522],[0,0,0,0],[9E9,9E9,9E9,9E9,9E9,9E9]], s_printSpeed, fine, tool0, \WObj:=ob_RRC_workplace;
        MoveL [[481.7, 301.6, 88.9],[-0.4526, 0.5433, 0.5433, 0.4526],[0,0,0,0],[9E9,9E9,9E9,9E9,9E9,9E9]], s_printSpeed, fine, tool0, \WObj:=ob_RRC_workplace;
        MoveL [[469.9, 301.1, 86.9],[-0.4529, 0.5431, 0.5431, 0.4529],[0,0,0,0],[9E9,9E9,9E9,9E9,9E9,9E9]], s_printSpeed, fine, tool0, \WObj:=ob_RRC_workplace;
        MoveL [[458.9, 302.3, 91.5],[-0.4522, 0.5436, 0.5436, 0.4522],[0,0,0,0],[9E9,9E9,9E9,9E9,9E9,9E9]], s_printSpeed, fine, tool0, \WObj:=ob_RRC_workplace;
        MoveL [[458.8, 305.2, 103.2],[-0.4506, 0.5449, 0.5449, 0.4506],[0,0,0,0],[9E9,9E9,9E9,9E9,9E9,9E9]], s_printSpeed, fine, tool0, \WObj:=ob_RRC_workplace;
        MoveL [[461.1, 308.0, 114.6],[-0.4494, 0.5460, 0.5460, 0.4494],[0,0,0,0],[9E9,9E9,9E9,9E9,9E9,9E9]], s_printSpeed, fine, tool0, \WObj:=ob_RRC_workplace;
        MoveL [[462.8, 310.9, 126.1],[-0.4482, 0.5469, 0.5469, 0.4482],[0,0,0,0],[9E9,9E9,9E9,9E9,9E9,9E9]], s_printSpeed, fine, tool0, \WObj:=ob_RRC_workplace;
        MoveL [[454.5, 313.0, 134.5],[-0.4475, 0.5475, 0.5475, 0.4475],[0,0,0,0],[9E9,9E9,9E9,9E9,9E9,9E9]], s_printSpeed, fine, tool0, \WObj:=ob_RRC_workplace;
        MoveL [[442.6, 312.6, 132.9],[-0.4477, 0.5473, 0.5473, 0.4477],[0,0,0,0],[9E9,9E9,9E9,9E9,9E9,9E9]], s_printSpeed, fine, tool0, \WObj:=ob_RRC_workplace;
        MoveL [[430.8, 312.1, 130.8],[-0.4478, 0.5472, 0.5472, 0.4478],[0,0,0,0],[9E9,9E9,9E9,9E9,9E9,9E9]], s_printSpeed, fine, tool0, \WObj:=ob_RRC_workplace;
        MoveL [[418.8, 311.9, 130.0],[-0.4479, 0.5472, 0.5472, 0.4479],[0,0,0,0],[9E9,9E9,9E9,9E9,9E9,9E9]], s_printSpeed, fine, tool0, \WObj:=ob_RRC_workplace;
        MoveL [[406.9, 312.2, 131.5],[-0.4478, 0.5473, 0.5473, 0.4478],[0,0,0,0],[9E9,9E9,9E9,9E9,9E9,9E9]], s_printSpeed, fine, tool0, \WObj:=ob_RRC_workplace;
        MoveL [[395.2, 311.7, 129.3],[-0.4480, 0.5471, 0.5471, 0.4480],[0,0,0,0],[9E9,9E9,9E9,9E9,9E9,9E9]], s_printSpeed, fine, tool0, \WObj:=ob_RRC_workplace;
        MoveL [[395.7, 308.8, 117.6],[-0.4490, 0.5462, 0.5462, 0.4490],[0,0,0,0],[9E9,9E9,9E9,9E9,9E9,9E9]], s_printSpeed, fine, tool0, \WObj:=ob_RRC_workplace;
        MoveL [[398.2, 305.9, 106.2],[-0.4503, 0.5452, 0.5452, 0.4503],[0,0,0,0],[9E9,9E9,9E9,9E9,9E9,9E9]], s_printSpeed, fine, tool0, \WObj:=ob_RRC_workplace;
        MoveL [[399.7, 303.1, 94.7],[-0.4517, 0.5440, 0.5440, 0.4517],[0,0,0,0],[9E9,9E9,9E9,9E9,9E9,9E9]], s_printSpeed, fine, tool0, \WObj:=ob_RRC_workplace;
        MoveL [[391.2, 301.0, 86.4],[-0.4529, 0.5430, 0.5430, 0.4529],[0,0,0,0],[9E9,9E9,9E9,9E9,9E9,9E9]], s_printSpeed, fine, tool0, \WObj:=ob_RRC_workplace;
        MoveL [[379.4, 301.4, 88.0],[-0.4527, 0.5432, 0.5432, 0.4527],[0,0,0,0],[9E9,9E9,9E9,9E9,9E9,9E9]], s_printSpeed, fine, tool0, \WObj:=ob_RRC_workplace;
        MoveL [[367.6, 302.0, 90.5],[-0.4523, 0.5435, 0.5435, 0.4523],[0,0,0,0],[9E9,9E9,9E9,9E9,9E9,9E9]], s_printSpeed, fine, tool0, \WObj:=ob_RRC_workplace;
        MoveL [[355.6, 302.1, 90.8],[-0.4523, 0.5435, 0.5435, 0.4523],[0,0,0,0],[9E9,9E9,9E9,9E9,9E9,9E9]], s_printSpeed, fine, tool0, \WObj:=ob_RRC_workplace;
        MoveL [[352.0, 299.3, 79.7],[-0.4541, 0.5421, 0.5421, 0.4541],[0,0,0,0],[9E9,9E9,9E9,9E9,9E9,9E9]], s_printSpeed, fine, tool0, \WObj:=ob_RRC_workplace;
        MoveL [[354.3, 296.5, 68.3],[-0.4563, 0.5402, 0.5402, 0.4563],[0,0,0,0],[9E9,9E9,9E9,9E9,9E9,9E9]], s_printSpeed, fine, tool0, \WObj:=ob_RRC_workplace;
        MoveL [[356.5, 293.6, 56.8],[-0.4591, 0.5378, 0.5378, 0.4591],[0,0,0,0],[9E9,9E9,9E9,9E9,9E9,9E9]], s_printSpeed, fine, tool0, \WObj:=ob_RRC_workplace;
        MoveL [[353.1, 290.8, 45.7],[-0.4626, 0.5348, 0.5348, 0.4626],[0,0,0,0],[9E9,9E9,9E9,9E9,9E9,9E9]], s_printSpeed, fine, tool0, \WObj:=ob_RRC_workplace;
        MoveL [[341.1, 290.8, 45.5],[-0.4627, 0.5347, 0.5347, 0.4627],[0,0,0,0],[9E9,9E9,9E9,9E9,9E9,9E9]], s_printSpeed, fine, tool0, \WObj:=ob_RRC_workplace;
        MoveL [[329.3, 291.4, 47.9],[-0.4618, 0.5354, 0.5354, 0.4618],[0,0,0,0],[9E9,9E9,9E9,9E9,9E9,9E9]], s_printSpeed, fine, tool0, \WObj:=ob_RRC_workplace;
        MoveL [[317.5, 291.8, 49.6],[-0.4613, 0.5359, 0.5359, 0.4613],[0,0,0,0],[9E9,9E9,9E9,9E9,9E9,9E9]], s_printSpeed, fine, tool0, \WObj:=ob_RRC_workplace;
        MoveL [[308.5, 289.8, 41.8],[-0.4640, 0.5335, 0.5335, 0.4640],[0,0,0,0],[9E9,9E9,9E9,9E9,9E9,9E9]], s_printSpeed, fine, tool0, \WObj:=ob_RRC_workplace;
        MoveL [[310.1, 287.0, 30.3],[-0.4694, 0.5288, 0.5288, 0.4694],[0,0,0,0],[9E9,9E9,9E9,9E9,9E9,9E9]], s_printSpeed, fine, tool0, \WObj:=ob_RRC_workplace;
        MoveL [[312.5, 284.1, 18.9],[-0.4769, 0.5221, 0.5221, 0.4769],[0,0,0,0],[9E9,9E9,9E9,9E9,9E9,9E9]], s_printSpeed, fine, tool0, \WObj:=ob_RRC_workplace;
        MoveL [[312.8, 281.2, 7.2],[-0.4888, 0.5110, 0.5110, 0.4888],[0,0,0,0],[9E9,9E9,9E9,9E9,9E9,9E9]], s_printSpeed, fine, tool0, \WObj:=ob_RRC_workplace;
        MoveL [[303.2, 279.5, 0.3],[-0.4995, 0.5005, 0.5005, 0.4995],[0,0,0,0],[9E9,9E9,9E9,9E9,9E9,9E9]], s_printSpeed, fine, tool0, \WObj:=ob_RRC_workplace;
        MoveL [[291.2, 279.5, 0.6],[-0.4989, 0.5011, 0.5011, 0.4989],[0,0,0,0],[9E9,9E9,9E9,9E9,9E9,9E9]], s_printSpeed, fine, tool0, \WObj:=ob_RRC_workplace;
        MoveL [[279.4, 280.1, 3.0],[-0.4948, 0.5051, 0.5051, 0.4948],[0,0,0,0],[9E9,9E9,9E9,9E9,9E9,9E9]], s_printSpeed, fine, tool0, \WObj:=ob_RRC_workplace;
        MoveL [[268.0, 281.0, 6.5],[-0.4898, 0.5100, 0.5100, 0.4898],[0,0,0,0],[9E9,9E9,9E9,9E9,9E9,9E9]], s_printSpeed, fine, tool0, \WObj:=ob_RRC_workplace;
    ! layer end
        MoveL [[581.4, 280.6, 3.6],[-0.4937, 0.5063, 0.5063, 0.4937],[0,0,0,0],[9E9,9E9,9E9,9E9,9E9,9E9]], s_printSpeed, fine, tool0, \WObj:=ob_RRC_workplace;
        MoveL [[569.7, 279.9, 0.9],[-0.4982, 0.5018, 0.5018, 0.4982],[0,0,0,0],[9E9,9E9,9E9,9E9,9E9,9E9]], s_printSpeed, fine, tool0, \WObj:=ob_RRC_workplace;
        MoveL [[557.8, 279.7, 0.1],[-0.4999, 0.5001, 0.5001, 0.4999],[0,0,0,0],[9E9,9E9,9E9,9E9,9E9,9E9]], s_printSpeed, fine, tool0, \WObj:=ob_RRC_workplace;
        MoveL [[546.8, 281.0, 4.8],[-0.4918, 0.5081, 0.5081, 0.4918],[0,0,0,0],[9E9,9E9,9E9,9E9,9E9,9E9]], s_printSpeed, fine, tool0, \WObj:=ob_RRC_workplace;
        MoveL [[545.7, 283.9, 16.4],[-0.4782, 0.5209, 0.5209, 0.4782],[0,0,0,0],[9E9,9E9,9E9,9E9,9E9,9E9]], s_printSpeed, fine, tool0, \WObj:=ob_RRC_workplace;
        MoveL [[547.9, 286.9, 27.8],[-0.4697, 0.5286, 0.5286, 0.4697],[0,0,0,0],[9E9,9E9,9E9,9E9,9E9,9E9]], s_printSpeed, fine, tool0, \WObj:=ob_RRC_workplace;
        MoveL [[550.0, 289.9, 39.3],[-0.4638, 0.5338, 0.5338, 0.4638],[0,0,0,0],[9E9,9E9,9E9,9E9,9E9,9E9]], s_printSpeed, fine, tool0, \WObj:=ob_RRC_workplace;
        MoveL [[544.0, 292.5, 49.4],[-0.4599, 0.5371, 0.5371, 0.4599],[0,0,0,0],[9E9,9E9,9E9,9E9,9E9,9E9]], s_printSpeed, fine, tool0, \WObj:=ob_RRC_workplace;
        MoveL [[532.1, 292.2, 48.3],[-0.4602, 0.5368, 0.5368, 0.4602],[0,0,0,0],[9E9,9E9,9E9,9E9,9E9,9E9]], s_printSpeed, fine, tool0, \WObj:=ob_RRC_workplace;
        MoveL [[520.3, 291.6, 45.9],[-0.4611, 0.5361, 0.5361, 0.4611],[0,0,0,0],[9E9,9E9,9E9,9E9,9E9,9E9]], s_printSpeed, fine, tool0, \WObj:=ob_RRC_workplace;
        MoveL [[508.4, 291.3, 44.9],[-0.4615, 0.5357, 0.5357, 0.4615],[0,0,0,0],[9E9,9E9,9E9,9E9,9E9,9E9]], s_printSpeed, fine, tool0, \WObj:=ob_RRC_workplace;
        MoveL [[501.8, 293.8, 54.6],[-0.4582, 0.5385, 0.5385, 0.4582],[0,0,0,0],[9E9,9E9,9E9,9E9,9E9,9E9]], s_printSpeed, fine, tool0, \WObj:=ob_RRC_workplace;
        MoveL [[503.8, 296.8, 66.1],[-0.4552, 0.5411, 0.5411, 0.4552],[0,0,0,0],[9E9,9E9,9E9,9E9,9E9,9E9]], s_printSpeed, fine, tool0, \WObj:=ob_RRC_workplace;
        MoveL [[506.2, 299.8, 77.4],[-0.4528, 0.5431, 0.5431, 0.4528],[0,0,0,0],[9E9,9E9,9E9,9E9,9E9,9E9]], s_printSpeed, fine, tool0, \WObj:=ob_RRC_workplace;
        MoveL [[505.3, 302.8, 89.0],[-0.4508, 0.5448, 0.5448, 0.4508],[0,0,0,0],[9E9,9E9,9E9,9E9,9E9,9E9]], s_printSpeed, fine, tool0, \WObj:=ob_RRC_workplace;
        MoveL [[493.4, 303.3, 91.0],[-0.4505, 0.5451, 0.5451, 0.4505],[0,0,0,0],[9E9,9E9,9E9,9E9,9E9,9E9]], s_printSpeed, fine, tool0, \WObj:=ob_RRC_workplace;
        MoveL [[481.7, 302.7, 88.7],[-0.4508, 0.5448, 0.5448, 0.4508],[0,0,0,0],[9E9,9E9,9E9,9E9,9E9,9E9]], s_printSpeed, fine, tool0, \WObj:=ob_RRC_workplace;
        MoveL [[469.9, 302.2, 86.7],[-0.4511, 0.5445, 0.5445, 0.4511],[0,0,0,0],[9E9,9E9,9E9,9E9,9E9,9E9]], s_printSpeed, fine, tool0, \WObj:=ob_RRC_workplace;
        MoveL [[458.9, 303.4, 91.3],[-0.4504, 0.5451, 0.5451, 0.4504],[0,0,0,0],[9E9,9E9,9E9,9E9,9E9,9E9]], s_printSpeed, fine, tool0, \WObj:=ob_RRC_workplace;
        MoveL [[458.8, 306.4, 102.9],[-0.4488, 0.5464, 0.5464, 0.4488],[0,0,0,0],[9E9,9E9,9E9,9E9,9E9,9E9]], s_printSpeed, fine, tool0, \WObj:=ob_RRC_workplace;
        MoveL [[461.1, 309.3, 114.3],[-0.4475, 0.5475, 0.5475, 0.4475],[0,0,0,0],[9E9,9E9,9E9,9E9,9E9,9E9]], s_printSpeed, fine, tool0, \WObj:=ob_RRC_workplace;
        MoveL [[462.8, 312.3, 125.8],[-0.4463, 0.5484, 0.5484, 0.4463],[0,0,0,0],[9E9,9E9,9E9,9E9,9E9,9E9]], s_printSpeed, fine, tool0, \WObj:=ob_RRC_workplace;
        MoveL [[454.5, 314.5, 134.2],[-0.4456, 0.5490, 0.5490, 0.4456],[0,0,0,0],[9E9,9E9,9E9,9E9,9E9,9E9]], s_printSpeed, fine, tool0, \WObj:=ob_RRC_workplace;
        MoveL [[442.6, 314.1, 132.6],[-0.4457, 0.5489, 0.5489, 0.4457],[0,0,0,0],[9E9,9E9,9E9,9E9,9E9,9E9]], s_printSpeed, fine, tool0, \WObj:=ob_RRC_workplace;
        MoveL [[430.8, 313.5, 130.5],[-0.4459, 0.5488, 0.5488, 0.4459],[0,0,0,0],[9E9,9E9,9E9,9E9,9E9,9E9]], s_printSpeed, fine, tool0, \WObj:=ob_RRC_workplace;
        MoveL [[418.8, 313.3, 129.7],[-0.4460, 0.5487, 0.5487, 0.4460],[0,0,0,0],[9E9,9E9,9E9,9E9,9E9,9E9]], s_printSpeed, fine, tool0, \WObj:=ob_RRC_workplace;
        MoveL [[406.9, 313.7, 131.2],[-0.4459, 0.5488, 0.5488, 0.4459],[0,0,0,0],[9E9,9E9,9E9,9E9,9E9,9E9]], s_printSpeed, fine, tool0, \WObj:=ob_RRC_workplace;
        MoveL [[395.2, 313.1, 129.0],[-0.4461, 0.5487, 0.5487, 0.4461],[0,0,0,0],[9E9,9E9,9E9,9E9,9E9,9E9]], s_printSpeed, fine, tool0, \WObj:=ob_RRC_workplace;
        MoveL [[395.7, 310.1, 117.4],[-0.4472, 0.5478, 0.5478, 0.4472],[0,0,0,0],[9E9,9E9,9E9,9E9,9E9,9E9]], s_printSpeed, fine, tool0, \WObj:=ob_RRC_workplace;
        MoveL [[398.2, 307.2, 106.0],[-0.4484, 0.5467, 0.5467, 0.4484],[0,0,0,0],[9E9,9E9,9E9,9E9,9E9,9E9]], s_printSpeed, fine, tool0, \WObj:=ob_RRC_workplace;
        MoveL [[399.7, 304.2, 94.5],[-0.4500, 0.5455, 0.5455, 0.4500],[0,0,0,0],[9E9,9E9,9E9,9E9,9E9,9E9]], s_printSpeed, fine, tool0, \WObj:=ob_RRC_workplace;
        MoveL [[391.2, 302.0, 86.2],[-0.4512, 0.5444, 0.5444, 0.4512],[0,0,0,0],[9E9,9E9,9E9,9E9,9E9,9E9]], s_printSpeed, fine, tool0, \WObj:=ob_RRC_workplace;
        MoveL [[379.4, 302.5, 87.8],[-0.4510, 0.5446, 0.5446, 0.4510],[0,0,0,0],[9E9,9E9,9E9,9E9,9E9,9E9]], s_printSpeed, fine, tool0, \WObj:=ob_RRC_workplace;
        MoveL [[367.6, 303.1, 90.3],[-0.4506, 0.5450, 0.5450, 0.4506],[0,0,0,0],[9E9,9E9,9E9,9E9,9E9,9E9]], s_printSpeed, fine, tool0, \WObj:=ob_RRC_workplace;
        MoveL [[355.6, 303.2, 90.6],[-0.4505, 0.5450, 0.5450, 0.4505],[0,0,0,0],[9E9,9E9,9E9,9E9,9E9,9E9]], s_printSpeed, fine, tool0, \WObj:=ob_RRC_workplace;
        MoveL [[352.0, 300.3, 79.5],[-0.4524, 0.5435, 0.5435, 0.4524],[0,0,0,0],[9E9,9E9,9E9,9E9,9E9,9E9]], s_printSpeed, fine, tool0, \WObj:=ob_RRC_workplace;
        MoveL [[354.3, 297.4, 68.1],[-0.4547, 0.5415, 0.5415, 0.4547],[0,0,0,0],[9E9,9E9,9E9,9E9,9E9,9E9]], s_printSpeed, fine, tool0, \WObj:=ob_RRC_workplace;
        MoveL [[356.5, 294.4, 56.7],[-0.4576, 0.5391, 0.5391, 0.4576],[0,0,0,0],[9E9,9E9,9E9,9E9,9E9,9E9]], s_printSpeed, fine, tool0, \WObj:=ob_RRC_workplace;
        MoveL [[353.1, 291.5, 45.6],[-0.4612, 0.5360, 0.5360, 0.4612],[0,0,0,0],[9E9,9E9,9E9,9E9,9E9,9E9]], s_printSpeed, fine, tool0, \WObj:=ob_RRC_workplace;
        MoveL [[341.1, 291.5, 45.4],[-0.4613, 0.5359, 0.5359, 0.4613],[0,0,0,0],[9E9,9E9,9E9,9E9,9E9,9E9]], s_printSpeed, fine, tool0, \WObj:=ob_RRC_workplace;
        MoveL [[329.3, 292.1, 47.8],[-0.4604, 0.5366, 0.5366, 0.4604],[0,0,0,0],[9E9,9E9,9E9,9E9,9E9,9E9]], s_printSpeed, fine, tool0, \WObj:=ob_RRC_workplace;
        MoveL [[317.5, 292.5, 49.5],[-0.4599, 0.5372, 0.5372, 0.4599],[0,0,0,0],[9E9,9E9,9E9,9E9,9E9,9E9]], s_printSpeed, fine, tool0, \WObj:=ob_RRC_workplace;
        MoveL [[308.5, 290.5, 41.7],[-0.4627, 0.5347, 0.5347, 0.4627],[0,0,0,0],[9E9,9E9,9E9,9E9,9E9,9E9]], s_printSpeed, fine, tool0, \WObj:=ob_RRC_workplace;
        MoveL [[310.1, 287.5, 30.2],[-0.4683, 0.5298, 0.5298, 0.4683],[0,0,0,0],[9E9,9E9,9E9,9E9,9E9,9E9]], s_printSpeed, fine, tool0, \WObj:=ob_RRC_workplace;
        MoveL [[312.5, 284.6, 18.8],[-0.4761, 0.5228, 0.5228, 0.4761],[0,0,0,0],[9E9,9E9,9E9,9E9,9E9,9E9]], s_printSpeed, fine, tool0, \WObj:=ob_RRC_workplace;
        MoveL [[312.8, 281.6, 7.2],[-0.4884, 0.5114, 0.5114, 0.4884],[0,0,0,0],[9E9,9E9,9E9,9E9,9E9,9E9]], s_printSpeed, fine, tool0, \WObj:=ob_RRC_workplace;
        MoveL [[303.2, 279.8, 0.3],[-0.4995, 0.5005, 0.5005, 0.4995],[0,0,0,0],[9E9,9E9,9E9,9E9,9E9,9E9]], s_printSpeed, fine, tool0, \WObj:=ob_RRC_workplace;
        MoveL [[291.2, 279.8, 0.6],[-0.4989, 0.5011, 0.5011, 0.4989],[0,0,0,0],[9E9,9E9,9E9,9E9,9E9,9E9]], s_printSpeed, fine, tool0, \WObj:=ob_RRC_workplace;
        MoveL [[279.4, 280.5, 3.0],[-0.4947, 0.5053, 0.5053, 0.4947],[0,0,0,0],[9E9,9E9,9E9,9E9,9E9,9E9]], s_printSpeed, fine, tool0, \WObj:=ob_RRC_workplace;
        MoveL [[268.0, 281.4, 6.5],[-0.4894, 0.5104, 0.5104, 0.4894],[0,0,0,0],[9E9,9E9,9E9,9E9,9E9,9E9]], s_printSpeed, fine, tool0, \WObj:=ob_RRC_workplace;
    ! layer end
        MoveL [[581.4, 281.0, 3.6],[-0.4935, 0.5065, 0.5065, 0.4935],[0,0,0,0],[9E9,9E9,9E9,9E9,9E9,9E9]], s_printSpeed, fine, tool0, \WObj:=ob_RRC_workplace;
        MoveL [[569.7, 280.3, 0.9],[-0.4982, 0.5018, 0.5018, 0.4982],[0,0,0,0],[9E9,9E9,9E9,9E9,9E9,9E9]], s_printSpeed, fine, tool0, \WObj:=ob_RRC_workplace;
        MoveL [[557.8, 280.0, 0.1],[-0.4999, 0.5001, 0.5001, 0.4999],[0,0,0,0],[9E9,9E9,9E9,9E9,9E9,9E9]], s_printSpeed, fine, tool0, \WObj:=ob_RRC_workplace;
        MoveL [[546.8, 281.3, 4.8],[-0.4915, 0.5084, 0.5084, 0.4915],[0,0,0,0],[9E9,9E9,9E9,9E9,9E9,9E9]], s_printSpeed, fine, tool0, \WObj:=ob_RRC_workplace;
        MoveL [[545.7, 284.4, 16.4],[-0.4775, 0.5215, 0.5215, 0.4775],[0,0,0,0],[9E9,9E9,9E9,9E9,9E9,9E9]], s_printSpeed, fine, tool0, \WObj:=ob_RRC_workplace;
        MoveL [[547.9, 287.4, 27.7],[-0.4687, 0.5295, 0.5295, 0.4687],[0,0,0,0],[9E9,9E9,9E9,9E9,9E9,9E9]], s_printSpeed, fine, tool0, \WObj:=ob_RRC_workplace;
        MoveL [[550.0, 290.5, 39.2],[-0.4625, 0.5349, 0.5349, 0.4625],[0,0,0,0],[9E9,9E9,9E9,9E9,9E9,9E9]], s_printSpeed, fine, tool0, \WObj:=ob_RRC_workplace;
        MoveL [[544.0, 293.2, 49.2],[-0.4585, 0.5383, 0.5383, 0.4585],[0,0,0,0],[9E9,9E9,9E9,9E9,9E9,9E9]], s_printSpeed, fine, tool0, \WObj:=ob_RRC_workplace;
        MoveL [[532.1, 293.0, 48.2],[-0.4588, 0.5380, 0.5380, 0.4588],[0,0,0,0],[9E9,9E9,9E9,9E9,9E9,9E9]], s_printSpeed, fine, tool0, \WObj:=ob_RRC_workplace;
        MoveL [[520.3, 292.3, 45.8],[-0.4597, 0.5373, 0.5373, 0.4597],[0,0,0,0],[9E9,9E9,9E9,9E9,9E9,9E9]], s_printSpeed, fine, tool0, \WObj:=ob_RRC_workplace;
        MoveL [[508.4, 292.0, 44.8],[-0.4601, 0.5369, 0.5369, 0.4601],[0,0,0,0],[9E9,9E9,9E9,9E9,9E9,9E9]], s_printSpeed, fine, tool0, \WObj:=ob_RRC_workplace;
        MoveL [[501.8, 294.6, 54.5],[-0.4567, 0.5398, 0.5398, 0.4567],[0,0,0,0],[9E9,9E9,9E9,9E9,9E9,9E9]], s_printSpeed, fine, tool0, \WObj:=ob_RRC_workplace;
        MoveL [[503.8, 297.7, 65.9],[-0.4536, 0.5425, 0.5425, 0.4536],[0,0,0,0],[9E9,9E9,9E9,9E9,9E9,9E9]], s_printSpeed, fine, tool0, \WObj:=ob_RRC_workplace;
        MoveL [[506.2, 300.7, 77.3],[-0.4511, 0.5445, 0.5445, 0.4511],[0,0,0,0],[9E9,9E9,9E9,9E9,9E9,9E9]], s_printSpeed, fine, tool0, \WObj:=ob_RRC_workplace;
        MoveL [[505.3, 303.8, 88.8],[-0.4490, 0.5462, 0.5462, 0.4490],[0,0,0,0],[9E9,9E9,9E9,9E9,9E9,9E9]], s_printSpeed, fine, tool0, \WObj:=ob_RRC_workplace;
        MoveL [[493.4, 304.4, 90.8],[-0.4487, 0.5465, 0.5465, 0.4487],[0,0,0,0],[9E9,9E9,9E9,9E9,9E9,9E9]], s_printSpeed, fine, tool0, \WObj:=ob_RRC_workplace;
        MoveL [[481.7, 303.8, 88.5],[-0.4491, 0.5462, 0.5462, 0.4491],[0,0,0,0],[9E9,9E9,9E9,9E9,9E9,9E9]], s_printSpeed, fine, tool0, \WObj:=ob_RRC_workplace;
        MoveL [[469.9, 303.2, 86.5],[-0.4494, 0.5459, 0.5459, 0.4494],[0,0,0,0],[9E9,9E9,9E9,9E9,9E9,9E9]], s_printSpeed, fine, tool0, \WObj:=ob_RRC_workplace;
        MoveL [[458.9, 304.5, 91.1],[-0.4486, 0.5465, 0.5465, 0.4486],[0,0,0,0],[9E9,9E9,9E9,9E9,9E9,9E9]], s_printSpeed, fine, tool0, \WObj:=ob_RRC_workplace;
        MoveL [[458.8, 307.6, 102.7],[-0.4470, 0.5479, 0.5479, 0.4470],[0,0,0,0],[9E9,9E9,9E9,9E9,9E9,9E9]], s_printSpeed, fine, tool0, \WObj:=ob_RRC_workplace;
        MoveL [[461.1, 310.6, 114.1],[-0.4456, 0.5490, 0.5490, 0.4456],[0,0,0,0],[9E9,9E9,9E9,9E9,9E9,9E9]], s_printSpeed, fine, tool0, \WObj:=ob_RRC_workplace;
        MoveL [[462.8, 313.7, 125.6],[-0.4444, 0.5500, 0.5500, 0.4444],[0,0,0,0],[9E9,9E9,9E9,9E9,9E9,9E9]], s_printSpeed, fine, tool0, \WObj:=ob_RRC_workplace;
        MoveL [[454.5, 316.0, 133.9],[-0.4437, 0.5506, 0.5506, 0.4437],[0,0,0,0],[9E9,9E9,9E9,9E9,9E9,9E9]], s_printSpeed, fine, tool0, \WObj:=ob_RRC_workplace;
        MoveL [[442.6, 315.5, 132.3],[-0.4438, 0.5505, 0.5505, 0.4438],[0,0,0,0],[9E9,9E9,9E9,9E9,9E9,9E9]], s_printSpeed, fine, tool0, \WObj:=ob_RRC_workplace;
        MoveL [[430.8, 315.0, 130.2],[-0.4440, 0.5503, 0.5503, 0.4440],[0,0,0,0],[9E9,9E9,9E9,9E9,9E9,9E9]], s_printSpeed, fine, tool0, \WObj:=ob_RRC_workplace;
        MoveL [[418.8, 314.8, 129.4],[-0.4441, 0.5503, 0.5503, 0.4441],[0,0,0,0],[9E9,9E9,9E9,9E9,9E9,9E9]], s_printSpeed, fine, tool0, \WObj:=ob_RRC_workplace;
        MoveL [[406.9, 315.2, 130.9],[-0.4439, 0.5504, 0.5504, 0.4439],[0,0,0,0],[9E9,9E9,9E9,9E9,9E9,9E9]], s_printSpeed, fine, tool0, \WObj:=ob_RRC_workplace;
        MoveL [[395.2, 314.5, 128.7],[-0.4441, 0.5502, 0.5502, 0.4441],[0,0,0,0],[9E9,9E9,9E9,9E9,9E9,9E9]], s_printSpeed, fine, tool0, \WObj:=ob_RRC_workplace;
        MoveL [[395.7, 311.4, 117.1],[-0.4453, 0.5493, 0.5493, 0.4453],[0,0,0,0],[9E9,9E9,9E9,9E9,9E9,9E9]], s_printSpeed, fine, tool0, \WObj:=ob_RRC_workplace;
        MoveL [[398.2, 308.4, 105.8],[-0.4466, 0.5482, 0.5482, 0.4466],[0,0,0,0],[9E9,9E9,9E9,9E9,9E9,9E9]], s_printSpeed, fine, tool0, \WObj:=ob_RRC_workplace;
        MoveL [[399.7, 305.3, 94.3],[-0.4482, 0.5469, 0.5469, 0.4482],[0,0,0,0],[9E9,9E9,9E9,9E9,9E9,9E9]], s_printSpeed, fine, tool0, \WObj:=ob_RRC_workplace;
        MoveL [[391.2, 303.1, 86.0],[-0.4495, 0.5459, 0.5459, 0.4495],[0,0,0,0],[9E9,9E9,9E9,9E9,9E9,9E9]], s_printSpeed, fine, tool0, \WObj:=ob_RRC_workplace;
        MoveL [[379.4, 303.5, 87.6],[-0.4492, 0.5461, 0.5461, 0.4492],[0,0,0,0],[9E9,9E9,9E9,9E9,9E9,9E9]], s_printSpeed, fine, tool0, \WObj:=ob_RRC_workplace;
        MoveL [[367.6, 304.2, 90.1],[-0.4488, 0.5464, 0.5464, 0.4488],[0,0,0,0],[9E9,9E9,9E9,9E9,9E9,9E9]], s_printSpeed, fine, tool0, \WObj:=ob_RRC_workplace;
        MoveL [[355.6, 304.3, 90.4],[-0.4488, 0.5465, 0.5465, 0.4488],[0,0,0,0],[9E9,9E9,9E9,9E9,9E9,9E9]], s_printSpeed, fine, tool0, \WObj:=ob_RRC_workplace;
        MoveL [[352.0, 301.3, 79.4],[-0.4507, 0.5449, 0.5449, 0.4507],[0,0,0,0],[9E9,9E9,9E9,9E9,9E9,9E9]], s_printSpeed, fine, tool0, \WObj:=ob_RRC_workplace;
        MoveL [[354.3, 298.3, 68.0],[-0.4531, 0.5429, 0.5429, 0.4531],[0,0,0,0],[9E9,9E9,9E9,9E9,9E9,9E9]], s_printSpeed, fine, tool0, \WObj:=ob_RRC_workplace;
        MoveL [[356.5, 295.2, 56.6],[-0.4561, 0.5403, 0.5403, 0.4561],[0,0,0,0],[9E9,9E9,9E9,9E9,9E9,9E9]], s_printSpeed, fine, tool0, \WObj:=ob_RRC_workplace;
        MoveL [[353.1, 292.2, 45.5],[-0.4599, 0.5371, 0.5371, 0.4599],[0,0,0,0],[9E9,9E9,9E9,9E9,9E9,9E9]], s_printSpeed, fine, tool0, \WObj:=ob_RRC_workplace;
        MoveL [[341.1, 292.2, 45.3],[-0.4599, 0.5371, 0.5371, 0.4599],[0,0,0,0],[9E9,9E9,9E9,9E9,9E9,9E9]], s_printSpeed, fine, tool0, \WObj:=ob_RRC_workplace;
        MoveL [[329.3, 292.8, 47.6],[-0.4590, 0.5378, 0.5378, 0.4590],[0,0,0,0],[9E9,9E9,9E9,9E9,9E9,9E9]], s_printSpeed, fine, tool0, \WObj:=ob_RRC_workplace;
        MoveL [[317.5, 293.3, 49.4],[-0.4584, 0.5384, 0.5384, 0.4584],[0,0,0,0],[9E9,9E9,9E9,9E9,9E9,9E9]], s_printSpeed, fine, tool0, \WObj:=ob_RRC_workplace;
        MoveL [[308.5, 291.2, 41.6],[-0.4614, 0.5358, 0.5358, 0.4614],[0,0,0,0],[9E9,9E9,9E9,9E9,9E9,9E9]], s_printSpeed, fine, tool0, \WObj:=ob_RRC_workplace;
        MoveL [[310.1, 288.1, 30.2],[-0.4672, 0.5308, 0.5308, 0.4672],[0,0,0,0],[9E9,9E9,9E9,9E9,9E9,9E9]], s_printSpeed, fine, tool0, \WObj:=ob_RRC_workplace;
        MoveL [[312.5, 285.0, 18.8],[-0.4753, 0.5236, 0.5236, 0.4753],[0,0,0,0],[9E9,9E9,9E9,9E9,9E9,9E9]], s_printSpeed, fine, tool0, \WObj:=ob_RRC_workplace;
        MoveL [[312.8, 281.9, 7.2],[-0.4880, 0.5117, 0.5117, 0.4880],[0,0,0,0],[9E9,9E9,9E9,9E9,9E9,9E9]], s_printSpeed, fine, tool0, \WObj:=ob_RRC_workplace;
        MoveL [[303.2, 280.1, 0.3],[-0.4994, 0.5006, 0.5006, 0.4994],[0,0,0,0],[9E9,9E9,9E9,9E9,9E9,9E9]], s_printSpeed, fine, tool0, \WObj:=ob_RRC_workplace;
        MoveL [[291.2, 280.2, 0.6],[-0.4989, 0.5011, 0.5011, 0.4989],[0,0,0,0],[9E9,9E9,9E9,9E9,9E9,9E9]], s_printSpeed, fine, tool0, \WObj:=ob_RRC_workplace;
        MoveL [[279.4, 280.8, 3.0],[-0.4945, 0.5055, 0.5055, 0.4945],[0,0,0,0],[9E9,9E9,9E9,9E9,9E9,9E9]], s_printSpeed, fine, tool0, \WObj:=ob_RRC_workplace;
        MoveL [[268.0, 281.7, 6.5],[-0.4890, 0.5107, 0.5107, 0.4890],[0,0,0,0],[9E9,9E9,9E9,9E9,9E9,9E9]], s_printSpeed, fine, tool0, \WObj:=ob_RRC_workplace;
    ! layer end
        MoveL [[581.4, 281.3, 3.6],[-0.4932, 0.5067, 0.5067, 0.4932],[0,0,0,0],[9E9,9E9,9E9,9E9,9E9,9E9]], s_printSpeed, fine, tool0, \WObj:=ob_RRC_workplace;
        MoveL [[569.7, 280.6, 0.9],[-0.4981, 0.5019, 0.5019, 0.4981],[0,0,0,0],[9E9,9E9,9E9,9E9,9E9,9E9]], s_printSpeed, fine, tool0, \WObj:=ob_RRC_workplace;
        MoveL [[557.8, 280.3, 0.1],[-0.4999, 0.5001, 0.5001, 0.4999],[0,0,0,0],[9E9,9E9,9E9,9E9,9E9,9E9]], s_printSpeed, fine, tool0, \WObj:=ob_RRC_workplace;
        MoveL [[546.8, 281.6, 4.8],[-0.4912, 0.5086, 0.5086, 0.4912],[0,0,0,0],[9E9,9E9,9E9,9E9,9E9,9E9]], s_printSpeed, fine, tool0, \WObj:=ob_RRC_workplace;
        MoveL [[545.7, 284.8, 16.3],[-0.4767, 0.5222, 0.5222, 0.4767],[0,0,0,0],[9E9,9E9,9E9,9E9,9E9,9E9]], s_printSpeed, fine, tool0, \WObj:=ob_RRC_workplace;
        MoveL [[547.9, 288.0, 27.7],[-0.4676, 0.5304, 0.5304, 0.4676],[0,0,0,0],[9E9,9E9,9E9,9E9,9E9,9E9]], s_printSpeed, fine, tool0, \WObj:=ob_RRC_workplace;
        MoveL [[550.0, 291.2, 39.1],[-0.4612, 0.5360, 0.5360, 0.4612],[0,0,0,0],[9E9,9E9,9E9,9E9,9E9,9E9]], s_printSpeed, fine, tool0, \WObj:=ob_RRC_workplace;
        MoveL [[544.0, 294.0, 49.1],[-0.4571, 0.5395, 0.5395, 0.4571],[0,0,0,0],[9E9,9E9,9E9,9E9,9E9,9E9]], s_printSpeed, fine, tool0, \WObj:=ob_RRC_workplace;
        MoveL [[532.1, 293.7, 48.1],[-0.4574, 0.5392, 0.5392, 0.4574],[0,0,0,0],[9E9,9E9,9E9,9E9,9E9,9E9]], s_printSpeed, fine, tool0, \WObj:=ob_RRC_workplace;
        MoveL [[520.3, 293.0, 45.7],[-0.4584, 0.5384, 0.5384, 0.4584],[0,0,0,0],[9E9,9E9,9E9,9E9,9E9,9E9]], s_printSpeed, fine, tool0, \WObj:=ob_RRC_workplace;
        MoveL [[508.4, 292.7, 44.7],[-0.4588, 0.5381, 0.5381, 0.4588],[0,0,0,0],[9E9,9E9,9E9,9E9,9E9,9E9]], s_printSpeed, fine, tool0, \WObj:=ob_RRC_workplace;
        MoveL [[501.8, 295.4, 54.3],[-0.4553, 0.5411, 0.5411, 0.4553],[0,0,0,0],[9E9,9E9,9E9,9E9,9E9,9E9]], s_printSpeed, fine, tool0, \WObj:=ob_RRC_workplace;
        MoveL [[503.8, 298.6, 65.8],[-0.4520, 0.5438, 0.5438, 0.4520],[0,0,0,0],[9E9,9E9,9E9,9E9,9E9,9E9]], s_printSpeed, fine, tool0, \WObj:=ob_RRC_workplace;
        MoveL [[506.2, 301.7, 77.1],[-0.4494, 0.5459, 0.5459, 0.4494],[0,0,0,0],[9E9,9E9,9E9,9E9,9E9,9E9]], s_printSpeed, fine, tool0, \WObj:=ob_RRC_workplace;
        MoveL [[505.3, 304.9, 88.6],[-0.4473, 0.5477, 0.5477, 0.4473],[0,0,0,0],[9E9,9E9,9E9,9E9,9E9,9E9]], s_printSpeed, fine, tool0, \WObj:=ob_RRC_workplace;
        MoveL [[493.4, 305.5, 90.6],[-0.4469, 0.5480, 0.5480, 0.4469],[0,0,0,0],[9E9,9E9,9E9,9E9,9E9,9E9]], s_printSpeed, fine, tool0, \WObj:=ob_RRC_workplace;
        MoveL [[481.7, 304.8, 88.3],[-0.4473, 0.5476, 0.5476, 0.4473],[0,0,0,0],[9E9,9E9,9E9,9E9,9E9,9E9]], s_printSpeed, fine, tool0, \WObj:=ob_RRC_workplace;
        MoveL [[469.9, 304.3, 86.3],[-0.4477, 0.5474, 0.5474, 0.4477],[0,0,0,0],[9E9,9E9,9E9,9E9,9E9,9E9]], s_printSpeed, fine, tool0, \WObj:=ob_RRC_workplace;
        MoveL [[458.9, 305.6, 90.9],[-0.4469, 0.5480, 0.5480, 0.4469],[0,0,0,0],[9E9,9E9,9E9,9E9,9E9,9E9]], s_printSpeed, fine, tool0, \WObj:=ob_RRC_workplace;
        MoveL [[458.8, 308.8, 102.5],[-0.4452, 0.5494, 0.5494, 0.4452],[0,0,0,0],[9E9,9E9,9E9,9E9,9E9,9E9]], s_printSpeed, fine, tool0, \WObj:=ob_RRC_workplace;
        MoveL [[461.1, 311.9, 113.8],[-0.4437, 0.5505, 0.5505, 0.4437],[0,0,0,0],[9E9,9E9,9E9,9E9,9E9,9E9]], s_printSpeed, fine, tool0, \WObj:=ob_RRC_workplace;
        MoveL [[462.8, 315.1, 125.3],[-0.4425, 0.5515, 0.5515, 0.4425],[0,0,0,0],[9E9,9E9,9E9,9E9,9E9,9E9]], s_printSpeed, fine, tool0, \WObj:=ob_RRC_workplace;
        MoveL [[454.5, 317.4, 133.6],[-0.4417, 0.5522, 0.5522, 0.4417],[0,0,0,0],[9E9,9E9,9E9,9E9,9E9,9E9]], s_printSpeed, fine, tool0, \WObj:=ob_RRC_workplace;
        MoveL [[442.6, 317.0, 132.0],[-0.4419, 0.5521, 0.5521, 0.4419],[0,0,0,0],[9E9,9E9,9E9,9E9,9E9,9E9]], s_printSpeed, fine, tool0, \WObj:=ob_RRC_workplace;
        MoveL [[430.8, 316.4, 129.9],[-0.4420, 0.5519, 0.5519, 0.4420],[0,0,0,0],[9E9,9E9,9E9,9E9,9E9,9E9]], s_printSpeed, fine, tool0, \WObj:=ob_RRC_workplace;
        MoveL [[418.8, 316.2, 129.1],[-0.4421, 0.5518, 0.5518, 0.4421],[0,0,0,0],[9E9,9E9,9E9,9E9,9E9,9E9]], s_printSpeed, fine, tool0, \WObj:=ob_RRC_workplace;
        MoveL [[406.9, 316.6, 130.6],[-0.4420, 0.5520, 0.5520, 0.4420],[0,0,0,0],[9E9,9E9,9E9,9E9,9E9,9E9]], s_printSpeed, fine, tool0, \WObj:=ob_RRC_workplace;
        MoveL [[395.2, 316.0, 128.4],[-0.4422, 0.5518, 0.5518, 0.4422],[0,0,0,0],[9E9,9E9,9E9,9E9,9E9,9E9]], s_printSpeed, fine, tool0, \WObj:=ob_RRC_workplace;
        MoveL [[395.7, 312.8, 116.8],[-0.4434, 0.5508, 0.5508, 0.4434],[0,0,0,0],[9E9,9E9,9E9,9E9,9E9,9E9]], s_printSpeed, fine, tool0, \WObj:=ob_RRC_workplace;
        MoveL [[398.2, 309.6, 105.5],[-0.4448, 0.5497, 0.5497, 0.4448],[0,0,0,0],[9E9,9E9,9E9,9E9,9E9,9E9]], s_printSpeed, fine, tool0, \WObj:=ob_RRC_workplace;
        MoveL [[399.7, 306.4, 94.0],[-0.4464, 0.5484, 0.5484, 0.4464],[0,0,0,0],[9E9,9E9,9E9,9E9,9E9,9E9]], s_printSpeed, fine, tool0, \WObj:=ob_RRC_workplace;
        MoveL [[391.2, 304.2, 85.8],[-0.4477, 0.5473, 0.5473, 0.4477],[0,0,0,0],[9E9,9E9,9E9,9E9,9E9,9E9]], s_printSpeed, fine, tool0, \WObj:=ob_RRC_workplace;
        MoveL [[379.4, 304.6, 87.4],[-0.4475, 0.5475, 0.5475, 0.4475],[0,0,0,0],[9E9,9E9,9E9,9E9,9E9,9E9]], s_printSpeed, fine, tool0, \WObj:=ob_RRC_workplace;
        MoveL [[367.6, 305.3, 89.9],[-0.4470, 0.5479, 0.5479, 0.4470],[0,0,0,0],[9E9,9E9,9E9,9E9,9E9,9E9]], s_printSpeed, fine, tool0, \WObj:=ob_RRC_workplace;
        MoveL [[355.6, 305.4, 90.2],[-0.4470, 0.5479, 0.5479, 0.4470],[0,0,0,0],[9E9,9E9,9E9,9E9,9E9,9E9]], s_printSpeed, fine, tool0, \WObj:=ob_RRC_workplace;
        MoveL [[352.0, 302.3, 79.2],[-0.4490, 0.5463, 0.5463, 0.4490],[0,0,0,0],[9E9,9E9,9E9,9E9,9E9,9E9]], s_printSpeed, fine, tool0, \WObj:=ob_RRC_workplace;
        MoveL [[354.3, 299.1, 67.8],[-0.4515, 0.5442, 0.5442, 0.4515],[0,0,0,0],[9E9,9E9,9E9,9E9,9E9,9E9]], s_printSpeed, fine, tool0, \WObj:=ob_RRC_workplace;
        MoveL [[356.5, 296.0, 56.5],[-0.4546, 0.5416, 0.5416, 0.4546],[0,0,0,0],[9E9,9E9,9E9,9E9,9E9,9E9]], s_printSpeed, fine, tool0, \WObj:=ob_RRC_workplace;
        MoveL [[353.1, 292.9, 45.4],[-0.4585, 0.5383, 0.5383, 0.4585],[0,0,0,0],[9E9,9E9,9E9,9E9,9E9,9E9]], s_printSpeed, fine, tool0, \WObj:=ob_RRC_workplace;
        MoveL [[341.1, 292.9, 45.2],[-0.4586, 0.5383, 0.5383, 0.4586],[0,0,0,0],[9E9,9E9,9E9,9E9,9E9,9E9]], s_printSpeed, fine, tool0, \WObj:=ob_RRC_workplace;
        MoveL [[329.3, 293.5, 47.5],[-0.4576, 0.5390, 0.5390, 0.4576],[0,0,0,0],[9E9,9E9,9E9,9E9,9E9,9E9]], s_printSpeed, fine, tool0, \WObj:=ob_RRC_workplace;
        MoveL [[317.5, 294.0, 49.3],[-0.4570, 0.5396, 0.5396, 0.4570],[0,0,0,0],[9E9,9E9,9E9,9E9,9E9,9E9]], s_printSpeed, fine, tool0, \WObj:=ob_RRC_workplace;
        MoveL [[308.5, 291.8, 41.5],[-0.4601, 0.5369, 0.5369, 0.4601],[0,0,0,0],[9E9,9E9,9E9,9E9,9E9,9E9]], s_printSpeed, fine, tool0, \WObj:=ob_RRC_workplace;
        MoveL [[310.1, 288.7, 30.1],[-0.4661, 0.5318, 0.5318, 0.4661],[0,0,0,0],[9E9,9E9,9E9,9E9,9E9,9E9]], s_printSpeed, fine, tool0, \WObj:=ob_RRC_workplace;
        MoveL [[312.5, 285.5, 18.8],[-0.4744, 0.5243, 0.5243, 0.4744],[0,0,0,0],[9E9,9E9,9E9,9E9,9E9,9E9]], s_printSpeed, fine, tool0, \WObj:=ob_RRC_workplace;
        MoveL [[312.8, 282.3, 7.2],[-0.4876, 0.5121, 0.5121, 0.4876],[0,0,0,0],[9E9,9E9,9E9,9E9,9E9,9E9]], s_printSpeed, fine, tool0, \WObj:=ob_RRC_workplace;
        MoveL [[303.2, 280.4, 0.3],[-0.4994, 0.5006, 0.5006, 0.4994],[0,0,0,0],[9E9,9E9,9E9,9E9,9E9,9E9]], s_printSpeed, fine, tool0, \WObj:=ob_RRC_workplace;
        MoveL [[291.2, 280.5, 0.6],[-0.4988, 0.5012, 0.5012, 0.4988],[0,0,0,0],[9E9,9E9,9E9,9E9,9E9,9E9]], s_printSpeed, fine, tool0, \WObj:=ob_RRC_workplace;
        MoveL [[279.4, 281.1, 3.0],[-0.4943, 0.5056, 0.5056, 0.4943],[0,0,0,0],[9E9,9E9,9E9,9E9,9E9,9E9]], s_printSpeed, fine, tool0, \WObj:=ob_RRC_workplace;
        MoveL [[268.0, 282.1, 6.4],[-0.4887, 0.5111, 0.5111, 0.4887],[0,0,0,0],[9E9,9E9,9E9,9E9,9E9,9E9]], s_printSpeed, fine, tool0, \WObj:=ob_RRC_workplace;
    ! layer end
        MoveL [[581.4, 281.6, 3.6],[-0.4930, 0.5069, 0.5069, 0.4930],[0,0,0,0],[9E9,9E9,9E9,9E9,9E9,9E9]], s_printSpeed, fine, tool0, \WObj:=ob_RRC_workplace;
        MoveL [[569.7, 280.9, 0.9],[-0.4980, 0.5019, 0.5019, 0.4980],[0,0,0,0],[9E9,9E9,9E9,9E9,9E9,9E9]], s_printSpeed, fine, tool0, \WObj:=ob_RRC_workplace;
        MoveL [[557.8, 280.6, 0.1],[-0.4999, 0.5001, 0.5001, 0.4999],[0,0,0,0],[9E9,9E9,9E9,9E9,9E9,9E9]], s_printSpeed, fine, tool0, \WObj:=ob_RRC_workplace;
        MoveL [[546.8, 282.0, 4.8],[-0.4909, 0.5089, 0.5089, 0.4909],[0,0,0,0],[9E9,9E9,9E9,9E9,9E9,9E9]], s_printSpeed, fine, tool0, \WObj:=ob_RRC_workplace;
        MoveL [[545.7, 285.3, 16.3],[-0.4760, 0.5229, 0.5229, 0.4760],[0,0,0,0],[9E9,9E9,9E9,9E9,9E9,9E9]], s_printSpeed, fine, tool0, \WObj:=ob_RRC_workplace;
        MoveL [[547.9, 288.5, 27.6],[-0.4665, 0.5314, 0.5314, 0.4665],[0,0,0,0],[9E9,9E9,9E9,9E9,9E9,9E9]], s_printSpeed, fine, tool0, \WObj:=ob_RRC_workplace;
        MoveL [[550.0, 291.8, 39.0],[-0.4600, 0.5371, 0.5371, 0.4600],[0,0,0,0],[9E9,9E9,9E9,9E9,9E9,9E9]], s_printSpeed, fine, tool0, \WObj:=ob_RRC_workplace;
        MoveL [[544.0, 294.7, 49.0],[-0.4556, 0.5407, 0.5407, 0.4556],[0,0,0,0],[9E9,9E9,9E9,9E9,9E9,9E9]], s_printSpeed, fine, tool0, \WObj:=ob_RRC_workplace;
        MoveL [[532.1, 294.4, 48.0],[-0.4560, 0.5404, 0.5404, 0.4560],[0,0,0,0],[9E9,9E9,9E9,9E9,9E9,9E9]], s_printSpeed, fine, tool0, \WObj:=ob_RRC_workplace;
        MoveL [[520.3, 293.7, 45.6],[-0.4570, 0.5396, 0.5396, 0.4570],[0,0,0,0],[9E9,9E9,9E9,9E9,9E9,9E9]], s_printSpeed, fine, tool0, \WObj:=ob_RRC_workplace;
        MoveL [[508.4, 293.4, 44.6],[-0.4574, 0.5392, 0.5392, 0.4574],[0,0,0,0],[9E9,9E9,9E9,9E9,9E9,9E9]], s_printSpeed, fine, tool0, \WObj:=ob_RRC_workplace;
        MoveL [[501.8, 296.2, 54.2],[-0.4538, 0.5423, 0.5423, 0.4538],[0,0,0,0],[9E9,9E9,9E9,9E9,9E9,9E9]], s_printSpeed, fine, tool0, \WObj:=ob_RRC_workplace;
        MoveL [[503.8, 299.5, 65.6],[-0.4504, 0.5451, 0.5451, 0.4504],[0,0,0,0],[9E9,9E9,9E9,9E9,9E9,9E9]], s_printSpeed, fine, tool0, \WObj:=ob_RRC_workplace;
        MoveL [[506.2, 302.7, 76.9],[-0.4477, 0.5473, 0.5473, 0.4477],[0,0,0,0],[9E9,9E9,9E9,9E9,9E9,9E9]], s_printSpeed, fine, tool0, \WObj:=ob_RRC_workplace;
