MODULE fdm_print
    VAR speeddata s_printSpeed:=v5;
    VAR speeddata s_travelSpeed:=v300;

    PROC Extrude10Sec ()
        SetDO DO_10, 1;
        SetDO\SDelay:=10, DO_10, 0;
    ENDPROC

    PROC main()
        IF RobOS() = FALSE THEN
            s_travelSpeed := vmax; ! run at max speed in robotstudio
            s_printSpeed := vmax;
        ENDIF
        print;
    ENDPROC

    PROC print()
        MoveAbsJ [[0.0,0.0,0.0,0.0,0.0,0.0], [9E9,9E9,9E9,9E9,9E9,9E9]], s_travelSpeed, fine, tool0;
        SetDO DO_1, 1; ! heater on
        TPWrite "Press play when extruder is at right temperature";
        Stop;
        MoveJ [[788.7, 542.9, -0.0],[-0.5264, -0.4721, -0.4721, 0.5264],[0,0,0,0],[9E9,9E9,9E9,9E9,9E9,9E9]], s_travelSpeed, fine, tool0, \WObj:=ob_RRC_workplace;
        SetDO DO_10, 1; ! stepper off
        MoveL [[788.7, 542.9, -0.0],[-0.5264, -0.4721, -0.4721, 0.5264],[0,0,0,0],[9E9,9E9,9E9,9E9,9E9,9E9]], s_printSpeed, fine, tool0, \WObj:=ob_RRC_workplace;
        MoveL [[777.0, 540.1, -0.0],[-0.5071, -0.4928, -0.4928, 0.5071],[0,0,0,0],[9E9,9E9,9E9,9E9,9E9,9E9]], s_printSpeed, fine, tool0, \WObj:=ob_RRC_workplace;
        MoveL [[765.0, 539.2, -0.0],[-0.5004, -0.4996, -0.4996, 0.5004],[0,0,0,0],[9E9,9E9,9E9,9E9,9E9,9E9]], s_printSpeed, fine, tool0, \WObj:=ob_RRC_workplace;
        MoveL [[754.1, 544.2, -0.0],[-0.5349, -0.4625, -0.4625, 0.5349],[0,0,0,0],[9E9,9E9,9E9,9E9,9E9,9E9]], s_printSpeed, fine, tool0, \WObj:=ob_RRC_workplace;
        MoveL [[752.9, 556.1, -0.0],[-0.6007, -0.3730, -0.3730, 0.6007],[0,0,0,0],[9E9,9E9,9E9,9E9,9E9,9E9]], s_printSpeed, fine, tool0, \WObj:=ob_RRC_workplace;
        MoveL [[755.2, 567.9, -0.0],[-0.6407, -0.2991, -0.2991, 0.6407],[0,0,0,0],[9E9,9E9,9E9,9E9,9E9,9E9]], s_printSpeed, fine, tool0, \WObj:=ob_RRC_workplace;
        MoveL [[757.2, 579.7, -0.0],[0.6639, 0.2434, -0.2434, 0.6639],[0,0,0,0],[9E9,9E9,9E9,9E9,9E9,9E9]], s_printSpeed, fine, tool0, \WObj:=ob_RRC_workplace;
        MoveL [[751.3, 590.2, -0.0],[0.6762, 0.2067, -0.2067, 0.6762],[0,0,0,0],[9E9,9E9,9E9,9E9,9E9,9E9]], s_printSpeed, fine, tool0, \WObj:=ob_RRC_workplace;
        MoveL [[739.3, 589.1, -0.0],[0.6752, 0.2099, -0.2099, 0.6752],[0,0,0,0],[9E9,9E9,9E9,9E9,9E9,9E9]], s_printSpeed, fine, tool0, \WObj:=ob_RRC_workplace;
        MoveL [[727.6, 586.6, -0.0],[0.6727, 0.2180, -0.2180, 0.6727],[0,0,0,0],[9E9,9E9,9E9,9E9,9E9,9E9]], s_printSpeed, fine, tool0, \WObj:=ob_RRC_workplace;
        MoveL [[715.6, 585.5, -0.0],[0.6715, 0.2217, -0.2217, 0.6715],[0,0,0,0],[9E9,9E9,9E9,9E9,9E9,9E9]], s_printSpeed, fine, tool0, \WObj:=ob_RRC_workplace;
        MoveL [[709.1, 595.6, -0.0],[0.6808, 0.1913, -0.1913, 0.6808],[0,0,0,0],[9E9,9E9,9E9,9E9,9E9,9E9]], s_printSpeed, fine, tool0, \WObj:=ob_RRC_workplace;
        MoveL [[711.0, 607.4, -0.0],[0.6879, 0.1638, -0.1638, 0.6879],[0,0,0,0],[9E9,9E9,9E9,9E9,9E9,9E9]], s_printSpeed, fine, tool0, \WObj:=ob_RRC_workplace;
        MoveL [[713.4, 619.2, -0.0],[0.6925, 0.1430, -0.1430, 0.6925],[0,0,0,0],[9E9,9E9,9E9,9E9,9E9,9E9]], s_printSpeed, fine, tool0, \WObj:=ob_RRC_workplace;
        MoveL [[712.5, 631.1, -0.0],[0.6957, 0.1264, -0.1264, 0.6957],[0,0,0,0],[9E9,9E9,9E9,9E9,9E9,9E9]], s_printSpeed, fine, tool0, \WObj:=ob_RRC_workplace;
        MoveL [[700.7, 633.2, -0.0],[0.6962, 0.1240, -0.1240, 0.6962],[0,0,0,0],[9E9,9E9,9E9,9E9,9E9,9E9]], s_printSpeed, fine, tool0, \WObj:=ob_RRC_workplace;
        MoveL [[688.9, 630.8, -0.0],[0.6956, 0.1268, -0.1268, 0.6956],[0,0,0,0],[9E9,9E9,9E9,9E9,9E9,9E9]], s_printSpeed, fine, tool0, \WObj:=ob_RRC_workplace;
        MoveL [[677.1, 628.7, -0.0],[0.6952, 0.1295, -0.1295, 0.6952],[0,0,0,0],[9E9,9E9,9E9,9E9,9E9,9E9]], s_printSpeed, fine, tool0, \WObj:=ob_RRC_workplace;
        MoveL [[666.1, 633.5, -0.0],[0.6962, 0.1236, -0.1236, 0.6962],[0,0,0,0],[9E9,9E9,9E9,9E9,9E9,9E9]], s_printSpeed, fine, tool0, \WObj:=ob_RRC_workplace;
        MoveL [[666.1, 645.5, -0.0],[0.6984, 0.1109, -0.1109, 0.6984],[0,0,0,0],[9E9,9E9,9E9,9E9,9E9,9E9]], s_printSpeed, fine, tool0, \WObj:=ob_RRC_workplace;
        MoveL [[668.3, 657.3, -0.0],[0.6999, 0.1006, -0.1006, 0.6999],[0,0,0,0],[9E9,9E9,9E9,9E9,9E9,9E9]], s_printSpeed, fine, tool0, \WObj:=ob_RRC_workplace;
        MoveL [[670.0, 669.2, -0.0],[0.7011, 0.0920, -0.0920, 0.7011],[0,0,0,0],[9E9,9E9,9E9,9E9,9E9,9E9]], s_printSpeed, fine, tool0, \WObj:=ob_RRC_workplace;
        MoveL [[661.8, 677.8, -0.0],[0.7018, 0.0866, -0.0866, 0.7018],[0,0,0,0],[9E9,9E9,9E9,9E9,9E9,9E9]], s_printSpeed, fine, tool0, \WObj:=ob_RRC_workplace;
        MoveL [[649.9, 676.1, 0.0],[0.7017, 0.0877, -0.0877, 0.7017],[0,0,0,0],[9E9,9E9,9E9,9E9,9E9,9E9]], s_printSpeed, fine, tool0, \WObj:=ob_RRC_workplace;
        MoveL [[638.1, 674.0, 0.0],[0.7015, 0.0890, -0.0890, 0.7015],[0,0,0,0],[9E9,9E9,9E9,9E9,9E9,9E9]], s_printSpeed, fine, tool0, \WObj:=ob_RRC_workplace;
        MoveL [[626.1, 673.2, 0.0],[0.7014, 0.0895, -0.0895, 0.7014],[0,0,0,0],[9E9,9E9,9E9,9E9,9E9,9E9]], s_printSpeed, fine, tool0, \WObj:=ob_RRC_workplace;
        MoveL [[614.2, 674.7, 0.0],[0.7015, 0.0885, -0.0885, 0.7015],[0,0,0,0],[9E9,9E9,9E9,9E9,9E9,9E9]], s_printSpeed, fine, tool0, \WObj:=ob_RRC_workplace;
        MoveL [[602.4, 672.4, 0.0],[0.7014, 0.0900, -0.0900, 0.7014],[0,0,0,0],[9E9,9E9,9E9,9E9,9E9,9E9]], s_printSpeed, fine, tool0, \WObj:=ob_RRC_workplace;
        MoveL [[602.9, 660.4, 0.0],[0.7003, 0.0982, -0.0982, 0.7003],[0,0,0,0],[9E9,9E9,9E9,9E9,9E9,9E9]], s_printSpeed, fine, tool0, \WObj:=ob_RRC_workplace;
        MoveL [[605.4, 648.7, 0.0],[0.6988, 0.1079, -0.1079, 0.6988],[0,0,0,0],[9E9,9E9,9E9,9E9,9E9,9E9]], s_printSpeed, fine, tool0, \WObj:=ob_RRC_workplace;
        MoveL [[606.9, 636.8, -0.0],[0.6969, 0.1198, -0.1198, 0.6969],[0,0,0,0],[9E9,9E9,9E9,9E9,9E9,9E9]], s_printSpeed, fine, tool0, \WObj:=ob_RRC_workplace;
        MoveL [[598.5, 628.2, -0.0],[0.6950, 0.1301, -0.1301, 0.6950],[0,0,0,0],[9E9,9E9,9E9,9E9,9E9,9E9]], s_printSpeed, fine, tool0, \WObj:=ob_RRC_workplace;
        MoveL [[586.6, 629.9, -0.0],[0.6954, 0.1279, -0.1279, 0.6954],[0,0,0,0],[9E9,9E9,9E9,9E9,9E9,9E9]], s_printSpeed, fine, tool0, \WObj:=ob_RRC_workplace;
        MoveL [[574.9, 632.5, -0.0],[0.6960, 0.1248, -0.1248, 0.6960],[0,0,0,0],[9E9,9E9,9E9,9E9,9E9,9E9]], s_printSpeed, fine, tool0, \WObj:=ob_RRC_workplace;
        MoveL [[562.9, 632.8, -0.0],[0.6961, 0.1245, -0.1245, 0.6961],[0,0,0,0],[9E9,9E9,9E9,9E9,9E9,9E9]], s_printSpeed, fine, tool0, \WObj:=ob_RRC_workplace;
        MoveL [[559.2, 621.3, -0.0],[0.6932, 0.1397, -0.1397, 0.6932],[0,0,0,0],[9E9,9E9,9E9,9E9,9E9,9E9]], s_printSpeed, fine, tool0, \WObj:=ob_RRC_workplace;
        MoveL [[561.5, 609.5, -0.0],[0.6889, 0.1596, -0.1596, 0.6889],[0,0,0,0],[9E9,9E9,9E9,9E9,9E9,9E9]], s_printSpeed, fine, tool0, \WObj:=ob_RRC_workplace;
        MoveL [[563.8, 597.8, -0.0],[0.6823, 0.1856, -0.1856, 0.6823],[0,0,0,0],[9E9,9E9,9E9,9E9,9E9,9E9]], s_printSpeed, fine, tool0, \WObj:=ob_RRC_workplace;
        MoveL [[560.3, 586.3, -0.0],[0.6723, 0.2192, -0.2192, 0.6723],[0,0,0,0],[9E9,9E9,9E9,9E9,9E9,9E9]], s_printSpeed, fine, tool0, \WObj:=ob_RRC_workplace;
        MoveL [[548.3, 586.1, -0.0],[0.6721, 0.2198, -0.2198, 0.6721],[0,0,0,0],[9E9,9E9,9E9,9E9,9E9,9E9]], s_printSpeed, fine, tool0, \WObj:=ob_RRC_workplace;
        MoveL [[536.6, 588.5, 0.0],[0.6746, 0.2119, -0.2119, 0.6746],[0,0,0,0],[9E9,9E9,9E9,9E9,9E9,9E9]], s_printSpeed, fine, tool0, \WObj:=ob_RRC_workplace;
        MoveL [[524.7, 590.3, 0.0],[0.6763, 0.2063, -0.2063, 0.6763],[0,0,0,0],[9E9,9E9,9E9,9E9,9E9,9E9]], s_printSpeed, fine, tool0, \WObj:=ob_RRC_workplace;
        MoveL [[515.8, 582.3, -0.0],[0.6675, 0.2334, -0.2334, 0.6675],[0,0,0,0],[9E9,9E9,9E9,9E9,9E9,9E9]], s_printSpeed, fine, tool0, \WObj:=ob_RRC_workplace;
        MoveL [[517.4, 570.4, -0.0],[-0.6468, -0.2858, -0.2858, 0.6468],[0,0,0,0],[9E9,9E9,9E9,9E9,9E9,9E9]], s_printSpeed, fine, tool0, \WObj:=ob_RRC_workplace;
        MoveL [[519.8, 558.6, -0.0],[-0.6112, -0.3556, -0.3556, 0.6112],[0,0,0,0],[9E9,9E9,9E9,9E9,9E9,9E9]], s_printSpeed, fine, tool0, \WObj:=ob_RRC_workplace;
        MoveL [[520.0, 546.6, -0.0],[-0.5508, -0.4435, -0.4435, 0.5508],[0,0,0,0],[9E9,9E9,9E9,9E9,9E9,9E9]], s_printSpeed, fine, tool0, \WObj:=ob_RRC_workplace;
        MoveL [[510.4, 539.5, -0.0],[-0.5021, -0.4979, -0.4979, 0.5021],[0,0,0,0],[9E9,9E9,9E9,9E9,9E9,9E9]], s_printSpeed, fine, tool0, \WObj:=ob_RRC_workplace;
        MoveL [[498.4, 539.8, -0.0],[-0.5044, -0.4956, -0.4956, 0.5044],[0,0,0,0],[9E9,9E9,9E9,9E9,9E9,9E9]], s_printSpeed, fine, tool0, \WObj:=ob_RRC_workplace;
        MoveL [[486.7, 542.3, -0.0],[-0.5221, -0.4769, -0.4769, 0.5221],[0,0,0,0],[9E9,9E9,9E9,9E9,9E9,9E9]], s_printSpeed, fine, tool0, \WObj:=ob_RRC_workplace;
        MoveL [[475.2, 545.9, 0.0],[-0.5459, -0.4494, -0.4494, 0.5459],[0,0,0,0],[9E9,9E9,9E9,9E9,9E9,9E9]], s_printSpeed, fine, tool0, \WObj:=ob_RRC_workplace;
    ! layer end
        MoveL [[788.7, 542.6, 0.0],[-0.5264, -0.4722, -0.4722, 0.5264],[0,0,0,0],[9E9,9E9,9E9,9E9,9E9,9E9]], s_printSpeed, fine, tool0, \WObj:=ob_RRC_workplace;
        MoveL [[777.0, 539.8, 0.0],[-0.5071, -0.4928, -0.4928, 0.5071],[0,0,0,0],[9E9,9E9,9E9,9E9,9E9,9E9]], s_printSpeed, fine, tool0, \WObj:=ob_RRC_workplace;
        MoveL [[765.0, 538.9, 0.0],[-0.5004, -0.4996, -0.4996, 0.5004],[0,0,0,0],[9E9,9E9,9E9,9E9,9E9,9E9]], s_printSpeed, fine, tool0, \WObj:=ob_RRC_workplace;
        MoveL [[754.1, 543.9, 0.0],[-0.5349, -0.4625, -0.4625, 0.5349],[0,0,0,0],[9E9,9E9,9E9,9E9,9E9,9E9]], s_printSpeed, fine, tool0, \WObj:=ob_RRC_workplace;
        MoveL [[752.9, 555.8, 0.1],[-0.6004, -0.3736, -0.3736, 0.6004],[0,0,0,0],[9E9,9E9,9E9,9E9,9E9,9E9]], s_printSpeed, fine, tool0, \WObj:=ob_RRC_workplace;
        MoveL [[755.2, 567.6, 0.3],[-0.6402, -0.3003, -0.3003, 0.6402],[0,0,0,0],[9E9,9E9,9E9,9E9,9E9,9E9]], s_printSpeed, fine, tool0, \WObj:=ob_RRC_workplace;
        MoveL [[757.2, 579.4, 0.4],[0.6633, 0.2451, -0.2451, 0.6633],[0,0,0,0],[9E9,9E9,9E9,9E9,9E9,9E9]], s_printSpeed, fine, tool0, \WObj:=ob_RRC_workplace;
        MoveL [[751.3, 589.9, 0.4],[0.6756, 0.2088, -0.2088, 0.6756],[0,0,0,0],[9E9,9E9,9E9,9E9,9E9,9E9]], s_printSpeed, fine, tool0, \WObj:=ob_RRC_workplace;
        MoveL [[739.3, 588.8, 0.4],[0.6746, 0.2120, -0.2120, 0.6746],[0,0,0,0],[9E9,9E9,9E9,9E9,9E9,9E9]], s_printSpeed, fine, tool0, \WObj:=ob_RRC_workplace;
        MoveL [[727.6, 586.3, 0.4],[0.6720, 0.2199, -0.2199, 0.6720],[0,0,0,0],[9E9,9E9,9E9,9E9,9E9,9E9]], s_printSpeed, fine, tool0, \WObj:=ob_RRC_workplace;
        MoveL [[715.6, 585.2, 0.4],[0.6708, 0.2236, -0.2236, 0.6708],[0,0,0,0],[9E9,9E9,9E9,9E9,9E9,9E9]], s_printSpeed, fine, tool0, \WObj:=ob_RRC_workplace;
        MoveL [[709.1, 595.3, 0.5],[0.6801, 0.1934, -0.1934, 0.6801],[0,0,0,0],[9E9,9E9,9E9,9E9,9E9,9E9]], s_printSpeed, fine, tool0, \WObj:=ob_RRC_workplace;
        MoveL [[711.0, 607.1, 0.6],[0.6873, 0.1662, -0.1662, 0.6873],[0,0,0,0],[9E9,9E9,9E9,9E9,9E9,9E9]], s_printSpeed, fine, tool0, \WObj:=ob_RRC_workplace;
        MoveL [[713.4, 618.9, 0.7],[0.6920, 0.1456, -0.1456, 0.6920],[0,0,0,0],[9E9,9E9,9E9,9E9,9E9,9E9]], s_printSpeed, fine, tool0, \WObj:=ob_RRC_workplace;
        MoveL [[712.5, 630.8, 0.8],[0.6952, 0.1291, -0.1291, 0.6952],[0,0,0,0],[9E9,9E9,9E9,9E9,9E9,9E9]], s_printSpeed, fine, tool0, \WObj:=ob_RRC_workplace;
        MoveL [[700.7, 632.9, 0.8],[0.6957, 0.1267, -0.1267, 0.6957],[0,0,0,0],[9E9,9E9,9E9,9E9,9E9,9E9]], s_printSpeed, fine, tool0, \WObj:=ob_RRC_workplace;
        MoveL [[688.9, 630.5, 0.8],[0.6951, 0.1295, -0.1295, 0.6951],[0,0,0,0],[9E9,9E9,9E9,9E9,9E9,9E9]], s_printSpeed, fine, tool0, \WObj:=ob_RRC_workplace;
        MoveL [[677.1, 628.4, 0.8],[0.6947, 0.1321, -0.1321, 0.6947],[0,0,0,0],[9E9,9E9,9E9,9E9,9E9,9E9]], s_printSpeed, fine, tool0, \WObj:=ob_RRC_workplace;
        MoveL [[666.1, 633.2, 0.8],[0.6957, 0.1263, -0.1263, 0.6957],[0,0,0,0],[9E9,9E9,9E9,9E9,9E9,9E9]], s_printSpeed, fine, tool0, \WObj:=ob_RRC_workplace;
        MoveL [[666.1, 645.2, 0.9],[0.6979, 0.1136, -0.1136, 0.6979],[0,0,0,0],[9E9,9E9,9E9,9E9,9E9,9E9]], s_printSpeed, fine, tool0, \WObj:=ob_RRC_workplace;
        MoveL [[668.3, 657.0, 1.0],[0.6995, 0.1035, -0.1035, 0.6995],[0,0,0,0],[9E9,9E9,9E9,9E9,9E9,9E9]], s_printSpeed, fine, tool0, \WObj:=ob_RRC_workplace;
        MoveL [[670.0, 668.9, 1.1],[0.7007, 0.0949, -0.0949, 0.7007],[0,0,0,0],[9E9,9E9,9E9,9E9,9E9,9E9]], s_printSpeed, fine, tool0, \WObj:=ob_RRC_workplace;
        MoveL [[661.8, 677.5, 1.2],[0.7014, 0.0895, -0.0895, 0.7014],[0,0,0,0],[9E9,9E9,9E9,9E9,9E9,9E9]], s_printSpeed, fine, tool0, \WObj:=ob_RRC_workplace;
        MoveL [[649.9, 675.8, 1.2],[0.7013, 0.0905, -0.0905, 0.7013],[0,0,0,0],[9E9,9E9,9E9,9E9,9E9,9E9]], s_printSpeed, fine, tool0, \WObj:=ob_RRC_workplace;
        MoveL [[638.1, 673.7, 1.2],[0.7011, 0.0919, -0.0919, 0.7011],[0,0,0,0],[9E9,9E9,9E9,9E9,9E9,9E9]], s_printSpeed, fine, tool0, \WObj:=ob_RRC_workplace;
        MoveL [[626.1, 672.9, 1.2],[0.7011, 0.0923, -0.0923, 0.7011],[0,0,0,0],[9E9,9E9,9E9,9E9,9E9,9E9]], s_printSpeed, fine, tool0, \WObj:=ob_RRC_workplace;
        MoveL [[614.2, 674.4, 1.2],[0.7012, 0.0914, -0.0914, 0.7012],[0,0,0,0],[9E9,9E9,9E9,9E9,9E9,9E9]], s_printSpeed, fine, tool0, \WObj:=ob_RRC_workplace;
        MoveL [[602.4, 672.1, 1.2],[0.7010, 0.0928, -0.0928, 0.7010],[0,0,0,0],[9E9,9E9,9E9,9E9,9E9,9E9]], s_printSpeed, fine, tool0, \WObj:=ob_RRC_workplace;
        MoveL [[602.9, 660.1, 1.1],[0.6998, 0.1011, -0.1011, 0.6998],[0,0,0,0],[9E9,9E9,9E9,9E9,9E9,9E9]], s_printSpeed, fine, tool0, \WObj:=ob_RRC_workplace;
        MoveL [[605.4, 648.4, 1.0],[0.6984, 0.1107, -0.1107, 0.6984],[0,0,0,0],[9E9,9E9,9E9,9E9,9E9,9E9]], s_printSpeed, fine, tool0, \WObj:=ob_RRC_workplace;
        MoveL [[606.9, 636.5, 0.9],[0.6964, 0.1226, -0.1226, 0.6964],[0,0,0,0],[9E9,9E9,9E9,9E9,9E9,9E9]], s_printSpeed, fine, tool0, \WObj:=ob_RRC_workplace;
        MoveL [[598.5, 627.9, 0.8],[0.6945, 0.1327, -0.1327, 0.6945],[0,0,0,0],[9E9,9E9,9E9,9E9,9E9,9E9]], s_printSpeed, fine, tool0, \WObj:=ob_RRC_workplace;
        MoveL [[586.6, 629.6, 0.8],[0.6949, 0.1306, -0.1306, 0.6949],[0,0,0,0],[9E9,9E9,9E9,9E9,9E9,9E9]], s_printSpeed, fine, tool0, \WObj:=ob_RRC_workplace;
        MoveL [[574.9, 632.2, 0.8],[0.6955, 0.1275, -0.1275, 0.6955],[0,0,0,0],[9E9,9E9,9E9,9E9,9E9,9E9]], s_printSpeed, fine, tool0, \WObj:=ob_RRC_workplace;
        MoveL [[562.9, 632.5, 0.8],[0.6956, 0.1271, -0.1271, 0.6956],[0,0,0,0],[9E9,9E9,9E9,9E9,9E9,9E9]], s_printSpeed, fine, tool0, \WObj:=ob_RRC_workplace;
        MoveL [[559.2, 621.0, 0.7],[0.6926, 0.1423, -0.1423, 0.6926],[0,0,0,0],[9E9,9E9,9E9,9E9,9E9,9E9]], s_printSpeed, fine, tool0, \WObj:=ob_RRC_workplace;
        MoveL [[561.5, 609.2, 0.6],[0.6883, 0.1621, -0.1621, 0.6883],[0,0,0,0],[9E9,9E9,9E9,9E9,9E9,9E9]], s_printSpeed, fine, tool0, \WObj:=ob_RRC_workplace;
        MoveL [[563.8, 597.5, 0.5],[0.6817, 0.1878, -0.1878, 0.6817],[0,0,0,0],[9E9,9E9,9E9,9E9,9E9,9E9]], s_printSpeed, fine, tool0, \WObj:=ob_RRC_workplace;
        MoveL [[560.3, 586.0, 0.4],[0.6716, 0.2211, -0.2211, 0.6716],[0,0,0,0],[9E9,9E9,9E9,9E9,9E9,9E9]], s_printSpeed, fine, tool0, \WObj:=ob_RRC_workplace;
        MoveL [[548.3, 585.8, 0.4],[0.6714, 0.2218, -0.2218, 0.6714],[0,0,0,0],[9E9,9E9,9E9,9E9,9E9,9E9]], s_printSpeed, fine, tool0, \WObj:=ob_RRC_workplace;
        MoveL [[536.6, 588.2, 0.4],[0.6740, 0.2139, -0.2139, 0.6740],[0,0,0,0],[9E9,9E9,9E9,9E9,9E9,9E9]], s_printSpeed, fine, tool0, \WObj:=ob_RRC_workplace;
        MoveL [[524.7, 590.0, 0.4],[0.6757, 0.2083, -0.2083, 0.6757],[0,0,0,0],[9E9,9E9,9E9,9E9,9E9,9E9]], s_printSpeed, fine, tool0, \WObj:=ob_RRC_workplace;
        MoveL [[515.8, 582.0, 0.4],[0.6669, 0.2352, -0.2352, 0.6669],[0,0,0,0],[9E9,9E9,9E9,9E9,9E9,9E9]], s_printSpeed, fine, tool0, \WObj:=ob_RRC_workplace;
        MoveL [[517.4, 570.1, 0.3],[-0.6462, -0.2871, -0.2871, 0.6462],[0,0,0,0],[9E9,9E9,9E9,9E9,9E9,9E9]], s_printSpeed, fine, tool0, \WObj:=ob_RRC_workplace;
        MoveL [[519.8, 558.3, 0.2],[-0.6108, -0.3563, -0.3563, 0.6108],[0,0,0,0],[9E9,9E9,9E9,9E9,9E9,9E9]], s_printSpeed, fine, tool0, \WObj:=ob_RRC_workplace;
        MoveL [[520.0, 546.3, 0.1],[-0.5507, -0.4436, -0.4436, 0.5507],[0,0,0,0],[9E9,9E9,9E9,9E9,9E9,9E9]], s_printSpeed, fine, tool0, \WObj:=ob_RRC_workplace;
        MoveL [[510.4, 539.2, 0.0],[-0.5021, -0.4979, -0.4979, 0.5021],[0,0,0,0],[9E9,9E9,9E9,9E9,9E9,9E9]], s_printSpeed, fine, tool0, \WObj:=ob_RRC_workplace;
        MoveL [[498.4, 539.5, 0.0],[-0.5044, -0.4956, -0.4956, 0.5044],[0,0,0,0],[9E9,9E9,9E9,9E9,9E9,9E9]], s_printSpeed, fine, tool0, \WObj:=ob_RRC_workplace;
        MoveL [[486.7, 542.0, 0.0],[-0.5221, -0.4769, -0.4769, 0.5221],[0,0,0,0],[9E9,9E9,9E9,9E9,9E9,9E9]], s_printSpeed, fine, tool0, \WObj:=ob_RRC_workplace;
        MoveL [[475.2, 545.6, 0.1],[-0.5458, -0.4495, -0.4495, 0.5458],[0,0,0,0],[9E9,9E9,9E9,9E9,9E9,9E9]], s_printSpeed, fine, tool0, \WObj:=ob_RRC_workplace;
    ! layer end
        MoveL [[788.7, 542.3, 0.1],[-0.5263, -0.4722, -0.4722, 0.5263],[0,0,0,0],[9E9,9E9,9E9,9E9,9E9,9E9]], s_printSpeed, fine, tool0, \WObj:=ob_RRC_workplace;
        MoveL [[777.0, 539.5, 0.0],[-0.5071, -0.4928, -0.4928, 0.5071],[0,0,0,0],[9E9,9E9,9E9,9E9,9E9,9E9]], s_printSpeed, fine, tool0, \WObj:=ob_RRC_workplace;
        MoveL [[765.0, 538.6, 0.0],[-0.5004, -0.4996, -0.4996, 0.5004],[0,0,0,0],[9E9,9E9,9E9,9E9,9E9,9E9]], s_printSpeed, fine, tool0, \WObj:=ob_RRC_workplace;
        MoveL [[754.1, 543.6, 0.1],[-0.5348, -0.4626, -0.4626, 0.5348],[0,0,0,0],[9E9,9E9,9E9,9E9,9E9,9E9]], s_printSpeed, fine, tool0, \WObj:=ob_RRC_workplace;
        MoveL [[752.9, 555.5, 0.3],[-0.6000, -0.3741, -0.3741, 0.6000],[0,0,0,0],[9E9,9E9,9E9,9E9,9E9,9E9]], s_printSpeed, fine, tool0, \WObj:=ob_RRC_workplace;
        MoveL [[755.2, 567.3, 0.5],[-0.6396, -0.3014, -0.3014, 0.6396],[0,0,0,0],[9E9,9E9,9E9,9E9,9E9,9E9]], s_printSpeed, fine, tool0, \WObj:=ob_RRC_workplace;
        MoveL [[757.2, 579.1, 0.7],[0.6627, 0.2468, -0.2468, 0.6627],[0,0,0,0],[9E9,9E9,9E9,9E9,9E9,9E9]], s_printSpeed, fine, tool0, \WObj:=ob_RRC_workplace;
        MoveL [[751.3, 589.5, 0.9],[0.6750, 0.2108, -0.2108, 0.6750],[0,0,0,0],[9E9,9E9,9E9,9E9,9E9,9E9]], s_printSpeed, fine, tool0, \WObj:=ob_RRC_workplace;
        MoveL [[739.3, 588.5, 0.9],[0.6740, 0.2140, -0.2140, 0.6740],[0,0,0,0],[9E9,9E9,9E9,9E9,9E9,9E9]], s_printSpeed, fine, tool0, \WObj:=ob_RRC_workplace;
        MoveL [[727.6, 586.0, 0.8],[0.6714, 0.2219, -0.2219, 0.6714],[0,0,0,0],[9E9,9E9,9E9,9E9,9E9,9E9]], s_printSpeed, fine, tool0, \WObj:=ob_RRC_workplace;
        MoveL [[715.6, 584.9, 0.8],[0.6702, 0.2255, -0.2255, 0.6702],[0,0,0,0],[9E9,9E9,9E9,9E9,9E9,9E9]], s_printSpeed, fine, tool0, \WObj:=ob_RRC_workplace;
        MoveL [[709.1, 595.0, 1.0],[0.6795, 0.1956, -0.1956, 0.6795],[0,0,0,0],[9E9,9E9,9E9,9E9,9E9,9E9]], s_printSpeed, fine, tool0, \WObj:=ob_RRC_workplace;
        MoveL [[711.0, 606.8, 1.2],[0.6867, 0.1686, -0.1686, 0.6867],[0,0,0,0],[9E9,9E9,9E9,9E9,9E9,9E9]], s_printSpeed, fine, tool0, \WObj:=ob_RRC_workplace;
        MoveL [[713.4, 618.6, 1.4],[0.6914, 0.1481, -0.1481, 0.6914],[0,0,0,0],[9E9,9E9,9E9,9E9,9E9,9E9]], s_printSpeed, fine, tool0, \WObj:=ob_RRC_workplace;
        MoveL [[712.5, 630.5, 1.6],[0.6947, 0.1318, -0.1318, 0.6947],[0,0,0,0],[9E9,9E9,9E9,9E9,9E9,9E9]], s_printSpeed, fine, tool0, \WObj:=ob_RRC_workplace;
        MoveL [[700.7, 632.6, 1.7],[0.6952, 0.1294, -0.1294, 0.6952],[0,0,0,0],[9E9,9E9,9E9,9E9,9E9,9E9]], s_printSpeed, fine, tool0, \WObj:=ob_RRC_workplace;
        MoveL [[688.9, 630.2, 1.6],[0.6946, 0.1322, -0.1322, 0.6946],[0,0,0,0],[9E9,9E9,9E9,9E9,9E9,9E9]], s_printSpeed, fine, tool0, \WObj:=ob_RRC_workplace;
        MoveL [[677.1, 628.1, 1.6],[0.6941, 0.1348, -0.1348, 0.6941],[0,0,0,0],[9E9,9E9,9E9,9E9,9E9,9E9]], s_printSpeed, fine, tool0, \WObj:=ob_RRC_workplace;
        MoveL [[666.1, 632.9, 1.7],[0.6952, 0.1290, -0.1290, 0.6952],[0,0,0,0],[9E9,9E9,9E9,9E9,9E9,9E9]], s_printSpeed, fine, tool0, \WObj:=ob_RRC_workplace;
        MoveL [[666.1, 644.9, 1.9],[0.6975, 0.1164, -0.1164, 0.6975],[0,0,0,0],[9E9,9E9,9E9,9E9,9E9,9E9]], s_printSpeed, fine, tool0, \WObj:=ob_RRC_workplace;
        MoveL [[668.3, 656.7, 2.1],[0.6991, 0.1063, -0.1063, 0.6991],[0,0,0,0],[9E9,9E9,9E9,9E9,9E9,9E9]], s_printSpeed, fine, tool0, \WObj:=ob_RRC_workplace;
        MoveL [[670.0, 668.5, 2.3],[0.7003, 0.0978, -0.0978, 0.7003],[0,0,0,0],[9E9,9E9,9E9,9E9,9E9,9E9]], s_printSpeed, fine, tool0, \WObj:=ob_RRC_workplace;
        MoveL [[661.8, 677.2, 2.4],[0.7010, 0.0924, -0.0924, 0.7010],[0,0,0,0],[9E9,9E9,9E9,9E9,9E9,9E9]], s_printSpeed, fine, tool0, \WObj:=ob_RRC_workplace;
        MoveL [[649.9, 675.5, 2.4],[0.7009, 0.0934, -0.0934, 0.7009],[0,0,0,0],[9E9,9E9,9E9,9E9,9E9,9E9]], s_printSpeed, fine, tool0, \WObj:=ob_RRC_workplace;
        MoveL [[638.1, 673.4, 2.4],[0.7007, 0.0947, -0.0947, 0.7007],[0,0,0,0],[9E9,9E9,9E9,9E9,9E9,9E9]], s_printSpeed, fine, tool0, \WObj:=ob_RRC_workplace;
        MoveL [[626.1, 672.6, 2.4],[0.7007, 0.0952, -0.0952, 0.7007],[0,0,0,0],[9E9,9E9,9E9,9E9,9E9,9E9]], s_printSpeed, fine, tool0, \WObj:=ob_RRC_workplace;
        MoveL [[614.2, 674.1, 2.4],[0.7008, 0.0943, -0.0943, 0.7008],[0,0,0,0],[9E9,9E9,9E9,9E9,9E9,9E9]], s_printSpeed, fine, tool0, \WObj:=ob_RRC_workplace;
        MoveL [[602.4, 671.8, 2.3],[0.7006, 0.0957, -0.0957, 0.7006],[0,0,0,0],[9E9,9E9,9E9,9E9,9E9,9E9]], s_printSpeed, fine, tool0, \WObj:=ob_RRC_workplace;
        MoveL [[602.9, 659.8, 2.1],[0.6994, 0.1039, -0.1039, 0.6994],[0,0,0,0],[9E9,9E9,9E9,9E9,9E9,9E9]], s_printSpeed, fine, tool0, \WObj:=ob_RRC_workplace;
        MoveL [[605.4, 648.0, 1.9],[0.6979, 0.1135, -0.1135, 0.6979],[0,0,0,0],[9E9,9E9,9E9,9E9,9E9,9E9]], s_printSpeed, fine, tool0, \WObj:=ob_RRC_workplace;
        MoveL [[606.9, 636.1, 1.7],[0.6959, 0.1253, -0.1253, 0.6959],[0,0,0,0],[9E9,9E9,9E9,9E9,9E9,9E9]], s_printSpeed, fine, tool0, \WObj:=ob_RRC_workplace;
        MoveL [[598.5, 627.6, 1.6],[0.6940, 0.1354, -0.1354, 0.6940],[0,0,0,0],[9E9,9E9,9E9,9E9,9E9,9E9]], s_printSpeed, fine, tool0, \WObj:=ob_RRC_workplace;
        MoveL [[586.6, 629.3, 1.6],[0.6944, 0.1333, -0.1333, 0.6944],[0,0,0,0],[9E9,9E9,9E9,9E9,9E9,9E9]], s_printSpeed, fine, tool0, \WObj:=ob_RRC_workplace;
        MoveL [[574.9, 631.9, 1.6],[0.6950, 0.1301, -0.1301, 0.6950],[0,0,0,0],[9E9,9E9,9E9,9E9,9E9,9E9]], s_printSpeed, fine, tool0, \WObj:=ob_RRC_workplace;
        MoveL [[562.9, 632.1, 1.6],[0.6951, 0.1298, -0.1298, 0.6951],[0,0,0,0],[9E9,9E9,9E9,9E9,9E9,9E9]], s_printSpeed, fine, tool0, \WObj:=ob_RRC_workplace;
        MoveL [[559.2, 620.7, 1.4],[0.6921, 0.1449, -0.1449, 0.6921],[0,0,0,0],[9E9,9E9,9E9,9E9,9E9,9E9]], s_printSpeed, fine, tool0, \WObj:=ob_RRC_workplace;
        MoveL [[561.5, 608.9, 1.2],[0.6877, 0.1645, -0.1645, 0.6877],[0,0,0,0],[9E9,9E9,9E9,9E9,9E9,9E9]], s_printSpeed, fine, tool0, \WObj:=ob_RRC_workplace;
        MoveL [[563.8, 597.2, 1.0],[0.6811, 0.1900, -0.1900, 0.6811],[0,0,0,0],[9E9,9E9,9E9,9E9,9E9,9E9]], s_printSpeed, fine, tool0, \WObj:=ob_RRC_workplace;
        MoveL [[560.3, 585.7, 0.8],[0.6710, 0.2231, -0.2231, 0.6710],[0,0,0,0],[9E9,9E9,9E9,9E9,9E9,9E9]], s_printSpeed, fine, tool0, \WObj:=ob_RRC_workplace;
        MoveL [[548.3, 585.5, 0.8],[0.6708, 0.2237, -0.2237, 0.6708],[0,0,0,0],[9E9,9E9,9E9,9E9,9E9,9E9]], s_printSpeed, fine, tool0, \WObj:=ob_RRC_workplace;
        MoveL [[536.6, 587.9, 0.9],[0.6734, 0.2159, -0.2159, 0.6734],[0,0,0,0],[9E9,9E9,9E9,9E9,9E9,9E9]], s_printSpeed, fine, tool0, \WObj:=ob_RRC_workplace;
        MoveL [[524.7, 589.7, 0.9],[0.6751, 0.2104, -0.2104, 0.6751],[0,0,0,0],[9E9,9E9,9E9,9E9,9E9,9E9]], s_printSpeed, fine, tool0, \WObj:=ob_RRC_workplace;
        MoveL [[515.8, 581.7, 0.8],[0.6662, 0.2370, -0.2370, 0.6662],[0,0,0,0],[9E9,9E9,9E9,9E9,9E9,9E9]], s_printSpeed, fine, tool0, \WObj:=ob_RRC_workplace;
        MoveL [[517.4, 569.8, 0.5],[-0.6456, -0.2884, -0.2884, 0.6456],[0,0,0,0],[9E9,9E9,9E9,9E9,9E9,9E9]], s_printSpeed, fine, tool0, \WObj:=ob_RRC_workplace;
        MoveL [[519.8, 558.0, 0.3],[-0.6104, -0.3569, -0.3569, 0.6104],[0,0,0,0],[9E9,9E9,9E9,9E9,9E9,9E9]], s_printSpeed, fine, tool0, \WObj:=ob_RRC_workplace;
        MoveL [[520.0, 546.0, 0.1],[-0.5506, -0.4437, -0.4437, 0.5506],[0,0,0,0],[9E9,9E9,9E9,9E9,9E9,9E9]], s_printSpeed, fine, tool0, \WObj:=ob_RRC_workplace;
        MoveL [[510.4, 538.9, 0.0],[-0.5021, -0.4979, -0.4979, 0.5021],[0,0,0,0],[9E9,9E9,9E9,9E9,9E9,9E9]], s_printSpeed, fine, tool0, \WObj:=ob_RRC_workplace;
        MoveL [[498.4, 539.2, 0.0],[-0.5044, -0.4956, -0.4956, 0.5044],[0,0,0,0],[9E9,9E9,9E9,9E9,9E9,9E9]], s_printSpeed, fine, tool0, \WObj:=ob_RRC_workplace;
        MoveL [[486.7, 541.7, 0.1],[-0.5220, -0.4770, -0.4770, 0.5220],[0,0,0,0],[9E9,9E9,9E9,9E9,9E9,9E9]], s_printSpeed, fine, tool0, \WObj:=ob_RRC_workplace;
        MoveL [[475.2, 545.3, 0.1],[-0.5457, -0.4496, -0.4496, 0.5457],[0,0,0,0],[9E9,9E9,9E9,9E9,9E9,9E9]], s_printSpeed, fine, tool0, \WObj:=ob_RRC_workplace;
    ! layer end
        MoveL [[788.7, 542.0, 0.1],[-0.5263, -0.4722, -0.4722, 0.5263],[0,0,0,0],[9E9,9E9,9E9,9E9,9E9,9E9]], s_printSpeed, fine, tool0, \WObj:=ob_RRC_workplace;
        MoveL [[777.0, 539.2, 0.0],[-0.5071, -0.4928, -0.4928, 0.5071],[0,0,0,0],[9E9,9E9,9E9,9E9,9E9,9E9]], s_printSpeed, fine, tool0, \WObj:=ob_RRC_workplace;
        MoveL [[765.0, 538.3, 0.0],[-0.5004, -0.4996, -0.4996, 0.5004],[0,0,0,0],[9E9,9E9,9E9,9E9,9E9,9E9]], s_printSpeed, fine, tool0, \WObj:=ob_RRC_workplace;
        MoveL [[754.1, 543.3, 0.1],[-0.5348, -0.4626, -0.4626, 0.5348],[0,0,0,0],[9E9,9E9,9E9,9E9,9E9,9E9]], s_printSpeed, fine, tool0, \WObj:=ob_RRC_workplace;
        MoveL [[752.9, 555.2, 0.4],[-0.5997, -0.3746, -0.3746, 0.5997],[0,0,0,0],[9E9,9E9,9E9,9E9,9E9,9E9]], s_printSpeed, fine, tool0, \WObj:=ob_RRC_workplace;
        MoveL [[755.2, 567.0, 0.8],[-0.6391, -0.3026, -0.3026, 0.6391],[0,0,0,0],[9E9,9E9,9E9,9E9,9E9,9E9]], s_printSpeed, fine, tool0, \WObj:=ob_RRC_workplace;
        MoveL [[757.2, 578.8, 1.1],[0.6620, 0.2484, -0.2484, 0.6620],[0,0,0,0],[9E9,9E9,9E9,9E9,9E9,9E9]], s_printSpeed, fine, tool0, \WObj:=ob_RRC_workplace;
        MoveL [[751.3, 589.2, 1.3],[0.6743, 0.2128, -0.2128, 0.6743],[0,0,0,0],[9E9,9E9,9E9,9E9,9E9,9E9]], s_printSpeed, fine, tool0, \WObj:=ob_RRC_workplace;
        MoveL [[739.3, 588.2, 1.3],[0.6733, 0.2160, -0.2160, 0.6733],[0,0,0,0],[9E9,9E9,9E9,9E9,9E9,9E9]], s_printSpeed, fine, tool0, \WObj:=ob_RRC_workplace;
        MoveL [[727.6, 585.7, 1.3],[0.6708, 0.2238, -0.2238, 0.6708],[0,0,0,0],[9E9,9E9,9E9,9E9,9E9,9E9]], s_printSpeed, fine, tool0, \WObj:=ob_RRC_workplace;
        MoveL [[715.6, 584.6, 1.2],[0.6695, 0.2274, -0.2274, 0.6695],[0,0,0,0],[9E9,9E9,9E9,9E9,9E9,9E9]], s_printSpeed, fine, tool0, \WObj:=ob_RRC_workplace;
        MoveL [[709.1, 594.7, 1.5],[0.6789, 0.1978, -0.1978, 0.6789],[0,0,0,0],[9E9,9E9,9E9,9E9,9E9,9E9]], s_printSpeed, fine, tool0, \WObj:=ob_RRC_workplace;
        MoveL [[711.0, 606.5, 1.8],[0.6861, 0.1710, -0.1710, 0.6861],[0,0,0,0],[9E9,9E9,9E9,9E9,9E9,9E9]], s_printSpeed, fine, tool0, \WObj:=ob_RRC_workplace;
        MoveL [[713.4, 618.2, 2.1],[0.6909, 0.1507, -0.1507, 0.6909],[0,0,0,0],[9E9,9E9,9E9,9E9,9E9,9E9]], s_printSpeed, fine, tool0, \WObj:=ob_RRC_workplace;
        MoveL [[712.5, 630.2, 2.4],[0.6942, 0.1344, -0.1344, 0.6942],[0,0,0,0],[9E9,9E9,9E9,9E9,9E9,9E9]], s_printSpeed, fine, tool0, \WObj:=ob_RRC_workplace;
        MoveL [[700.7, 632.2, 2.5],[0.6947, 0.1320, -0.1320, 0.6947],[0,0,0,0],[9E9,9E9,9E9,9E9,9E9,9E9]], s_printSpeed, fine, tool0, \WObj:=ob_RRC_workplace;
        MoveL [[688.9, 629.9, 2.4],[0.6941, 0.1348, -0.1348, 0.6941],[0,0,0,0],[9E9,9E9,9E9,9E9,9E9,9E9]], s_printSpeed, fine, tool0, \WObj:=ob_RRC_workplace;
        MoveL [[677.1, 627.8, 2.4],[0.6936, 0.1374, -0.1374, 0.6936],[0,0,0,0],[9E9,9E9,9E9,9E9,9E9,9E9]], s_printSpeed, fine, tool0, \WObj:=ob_RRC_workplace;
        MoveL [[666.1, 632.6, 2.5],[0.6947, 0.1316, -0.1316, 0.6947],[0,0,0,0],[9E9,9E9,9E9,9E9,9E9,9E9]], s_printSpeed, fine, tool0, \WObj:=ob_RRC_workplace;
        MoveL [[666.1, 644.6, 2.8],[0.6970, 0.1191, -0.1191, 0.6970],[0,0,0,0],[9E9,9E9,9E9,9E9,9E9,9E9]], s_printSpeed, fine, tool0, \WObj:=ob_RRC_workplace;
        MoveL [[668.3, 656.4, 3.1],[0.6986, 0.1091, -0.1091, 0.6986],[0,0,0,0],[9E9,9E9,9E9,9E9,9E9,9E9]], s_printSpeed, fine, tool0, \WObj:=ob_RRC_workplace;
        MoveL [[670.0, 668.2, 3.4],[0.6999, 0.1006, -0.1006, 0.6999],[0,0,0,0],[9E9,9E9,9E9,9E9,9E9,9E9]], s_printSpeed, fine, tool0, \WObj:=ob_RRC_workplace;
        MoveL [[661.8, 676.9, 3.7],[0.7007, 0.0953, -0.0953, 0.7007],[0,0,0,0],[9E9,9E9,9E9,9E9,9E9,9E9]], s_printSpeed, fine, tool0, \WObj:=ob_RRC_workplace;
        MoveL [[649.9, 675.2, 3.6],[0.7005, 0.0963, -0.0963, 0.7005],[0,0,0,0],[9E9,9E9,9E9,9E9,9E9,9E9]], s_printSpeed, fine, tool0, \WObj:=ob_RRC_workplace;
        MoveL [[638.1, 673.0, 3.6],[0.7003, 0.0976, -0.0976, 0.7003],[0,0,0,0],[9E9,9E9,9E9,9E9,9E9,9E9]], s_printSpeed, fine, tool0, \WObj:=ob_RRC_workplace;
        MoveL [[626.1, 672.2, 3.5],[0.7003, 0.0981, -0.0981, 0.7003],[0,0,0,0],[9E9,9E9,9E9,9E9,9E9,9E9]], s_printSpeed, fine, tool0, \WObj:=ob_RRC_workplace;
        MoveL [[614.2, 673.8, 3.6],[0.7004, 0.0972, -0.0972, 0.7004],[0,0,0,0],[9E9,9E9,9E9,9E9,9E9,9E9]], s_printSpeed, fine, tool0, \WObj:=ob_RRC_workplace;
        MoveL [[602.4, 671.4, 3.5],[0.7002, 0.0986, -0.0986, 0.7002],[0,0,0,0],[9E9,9E9,9E9,9E9,9E9,9E9]], s_printSpeed, fine, tool0, \WObj:=ob_RRC_workplace;
        MoveL [[602.9, 659.5, 3.2],[0.6990, 0.1067, -0.1067, 0.6990],[0,0,0,0],[9E9,9E9,9E9,9E9,9E9,9E9]], s_printSpeed, fine, tool0, \WObj:=ob_RRC_workplace;
        MoveL [[605.4, 647.7, 2.9],[0.6975, 0.1163, -0.1163, 0.6975],[0,0,0,0],[9E9,9E9,9E9,9E9,9E9,9E9]], s_printSpeed, fine, tool0, \WObj:=ob_RRC_workplace;
        MoveL [[606.9, 635.8, 2.6],[0.6954, 0.1280, -0.1280, 0.6954],[0,0,0,0],[9E9,9E9,9E9,9E9,9E9,9E9]], s_printSpeed, fine, tool0, \WObj:=ob_RRC_workplace;
        MoveL [[598.5, 627.3, 2.3],[0.6935, 0.1380, -0.1380, 0.6935],[0,0,0,0],[9E9,9E9,9E9,9E9,9E9,9E9]], s_printSpeed, fine, tool0, \WObj:=ob_RRC_workplace;
        MoveL [[586.6, 629.0, 2.4],[0.6939, 0.1359, -0.1359, 0.6939],[0,0,0,0],[9E9,9E9,9E9,9E9,9E9,9E9]], s_printSpeed, fine, tool0, \WObj:=ob_RRC_workplace;
        MoveL [[574.9, 631.6, 2.5],[0.6945, 0.1328, -0.1328, 0.6945],[0,0,0,0],[9E9,9E9,9E9,9E9,9E9,9E9]], s_printSpeed, fine, tool0, \WObj:=ob_RRC_workplace;
        MoveL [[562.9, 631.8, 2.5],[0.6946, 0.1325, -0.1325, 0.6946],[0,0,0,0],[9E9,9E9,9E9,9E9,9E9,9E9]], s_printSpeed, fine, tool0, \WObj:=ob_RRC_workplace;
        MoveL [[559.2, 620.4, 2.2],[0.6916, 0.1474, -0.1474, 0.6916],[0,0,0,0],[9E9,9E9,9E9,9E9,9E9,9E9]], s_printSpeed, fine, tool0, \WObj:=ob_RRC_workplace;
        MoveL [[561.5, 608.6, 1.9],[0.6871, 0.1669, -0.1669, 0.6871],[0,0,0,0],[9E9,9E9,9E9,9E9,9E9,9E9]], s_printSpeed, fine, tool0, \WObj:=ob_RRC_workplace;
        MoveL [[563.8, 596.8, 1.5],[0.6805, 0.1922, -0.1922, 0.6805],[0,0,0,0],[9E9,9E9,9E9,9E9,9E9,9E9]], s_printSpeed, fine, tool0, \WObj:=ob_RRC_workplace;
        MoveL [[560.3, 585.4, 1.2],[0.6704, 0.2250, -0.2250, 0.6704],[0,0,0,0],[9E9,9E9,9E9,9E9,9E9,9E9]], s_printSpeed, fine, tool0, \WObj:=ob_RRC_workplace;
        MoveL [[548.3, 585.2, 1.2],[0.6702, 0.2256, -0.2256, 0.6702],[0,0,0,0],[9E9,9E9,9E9,9E9,9E9,9E9]], s_printSpeed, fine, tool0, \WObj:=ob_RRC_workplace;
        MoveL [[536.6, 587.6, 1.3],[0.6727, 0.2178, -0.2178, 0.6727],[0,0,0,0],[9E9,9E9,9E9,9E9,9E9,9E9]], s_printSpeed, fine, tool0, \WObj:=ob_RRC_workplace;
        MoveL [[524.7, 589.4, 1.3],[0.6744, 0.2124, -0.2124, 0.6744],[0,0,0,0],[9E9,9E9,9E9,9E9,9E9,9E9]], s_printSpeed, fine, tool0, \WObj:=ob_RRC_workplace;
        MoveL [[515.8, 581.4, 1.1],[0.6656, 0.2388, -0.2388, 0.6656],[0,0,0,0],[9E9,9E9,9E9,9E9,9E9,9E9]], s_printSpeed, fine, tool0, \WObj:=ob_RRC_workplace;
        MoveL [[517.4, 569.5, 0.8],[-0.6450, -0.2897, -0.2897, 0.6450],[0,0,0,0],[9E9,9E9,9E9,9E9,9E9,9E9]], s_printSpeed, fine, tool0, \WObj:=ob_RRC_workplace;
        MoveL [[519.8, 557.7, 0.5],[-0.6100, -0.3576, -0.3576, 0.6100],[0,0,0,0],[9E9,9E9,9E9,9E9,9E9,9E9]], s_printSpeed, fine, tool0, \WObj:=ob_RRC_workplace;
        MoveL [[520.0, 545.7, 0.2],[-0.5505, -0.4438, -0.4438, 0.5505],[0,0,0,0],[9E9,9E9,9E9,9E9,9E9,9E9]], s_printSpeed, fine, tool0, \WObj:=ob_RRC_workplace;
        MoveL [[510.4, 538.6, 0.0],[-0.5021, -0.4979, -0.4979, 0.5021],[0,0,0,0],[9E9,9E9,9E9,9E9,9E9,9E9]], s_printSpeed, fine, tool0, \WObj:=ob_RRC_workplace;
        MoveL [[498.4, 538.9, 0.0],[-0.5044, -0.4956, -0.4956, 0.5044],[0,0,0,0],[9E9,9E9,9E9,9E9,9E9,9E9]], s_printSpeed, fine, tool0, \WObj:=ob_RRC_workplace;
        MoveL [[486.7, 541.4, 0.1],[-0.5220, -0.4770, -0.4770, 0.5220],[0,0,0,0],[9E9,9E9,9E9,9E9,9E9,9E9]], s_printSpeed, fine, tool0, \WObj:=ob_RRC_workplace;
        MoveL [[475.2, 545.0, 0.2],[-0.5457, -0.4497, -0.4497, 0.5457],[0,0,0,0],[9E9,9E9,9E9,9E9,9E9,9E9]], s_printSpeed, fine, tool0, \WObj:=ob_RRC_workplace;
    ! layer end
        MoveL [[788.7, 541.7, 0.1],[-0.5263, -0.4723, -0.4723, 0.5263],[0,0,0,0],[9E9,9E9,9E9,9E9,9E9,9E9]], s_printSpeed, fine, tool0, \WObj:=ob_RRC_workplace;
        MoveL [[777.0, 538.9, 0.0],[-0.5071, -0.4928, -0.4928, 0.5071],[0,0,0,0],[9E9,9E9,9E9,9E9,9E9,9E9]], s_printSpeed, fine, tool0, \WObj:=ob_RRC_workplace;
        MoveL [[765.0, 538.0, 0.0],[-0.5004, -0.4996, -0.4996, 0.5004],[0,0,0,0],[9E9,9E9,9E9,9E9,9E9,9E9]], s_printSpeed, fine, tool0, \WObj:=ob_RRC_workplace;
        MoveL [[754.1, 543.0, 0.2],[-0.5347, -0.4627, -0.4627, 0.5347],[0,0,0,0],[9E9,9E9,9E9,9E9,9E9,9E9]], s_printSpeed, fine, tool0, \WObj:=ob_RRC_workplace;
        MoveL [[752.9, 554.9, 0.6],[-0.5994, -0.3752, -0.3752, 0.5994],[0,0,0,0],[9E9,9E9,9E9,9E9,9E9,9E9]], s_printSpeed, fine, tool0, \WObj:=ob_RRC_workplace;
        MoveL [[755.2, 566.7, 1.0],[-0.6385, -0.3038, -0.3038, 0.6385],[0,0,0,0],[9E9,9E9,9E9,9E9,9E9,9E9]], s_printSpeed, fine, tool0, \WObj:=ob_RRC_workplace;
        MoveL [[757.2, 578.5, 1.4],[0.6614, 0.2501, -0.2501, 0.6614],[0,0,0,0],[9E9,9E9,9E9,9E9,9E9,9E9]], s_printSpeed, fine, tool0, \WObj:=ob_RRC_workplace;
        MoveL [[751.3, 588.9, 1.8],[0.6737, 0.2149, -0.2149, 0.6737],[0,0,0,0],[9E9,9E9,9E9,9E9,9E9,9E9]], s_printSpeed, fine, tool0, \WObj:=ob_RRC_workplace;
        MoveL [[739.3, 587.9, 1.8],[0.6727, 0.2180, -0.2180, 0.6727],[0,0,0,0],[9E9,9E9,9E9,9E9,9E9,9E9]], s_printSpeed, fine, tool0, \WObj:=ob_RRC_workplace;
        MoveL [[727.6, 585.4, 1.7],[0.6701, 0.2257, -0.2257, 0.6701],[0,0,0,0],[9E9,9E9,9E9,9E9,9E9,9E9]], s_printSpeed, fine, tool0, \WObj:=ob_RRC_workplace;
        MoveL [[715.6, 584.3, 1.6],[0.6689, 0.2293, -0.2293, 0.6689],[0,0,0,0],[9E9,9E9,9E9,9E9,9E9,9E9]], s_printSpeed, fine, tool0, \WObj:=ob_RRC_workplace;
        MoveL [[709.1, 594.3, 2.0],[0.6783, 0.1999, -0.1999, 0.6783],[0,0,0,0],[9E9,9E9,9E9,9E9,9E9,9E9]], s_printSpeed, fine, tool0, \WObj:=ob_RRC_workplace;
        MoveL [[711.0, 606.2, 2.4],[0.6855, 0.1734, -0.1734, 0.6855],[0,0,0,0],[9E9,9E9,9E9,9E9,9E9,9E9]], s_printSpeed, fine, tool0, \WObj:=ob_RRC_workplace;
        MoveL [[713.4, 617.9, 2.8],[0.6903, 0.1532, -0.1532, 0.6903],[0,0,0,0],[9E9,9E9,9E9,9E9,9E9,9E9]], s_printSpeed, fine, tool0, \WObj:=ob_RRC_workplace;
        MoveL [[712.5, 629.9, 3.2],[0.6937, 0.1371, -0.1371, 0.6937],[0,0,0,0],[9E9,9E9,9E9,9E9,9E9,9E9]], s_printSpeed, fine, tool0, \WObj:=ob_RRC_workplace;
        MoveL [[700.7, 631.9, 3.3],[0.6942, 0.1347, -0.1347, 0.6942],[0,0,0,0],[9E9,9E9,9E9,9E9,9E9,9E9]], s_printSpeed, fine, tool0, \WObj:=ob_RRC_workplace;
        MoveL [[688.9, 629.5, 3.2],[0.6936, 0.1375, -0.1375, 0.6936],[0,0,0,0],[9E9,9E9,9E9,9E9,9E9,9E9]], s_printSpeed, fine, tool0, \WObj:=ob_RRC_workplace;
        MoveL [[677.1, 627.5, 3.1],[0.6931, 0.1401, -0.1401, 0.6931],[0,0,0,0],[9E9,9E9,9E9,9E9,9E9,9E9]], s_printSpeed, fine, tool0, \WObj:=ob_RRC_workplace;
        MoveL [[666.1, 632.2, 3.3],[0.6942, 0.1343, -0.1343, 0.6942],[0,0,0,0],[9E9,9E9,9E9,9E9,9E9,9E9]], s_printSpeed, fine, tool0, \WObj:=ob_RRC_workplace;
        MoveL [[666.1, 644.2, 3.7],[0.6965, 0.1219, -0.1219, 0.6965],[0,0,0,0],[9E9,9E9,9E9,9E9,9E9,9E9]], s_printSpeed, fine, tool0, \WObj:=ob_RRC_workplace;
        MoveL [[668.3, 656.0, 4.1],[0.6982, 0.1119, -0.1119, 0.6982],[0,0,0,0],[9E9,9E9,9E9,9E9,9E9,9E9]], s_printSpeed, fine, tool0, \WObj:=ob_RRC_workplace;
        MoveL [[670.0, 667.9, 4.6],[0.6995, 0.1035, -0.1035, 0.6995],[0,0,0,0],[9E9,9E9,9E9,9E9,9E9,9E9]], s_printSpeed, fine, tool0, \WObj:=ob_RRC_workplace;
        MoveL [[661.8, 676.6, 4.9],[0.7003, 0.0982, -0.0982, 0.7003],[0,0,0,0],[9E9,9E9,9E9,9E9,9E9,9E9]], s_printSpeed, fine, tool0, \WObj:=ob_RRC_workplace;
        MoveL [[649.9, 674.9, 4.8],[0.7001, 0.0992, -0.0992, 0.7001],[0,0,0,0],[9E9,9E9,9E9,9E9,9E9,9E9]], s_printSpeed, fine, tool0, \WObj:=ob_RRC_workplace;
        MoveL [[638.1, 672.7, 4.7],[0.6999, 0.1005, -0.1005, 0.6999],[0,0,0,0],[9E9,9E9,9E9,9E9,9E9,9E9]], s_printSpeed, fine, tool0, \WObj:=ob_RRC_workplace;
        MoveL [[626.1, 671.9, 4.7],[0.6999, 0.1010, -0.1010, 0.6999],[0,0,0,0],[9E9,9E9,9E9,9E9,9E9,9E9]], s_printSpeed, fine, tool0, \WObj:=ob_RRC_workplace;
        MoveL [[614.2, 673.4, 4.8],[0.7000, 0.1000, -0.1000, 0.7000],[0,0,0,0],[9E9,9E9,9E9,9E9,9E9,9E9]], s_printSpeed, fine, tool0, \WObj:=ob_RRC_workplace;
        MoveL [[602.4, 671.1, 4.7],[0.6998, 0.1015, -0.1015, 0.6998],[0,0,0,0],[9E9,9E9,9E9,9E9,9E9,9E9]], s_printSpeed, fine, tool0, \WObj:=ob_RRC_workplace;
        MoveL [[602.9, 659.1, 4.3],[0.6986, 0.1096, -0.1096, 0.6986],[0,0,0,0],[9E9,9E9,9E9,9E9,9E9,9E9]], s_printSpeed, fine, tool0, \WObj:=ob_RRC_workplace;
        MoveL [[605.4, 647.4, 3.8],[0.6970, 0.1190, -0.1190, 0.6970],[0,0,0,0],[9E9,9E9,9E9,9E9,9E9,9E9]], s_printSpeed, fine, tool0, \WObj:=ob_RRC_workplace;
        MoveL [[606.9, 635.5, 3.4],[0.6949, 0.1307, -0.1307, 0.6949],[0,0,0,0],[9E9,9E9,9E9,9E9,9E9,9E9]], s_printSpeed, fine, tool0, \WObj:=ob_RRC_workplace;
        MoveL [[598.5, 627.0, 3.1],[0.6930, 0.1406, -0.1406, 0.6930],[0,0,0,0],[9E9,9E9,9E9,9E9,9E9,9E9]], s_printSpeed, fine, tool0, \WObj:=ob_RRC_workplace;
        MoveL [[586.6, 628.7, 3.2],[0.6934, 0.1386, -0.1386, 0.6934],[0,0,0,0],[9E9,9E9,9E9,9E9,9E9,9E9]], s_printSpeed, fine, tool0, \WObj:=ob_RRC_workplace;
        MoveL [[574.9, 631.2, 3.3],[0.6940, 0.1355, -0.1355, 0.6940],[0,0,0,0],[9E9,9E9,9E9,9E9,9E9,9E9]], s_printSpeed, fine, tool0, \WObj:=ob_RRC_workplace;
        MoveL [[562.9, 631.5, 3.3],[0.6941, 0.1352, -0.1352, 0.6941],[0,0,0,0],[9E9,9E9,9E9,9E9,9E9,9E9]], s_printSpeed, fine, tool0, \WObj:=ob_RRC_workplace;
        MoveL [[559.2, 620.1, 2.9],[0.6910, 0.1500, -0.1500, 0.6910],[0,0,0,0],[9E9,9E9,9E9,9E9,9E9,9E9]], s_printSpeed, fine, tool0, \WObj:=ob_RRC_workplace;
        MoveL [[561.5, 608.3, 2.5],[0.6865, 0.1693, -0.1693, 0.6865],[0,0,0,0],[9E9,9E9,9E9,9E9,9E9,9E9]], s_printSpeed, fine, tool0, \WObj:=ob_RRC_workplace;
        MoveL [[563.8, 596.5, 2.1],[0.6798, 0.1945, -0.1945, 0.6798],[0,0,0,0],[9E9,9E9,9E9,9E9,9E9,9E9]], s_printSpeed, fine, tool0, \WObj:=ob_RRC_workplace;
        MoveL [[560.3, 585.0, 1.7],[0.6697, 0.2269, -0.2269, 0.6697],[0,0,0,0],[9E9,9E9,9E9,9E9,9E9,9E9]], s_printSpeed, fine, tool0, \WObj:=ob_RRC_workplace;
        MoveL [[548.3, 584.9, 1.6],[0.6695, 0.2275, -0.2275, 0.6695],[0,0,0,0],[9E9,9E9,9E9,9E9,9E9,9E9]], s_printSpeed, fine, tool0, \WObj:=ob_RRC_workplace;
        MoveL [[536.6, 587.3, 1.7],[0.6721, 0.2198, -0.2198, 0.6721],[0,0,0,0],[9E9,9E9,9E9,9E9,9E9,9E9]], s_printSpeed, fine, tool0, \WObj:=ob_RRC_workplace;
        MoveL [[524.7, 589.1, 1.8],[0.6738, 0.2145, -0.2145, 0.6738],[0,0,0,0],[9E9,9E9,9E9,9E9,9E9,9E9]], s_printSpeed, fine, tool0, \WObj:=ob_RRC_workplace;
        MoveL [[515.8, 581.1, 1.5],[0.6649, 0.2405, -0.2405, 0.6649],[0,0,0,0],[9E9,9E9,9E9,9E9,9E9,9E9]], s_printSpeed, fine, tool0, \WObj:=ob_RRC_workplace;
        MoveL [[517.4, 569.2, 1.1],[-0.6444, -0.2910, -0.2910, 0.6444],[0,0,0,0],[9E9,9E9,9E9,9E9,9E9,9E9]], s_printSpeed, fine, tool0, \WObj:=ob_RRC_workplace;
        MoveL [[519.8, 557.4, 0.7],[-0.6096, -0.3583, -0.3583, 0.6096],[0,0,0,0],[9E9,9E9,9E9,9E9,9E9,9E9]], s_printSpeed, fine, tool0, \WObj:=ob_RRC_workplace;
        MoveL [[520.0, 545.4, 0.3],[-0.5504, -0.4439, -0.4439, 0.5504],[0,0,0,0],[9E9,9E9,9E9,9E9,9E9,9E9]], s_printSpeed, fine, tool0, \WObj:=ob_RRC_workplace;
        MoveL [[510.4, 538.3, 0.0],[-0.5021, -0.4979, -0.4979, 0.5021],[0,0,0,0],[9E9,9E9,9E9,9E9,9E9,9E9]], s_printSpeed, fine, tool0, \WObj:=ob_RRC_workplace;
        MoveL [[498.4, 538.6, 0.0],[-0.5044, -0.4956, -0.4956, 0.5044],[0,0,0,0],[9E9,9E9,9E9,9E9,9E9,9E9]], s_printSpeed, fine, tool0, \WObj:=ob_RRC_workplace;
        MoveL [[486.7, 541.1, 0.1],[-0.5220, -0.4770, -0.4770, 0.5220],[0,0,0,0],[9E9,9E9,9E9,9E9,9E9,9E9]], s_printSpeed, fine, tool0, \WObj:=ob_RRC_workplace;
        MoveL [[475.2, 544.7, 0.2],[-0.5456, -0.4498, -0.4498, 0.5456],[0,0,0,0],[9E9,9E9,9E9,9E9,9E9,9E9]], s_printSpeed, fine, tool0, \WObj:=ob_RRC_workplace;
    ! layer end
        MoveL [[788.7, 541.4, 0.2],[-0.5262, -0.4723, -0.4723, 0.5262],[0,0,0,0],[9E9,9E9,9E9,9E9,9E9,9E9]], s_printSpeed, fine, tool0, \WObj:=ob_RRC_workplace;
        MoveL [[777.0, 538.6, 0.0],[-0.5071, -0.4928, -0.4928, 0.5071],[0,0,0,0],[9E9,9E9,9E9,9E9,9E9,9E9]], s_printSpeed, fine, tool0, \WObj:=ob_RRC_workplace;
        MoveL [[765.0, 537.7, 0.0],[-0.5004, -0.4996, -0.4996, 0.5004],[0,0,0,0],[9E9,9E9,9E9,9E9,9E9,9E9]], s_printSpeed, fine, tool0, \WObj:=ob_RRC_workplace;
        MoveL [[754.1, 542.7, 0.2],[-0.5347, -0.4628, -0.4628, 0.5347],[0,0,0,0],[9E9,9E9,9E9,9E9,9E9,9E9]], s_printSpeed, fine, tool0, \WObj:=ob_RRC_workplace;
        MoveL [[752.9, 554.6, 0.7],[-0.5990, -0.3757, -0.3757, 0.5990],[0,0,0,0],[9E9,9E9,9E9,9E9,9E9,9E9]], s_printSpeed, fine, tool0, \WObj:=ob_RRC_workplace;
        MoveL [[755.2, 566.4, 1.3],[-0.6380, -0.3049, -0.3049, 0.6380],[0,0,0,0],[9E9,9E9,9E9,9E9,9E9,9E9]], s_printSpeed, fine, tool0, \WObj:=ob_RRC_workplace;
        MoveL [[757.2, 578.2, 1.8],[0.6607, 0.2518, -0.2518, 0.6607],[0,0,0,0],[9E9,9E9,9E9,9E9,9E9,9E9]], s_printSpeed, fine, tool0, \WObj:=ob_RRC_workplace;
        MoveL [[751.3, 588.6, 2.2],[0.6730, 0.2169, -0.2169, 0.6730],[0,0,0,0],[9E9,9E9,9E9,9E9,9E9,9E9]], s_printSpeed, fine, tool0, \WObj:=ob_RRC_workplace;
        MoveL [[739.3, 587.6, 2.2],[0.6720, 0.2200, -0.2200, 0.6720],[0,0,0,0],[9E9,9E9,9E9,9E9,9E9,9E9]], s_printSpeed, fine, tool0, \WObj:=ob_RRC_workplace;
        MoveL [[727.6, 585.1, 2.1],[0.6695, 0.2276, -0.2276, 0.6695],[0,0,0,0],[9E9,9E9,9E9,9E9,9E9,9E9]], s_printSpeed, fine, tool0, \WObj:=ob_RRC_workplace;
        MoveL [[715.6, 584.0, 2.0],[0.6683, 0.2312, -0.2312, 0.6683],[0,0,0,0],[9E9,9E9,9E9,9E9,9E9,9E9]], s_printSpeed, fine, tool0, \WObj:=ob_RRC_workplace;
        MoveL [[709.1, 594.0, 2.5],[0.6776, 0.2021, -0.2021, 0.6776],[0,0,0,0],[9E9,9E9,9E9,9E9,9E9,9E9]], s_printSpeed, fine, tool0, \WObj:=ob_RRC_workplace;
        MoveL [[711.0, 605.8, 3.0],[0.6849, 0.1758, -0.1758, 0.6849],[0,0,0,0],[9E9,9E9,9E9,9E9,9E9,9E9]], s_printSpeed, fine, tool0, \WObj:=ob_RRC_workplace;
        MoveL [[713.4, 617.6, 3.5],[0.6897, 0.1557, -0.1557, 0.6897],[0,0,0,0],[9E9,9E9,9E9,9E9,9E9,9E9]], s_printSpeed, fine, tool0, \WObj:=ob_RRC_workplace;
        MoveL [[712.5, 629.5, 4.0],[0.6932, 0.1397, -0.1397, 0.6932],[0,0,0,0],[9E9,9E9,9E9,9E9,9E9,9E9]], s_printSpeed, fine, tool0, \WObj:=ob_RRC_workplace;
        MoveL [[700.7, 631.6, 4.1],[0.6936, 0.1374, -0.1374, 0.6936],[0,0,0,0],[9E9,9E9,9E9,9E9,9E9,9E9]], s_printSpeed, fine, tool0, \WObj:=ob_RRC_workplace;
        MoveL [[688.9, 629.2, 4.0],[0.6931, 0.1401, -0.1401, 0.6931],[0,0,0,0],[9E9,9E9,9E9,9E9,9E9,9E9]], s_printSpeed, fine, tool0, \WObj:=ob_RRC_workplace;
        MoveL [[677.1, 627.1, 3.9],[0.6926, 0.1427, -0.1427, 0.6926],[0,0,0,0],[9E9,9E9,9E9,9E9,9E9,9E9]], s_printSpeed, fine, tool0, \WObj:=ob_RRC_workplace;
        MoveL [[666.1, 631.9, 4.1],[0.6937, 0.1370, -0.1370, 0.6937],[0,0,0,0],[9E9,9E9,9E9,9E9,9E9,9E9]], s_printSpeed, fine, tool0, \WObj:=ob_RRC_workplace;
        MoveL [[666.1, 643.9, 4.7],[0.6960, 0.1246, -0.1246, 0.6960],[0,0,0,0],[9E9,9E9,9E9,9E9,9E9,9E9]], s_printSpeed, fine, tool0, \WObj:=ob_RRC_workplace;
        MoveL [[668.3, 655.7, 5.2],[0.6977, 0.1147, -0.1147, 0.6977],[0,0,0,0],[9E9,9E9,9E9,9E9,9E9,9E9]], s_printSpeed, fine, tool0, \WObj:=ob_RRC_workplace;
        MoveL [[670.0, 667.5, 5.7],[0.6991, 0.1063, -0.1063, 0.6991],[0,0,0,0],[9E9,9E9,9E9,9E9,9E9,9E9]], s_printSpeed, fine, tool0, \WObj:=ob_RRC_workplace;
        MoveL [[661.8, 676.2, 6.1],[0.6998, 0.1011, -0.1011, 0.6998],[0,0,0,0],[9E9,9E9,9E9,9E9,9E9,9E9]], s_printSpeed, fine, tool0, \WObj:=ob_RRC_workplace;
        MoveL [[649.9, 674.5, 6.0],[0.6997, 0.1020, -0.1020, 0.6997],[0,0,0,0],[9E9,9E9,9E9,9E9,9E9,9E9]], s_printSpeed, fine, tool0, \WObj:=ob_RRC_workplace;
        MoveL [[638.1, 672.4, 5.9],[0.6995, 0.1033, -0.1033, 0.6995],[0,0,0,0],[9E9,9E9,9E9,9E9,9E9,9E9]], s_printSpeed, fine, tool0, \WObj:=ob_RRC_workplace;
        MoveL [[626.1, 671.6, 5.9],[0.6994, 0.1038, -0.1038, 0.6994],[0,0,0,0],[9E9,9E9,9E9,9E9,9E9,9E9]], s_printSpeed, fine, tool0, \WObj:=ob_RRC_workplace;
        MoveL [[614.2, 673.1, 6.0],[0.6996, 0.1029, -0.1029, 0.6996],[0,0,0,0],[9E9,9E9,9E9,9E9,9E9,9E9]], s_printSpeed, fine, tool0, \WObj:=ob_RRC_workplace;
        MoveL [[602.4, 670.8, 5.8],[0.6994, 0.1043, -0.1043, 0.6994],[0,0,0,0],[9E9,9E9,9E9,9E9,9E9,9E9]], s_printSpeed, fine, tool0, \WObj:=ob_RRC_workplace;
        MoveL [[602.9, 658.8, 5.3],[0.6981, 0.1124, -0.1124, 0.6981],[0,0,0,0],[9E9,9E9,9E9,9E9,9E9,9E9]], s_printSpeed, fine, tool0, \WObj:=ob_RRC_workplace;
        MoveL [[605.4, 647.1, 4.8],[0.6965, 0.1218, -0.1218, 0.6965],[0,0,0,0],[9E9,9E9,9E9,9E9,9E9,9E9]], s_printSpeed, fine, tool0, \WObj:=ob_RRC_workplace;
        MoveL [[606.9, 635.2, 4.3],[0.6944, 0.1334, -0.1334, 0.6944],[0,0,0,0],[9E9,9E9,9E9,9E9,9E9,9E9]], s_printSpeed, fine, tool0, \WObj:=ob_RRC_workplace;
        MoveL [[598.5, 626.7, 3.9],[0.6924, 0.1433, -0.1433, 0.6924],[0,0,0,0],[9E9,9E9,9E9,9E9,9E9,9E9]], s_printSpeed, fine, tool0, \WObj:=ob_RRC_workplace;
        MoveL [[586.6, 628.3, 4.0],[0.6929, 0.1412, -0.1412, 0.6929],[0,0,0,0],[9E9,9E9,9E9,9E9,9E9,9E9]], s_printSpeed, fine, tool0, \WObj:=ob_RRC_workplace;
        MoveL [[574.9, 630.9, 4.1],[0.6935, 0.1381, -0.1381, 0.6935],[0,0,0,0],[9E9,9E9,9E9,9E9,9E9,9E9]], s_printSpeed, fine, tool0, \WObj:=ob_RRC_workplace;
        MoveL [[562.9, 631.2, 4.1],[0.6935, 0.1378, -0.1378, 0.6935],[0,0,0,0],[9E9,9E9,9E9,9E9,9E9,9E9]], s_printSpeed, fine, tool0, \WObj:=ob_RRC_workplace;
        MoveL [[559.2, 619.8, 3.6],[0.6905, 0.1526, -0.1526, 0.6905],[0,0,0,0],[9E9,9E9,9E9,9E9,9E9,9E9]], s_printSpeed, fine, tool0, \WObj:=ob_RRC_workplace;
        MoveL [[561.5, 608.0, 3.1],[0.6859, 0.1718, -0.1718, 0.6859],[0,0,0,0],[9E9,9E9,9E9,9E9,9E9,9E9]], s_printSpeed, fine, tool0, \WObj:=ob_RRC_workplace;
        MoveL [[563.8, 596.2, 2.6],[0.6792, 0.1967, -0.1967, 0.6792],[0,0,0,0],[9E9,9E9,9E9,9E9,9E9,9E9]], s_printSpeed, fine, tool0, \WObj:=ob_RRC_workplace;
        MoveL [[560.3, 584.7, 2.1],[0.6691, 0.2288, -0.2288, 0.6691],[0,0,0,0],[9E9,9E9,9E9,9E9,9E9,9E9]], s_printSpeed, fine, tool0, \WObj:=ob_RRC_workplace;
        MoveL [[548.3, 584.5, 2.1],[0.6689, 0.2294, -0.2294, 0.6689],[0,0,0,0],[9E9,9E9,9E9,9E9,9E9,9E9]], s_printSpeed, fine, tool0, \WObj:=ob_RRC_workplace;
        MoveL [[536.6, 587.0, 2.2],[0.6714, 0.2218, -0.2218, 0.6714],[0,0,0,0],[9E9,9E9,9E9,9E9,9E9,9E9]], s_printSpeed, fine, tool0, \WObj:=ob_RRC_workplace;
        MoveL [[524.7, 588.7, 2.2],[0.6732, 0.2165, -0.2165, 0.6732],[0,0,0,0],[9E9,9E9,9E9,9E9,9E9,9E9]], s_printSpeed, fine, tool0, \WObj:=ob_RRC_workplace;
        MoveL [[515.8, 580.7, 1.9],[0.6643, 0.2423, -0.2423, 0.6643],[0,0,0,0],[9E9,9E9,9E9,9E9,9E9,9E9]], s_printSpeed, fine, tool0, \WObj:=ob_RRC_workplace;
        MoveL [[517.4, 568.9, 1.4],[-0.6439, -0.2923, -0.2923, 0.6439],[0,0,0,0],[9E9,9E9,9E9,9E9,9E9,9E9]], s_printSpeed, fine, tool0, \WObj:=ob_RRC_workplace;
        MoveL [[519.8, 557.1, 0.9],[-0.6092, -0.3590, -0.3590, 0.6092],[0,0,0,0],[9E9,9E9,9E9,9E9,9E9,9E9]], s_printSpeed, fine, tool0, \WObj:=ob_RRC_workplace;
        MoveL [[520.0, 545.1, 0.3],[-0.5503, -0.4441, -0.4441, 0.5503],[0,0,0,0],[9E9,9E9,9E9,9E9,9E9,9E9]], s_printSpeed, fine, tool0, \WObj:=ob_RRC_workplace;
        MoveL [[510.4, 538.0, 0.0],[-0.5021, -0.4979, -0.4979, 0.5021],[0,0,0,0],[9E9,9E9,9E9,9E9,9E9,9E9]], s_printSpeed, fine, tool0, \WObj:=ob_RRC_workplace;
        MoveL [[498.4, 538.3, 0.0],[-0.5044, -0.4956, -0.4956, 0.5044],[0,0,0,0],[9E9,9E9,9E9,9E9,9E9,9E9]], s_printSpeed, fine, tool0, \WObj:=ob_RRC_workplace;
        MoveL [[486.7, 540.8, 0.1],[-0.5220, -0.4770, -0.4770, 0.5220],[0,0,0,0],[9E9,9E9,9E9,9E9,9E9,9E9]], s_printSpeed, fine, tool0, \WObj:=ob_RRC_workplace;
        MoveL [[475.2, 544.4, 0.3],[-0.5455, -0.4499, -0.4499, 0.5455],[0,0,0,0],[9E9,9E9,9E9,9E9,9E9,9E9]], s_printSpeed, fine, tool0, \WObj:=ob_RRC_workplace;
    ! layer end
        MoveL [[788.7, 541.1, 0.2],[-0.5262, -0.4723, -0.4723, 0.5262],[0,0,0,0],[9E9,9E9,9E9,9E9,9E9,9E9]], s_printSpeed, fine, tool0, \WObj:=ob_RRC_workplace;
        MoveL [[777.0, 538.3, 0.1],[-0.5071, -0.4928, -0.4928, 0.5071],[0,0,0,0],[9E9,9E9,9E9,9E9,9E9,9E9]], s_printSpeed, fine, tool0, \WObj:=ob_RRC_workplace;
        MoveL [[765.0, 537.4, 0.0],[-0.5004, -0.4996, -0.4996, 0.5004],[0,0,0,0],[9E9,9E9,9E9,9E9,9E9,9E9]], s_printSpeed, fine, tool0, \WObj:=ob_RRC_workplace;
        MoveL [[754.1, 542.4, 0.3],[-0.5346, -0.4628, -0.4628, 0.5346],[0,0,0,0],[9E9,9E9,9E9,9E9,9E9,9E9]], s_printSpeed, fine, tool0, \WObj:=ob_RRC_workplace;
        MoveL [[752.9, 554.3, 0.9],[-0.5987, -0.3763, -0.3763, 0.5987],[0,0,0,0],[9E9,9E9,9E9,9E9,9E9,9E9]], s_printSpeed, fine, tool0, \WObj:=ob_RRC_workplace;
        MoveL [[755.2, 566.1, 1.5],[-0.6374, -0.3061, -0.3061, 0.6374],[0,0,0,0],[9E9,9E9,9E9,9E9,9E9,9E9]], s_printSpeed, fine, tool0, \WObj:=ob_RRC_workplace;
        MoveL [[757.2, 577.9, 2.1],[0.6601, 0.2535, -0.2535, 0.6601],[0,0,0,0],[9E9,9E9,9E9,9E9,9E9,9E9]], s_printSpeed, fine, tool0, \WObj:=ob_RRC_workplace;
        MoveL [[751.3, 588.3, 2.7],[0.6724, 0.2189, -0.2189, 0.6724],[0,0,0,0],[9E9,9E9,9E9,9E9,9E9,9E9]], s_printSpeed, fine, tool0, \WObj:=ob_RRC_workplace;
        MoveL [[739.3, 587.2, 2.6],[0.6714, 0.2219, -0.2219, 0.6714],[0,0,0,0],[9E9,9E9,9E9,9E9,9E9,9E9]], s_printSpeed, fine, tool0, \WObj:=ob_RRC_workplace;
        MoveL [[727.6, 584.8, 2.5],[0.6688, 0.2295, -0.2295, 0.6688],[0,0,0,0],[9E9,9E9,9E9,9E9,9E9,9E9]], s_printSpeed, fine, tool0, \WObj:=ob_RRC_workplace;
        MoveL [[715.6, 583.7, 2.4],[0.6676, 0.2330, -0.2330, 0.6676],[0,0,0,0],[9E9,9E9,9E9,9E9,9E9,9E9]], s_printSpeed, fine, tool0, \WObj:=ob_RRC_workplace;
        MoveL [[709.1, 593.7, 3.0],[0.6770, 0.2042, -0.2042, 0.6770],[0,0,0,0],[9E9,9E9,9E9,9E9,9E9,9E9]], s_printSpeed, fine, tool0, \WObj:=ob_RRC_workplace;
        MoveL [[711.0, 605.5, 3.6],[0.6843, 0.1781, -0.1781, 0.6843],[0,0,0,0],[9E9,9E9,9E9,9E9,9E9,9E9]], s_printSpeed, fine, tool0, \WObj:=ob_RRC_workplace;
        MoveL [[713.4, 617.3, 4.2],[0.6892, 0.1583, -0.1583, 0.6892],[0,0,0,0],[9E9,9E9,9E9,9E9,9E9,9E9]], s_printSpeed, fine, tool0, \WObj:=ob_RRC_workplace;
        MoveL [[712.5, 629.2, 4.8],[0.6926, 0.1424, -0.1424, 0.6926],[0,0,0,0],[9E9,9E9,9E9,9E9,9E9,9E9]], s_printSpeed, fine, tool0, \WObj:=ob_RRC_workplace;
        MoveL [[700.7, 631.2, 5.0],[0.6931, 0.1400, -0.1400, 0.6931],[0,0,0,0],[9E9,9E9,9E9,9E9,9E9,9E9]], s_printSpeed, fine, tool0, \WObj:=ob_RRC_workplace;
        MoveL [[688.9, 628.9, 4.8],[0.6925, 0.1428, -0.1428, 0.6925],[0,0,0,0],[9E9,9E9,9E9,9E9,9E9,9E9]], s_printSpeed, fine, tool0, \WObj:=ob_RRC_workplace;
        MoveL [[677.1, 626.8, 4.7],[0.6920, 0.1453, -0.1453, 0.6920],[0,0,0,0],[9E9,9E9,9E9,9E9,9E9,9E9]], s_printSpeed, fine, tool0, \WObj:=ob_RRC_workplace;
        MoveL [[666.1, 631.6, 5.0],[0.6932, 0.1396, -0.1396, 0.6932],[0,0,0,0],[9E9,9E9,9E9,9E9,9E9,9E9]], s_printSpeed, fine, tool0, \WObj:=ob_RRC_workplace;
        MoveL [[666.1, 643.6, 5.6],[0.6955, 0.1274, -0.1274, 0.6955],[0,0,0,0],[9E9,9E9,9E9,9E9,9E9,9E9]], s_printSpeed, fine, tool0, \WObj:=ob_RRC_workplace;
        MoveL [[668.3, 655.3, 6.2],[0.6973, 0.1175, -0.1175, 0.6973],[0,0,0,0],[9E9,9E9,9E9,9E9,9E9,9E9]], s_printSpeed, fine, tool0, \WObj:=ob_RRC_workplace;
        MoveL [[670.0, 667.2, 6.8],[0.6986, 0.1092, -0.1092, 0.6986],[0,0,0,0],[9E9,9E9,9E9,9E9,9E9,9E9]], s_printSpeed, fine, tool0, \WObj:=ob_RRC_workplace;
        MoveL [[661.8, 675.9, 7.3],[0.6994, 0.1039, -0.1039, 0.6994],[0,0,0,0],[9E9,9E9,9E9,9E9,9E9,9E9]], s_printSpeed, fine, tool0, \WObj:=ob_RRC_workplace;
        MoveL [[649.9, 674.2, 7.2],[0.6993, 0.1049, -0.1049, 0.6993],[0,0,0,0],[9E9,9E9,9E9,9E9,9E9,9E9]], s_printSpeed, fine, tool0, \WObj:=ob_RRC_workplace;
        MoveL [[638.1, 672.0, 7.1],[0.6991, 0.1062, -0.1062, 0.6991],[0,0,0,0],[9E9,9E9,9E9,9E9,9E9,9E9]], s_printSpeed, fine, tool0, \WObj:=ob_RRC_workplace;
        MoveL [[626.1, 671.2, 7.1],[0.6990, 0.1067, -0.1067, 0.6990],[0,0,0,0],[9E9,9E9,9E9,9E9,9E9,9E9]], s_printSpeed, fine, tool0, \WObj:=ob_RRC_workplace;
        MoveL [[614.2, 672.7, 7.1],[0.6992, 0.1057, -0.1057, 0.6992],[0,0,0,0],[9E9,9E9,9E9,9E9,9E9,9E9]], s_printSpeed, fine, tool0, \WObj:=ob_RRC_workplace;
        MoveL [[602.4, 670.4, 7.0],[0.6989, 0.1072, -0.1072, 0.6989],[0,0,0,0],[9E9,9E9,9E9,9E9,9E9,9E9]], s_printSpeed, fine, tool0, \WObj:=ob_RRC_workplace;
        MoveL [[602.9, 658.4, 6.4],[0.6977, 0.1152, -0.1152, 0.6977],[0,0,0,0],[9E9,9E9,9E9,9E9,9E9,9E9]], s_printSpeed, fine, tool0, \WObj:=ob_RRC_workplace;
        MoveL [[605.4, 646.7, 5.8],[0.6961, 0.1245, -0.1245, 0.6961],[0,0,0,0],[9E9,9E9,9E9,9E9,9E9,9E9]], s_printSpeed, fine, tool0, \WObj:=ob_RRC_workplace;
        MoveL [[606.9, 634.8, 5.1],[0.6939, 0.1360, -0.1360, 0.6939],[0,0,0,0],[9E9,9E9,9E9,9E9,9E9,9E9]], s_printSpeed, fine, tool0, \WObj:=ob_RRC_workplace;
        MoveL [[598.5, 626.3, 4.7],[0.6919, 0.1459, -0.1459, 0.6919],[0,0,0,0],[9E9,9E9,9E9,9E9,9E9,9E9]], s_printSpeed, fine, tool0, \WObj:=ob_RRC_workplace;
        MoveL [[586.6, 628.0, 4.8],[0.6923, 0.1438, -0.1438, 0.6923],[0,0,0,0],[9E9,9E9,9E9,9E9,9E9,9E9]], s_printSpeed, fine, tool0, \WObj:=ob_RRC_workplace;
        MoveL [[574.9, 630.6, 4.9],[0.6930, 0.1408, -0.1408, 0.6930],[0,0,0,0],[9E9,9E9,9E9,9E9,9E9,9E9]], s_printSpeed, fine, tool0, \WObj:=ob_RRC_workplace;
        MoveL [[562.9, 630.8, 4.9],[0.6930, 0.1405, -0.1405, 0.6930],[0,0,0,0],[9E9,9E9,9E9,9E9,9E9,9E9]], s_printSpeed, fine, tool0, \WObj:=ob_RRC_workplace;
        MoveL [[559.2, 619.4, 4.3],[0.6899, 0.1551, -0.1551, 0.6899],[0,0,0,0],[9E9,9E9,9E9,9E9,9E9,9E9]], s_printSpeed, fine, tool0, \WObj:=ob_RRC_workplace;
        MoveL [[561.5, 607.7, 3.7],[0.6853, 0.1742, -0.1742, 0.6853],[0,0,0,0],[9E9,9E9,9E9,9E9,9E9,9E9]], s_printSpeed, fine, tool0, \WObj:=ob_RRC_workplace;
        MoveL [[563.8, 595.9, 3.1],[0.6786, 0.1988, -0.1988, 0.6786],[0,0,0,0],[9E9,9E9,9E9,9E9,9E9,9E9]], s_printSpeed, fine, tool0, \WObj:=ob_RRC_workplace;
        MoveL [[560.3, 584.4, 2.5],[0.6684, 0.2307, -0.2307, 0.6684],[0,0,0,0],[9E9,9E9,9E9,9E9,9E9,9E9]], s_printSpeed, fine, tool0, \WObj:=ob_RRC_workplace;
        MoveL [[548.3, 584.2, 2.5],[0.6682, 0.2313, -0.2313, 0.6682],[0,0,0,0],[9E9,9E9,9E9,9E9,9E9,9E9]], s_printSpeed, fine, tool0, \WObj:=ob_RRC_workplace;
        MoveL [[536.6, 586.6, 2.6],[0.6708, 0.2238, -0.2238, 0.6708],[0,0,0,0],[9E9,9E9,9E9,9E9,9E9,9E9]], s_printSpeed, fine, tool0, \WObj:=ob_RRC_workplace;
        MoveL [[524.7, 588.4, 2.7],[0.6725, 0.2185, -0.2185, 0.6725],[0,0,0,0],[9E9,9E9,9E9,9E9,9E9,9E9]], s_printSpeed, fine, tool0, \WObj:=ob_RRC_workplace;
        MoveL [[515.8, 580.4, 2.3],[0.6636, 0.2441, -0.2441, 0.6636],[0,0,0,0],[9E9,9E9,9E9,9E9,9E9,9E9]], s_printSpeed, fine, tool0, \WObj:=ob_RRC_workplace;
        MoveL [[517.4, 568.5, 1.6],[-0.6433, -0.2936, -0.2936, 0.6433],[0,0,0,0],[9E9,9E9,9E9,9E9,9E9,9E9]], s_printSpeed, fine, tool0, \WObj:=ob_RRC_workplace;
        MoveL [[519.8, 556.8, 1.0],[-0.6088, -0.3597, -0.3597, 0.6088],[0,0,0,0],[9E9,9E9,9E9,9E9,9E9,9E9]], s_printSpeed, fine, tool0, \WObj:=ob_RRC_workplace;
        MoveL [[520.0, 544.8, 0.4],[-0.5502, -0.4442, -0.4442, 0.5502],[0,0,0,0],[9E9,9E9,9E9,9E9,9E9,9E9]], s_printSpeed, fine, tool0, \WObj:=ob_RRC_workplace;
        MoveL [[510.4, 537.7, 0.0],[-0.5021, -0.4979, -0.4979, 0.5021],[0,0,0,0],[9E9,9E9,9E9,9E9,9E9,9E9]], s_printSpeed, fine, tool0, \WObj:=ob_RRC_workplace;
        MoveL [[498.4, 538.0, 0.0],[-0.5044, -0.4956, -0.4956, 0.5044],[0,0,0,0],[9E9,9E9,9E9,9E9,9E9,9E9]], s_printSpeed, fine, tool0, \WObj:=ob_RRC_workplace;
        MoveL [[486.7, 540.5, 0.2],[-0.5219, -0.4771, -0.4771, 0.5219],[0,0,0,0],[9E9,9E9,9E9,9E9,9E9,9E9]], s_printSpeed, fine, tool0, \WObj:=ob_RRC_workplace;
        MoveL [[475.2, 544.0, 0.4],[-0.5454, -0.4500, -0.4500, 0.5454],[0,0,0,0],[9E9,9E9,9E9,9E9,9E9,9E9]], s_printSpeed, fine, tool0, \WObj:=ob_RRC_workplace;
    ! layer end
        MoveL [[788.7, 540.8, 0.2],[-0.5262, -0.4724, -0.4724, 0.5262],[0,0,0,0],[9E9,9E9,9E9,9E9,9E9,9E9]], s_printSpeed, fine, tool0, \WObj:=ob_RRC_workplace;
        MoveL [[777.0, 538.0, 0.1],[-0.5071, -0.4928, -0.4928, 0.5071],[0,0,0,0],[9E9,9E9,9E9,9E9,9E9,9E9]], s_printSpeed, fine, tool0, \WObj:=ob_RRC_workplace;
        MoveL [[765.0, 537.1, 0.0],[-0.5004, -0.4996, -0.4996, 0.5004],[0,0,0,0],[9E9,9E9,9E9,9E9,9E9,9E9]], s_printSpeed, fine, tool0, \WObj:=ob_RRC_workplace;
        MoveL [[754.1, 542.0, 0.3],[-0.5345, -0.4629, -0.4629, 0.5345],[0,0,0,0],[9E9,9E9,9E9,9E9,9E9,9E9]], s_printSpeed, fine, tool0, \WObj:=ob_RRC_workplace;
        MoveL [[752.9, 554.0, 1.0],[-0.5983, -0.3768, -0.3768, 0.5983],[0,0,0,0],[9E9,9E9,9E9,9E9,9E9,9E9]], s_printSpeed, fine, tool0, \WObj:=ob_RRC_workplace;
        MoveL [[755.2, 565.7, 1.8],[-0.6368, -0.3073, -0.3073, 0.6368],[0,0,0,0],[9E9,9E9,9E9,9E9,9E9,9E9]], s_printSpeed, fine, tool0, \WObj:=ob_RRC_workplace;
        MoveL [[757.2, 577.5, 2.5],[0.6595, 0.2552, -0.2552, 0.6595],[0,0,0,0],[9E9,9E9,9E9,9E9,9E9,9E9]], s_printSpeed, fine, tool0, \WObj:=ob_RRC_workplace;
        MoveL [[751.3, 588.0, 3.1],[0.6717, 0.2209, -0.2209, 0.6717],[0,0,0,0],[9E9,9E9,9E9,9E9,9E9,9E9]], s_printSpeed, fine, tool0, \WObj:=ob_RRC_workplace;
        MoveL [[739.3, 586.9, 3.1],[0.6707, 0.2239, -0.2239, 0.6707],[0,0,0,0],[9E9,9E9,9E9,9E9,9E9,9E9]], s_printSpeed, fine, tool0, \WObj:=ob_RRC_workplace;
        MoveL [[727.6, 584.4, 2.9],[0.6682, 0.2315, -0.2315, 0.6682],[0,0,0,0],[9E9,9E9,9E9,9E9,9E9,9E9]], s_printSpeed, fine, tool0, \WObj:=ob_RRC_workplace;
        MoveL [[715.6, 583.4, 2.8],[0.6669, 0.2349, -0.2349, 0.6669],[0,0,0,0],[9E9,9E9,9E9,9E9,9E9,9E9]], s_printSpeed, fine, tool0, \WObj:=ob_RRC_workplace;
        MoveL [[709.1, 593.4, 3.5],[0.6763, 0.2064, -0.2064, 0.6763],[0,0,0,0],[9E9,9E9,9E9,9E9,9E9,9E9]], s_printSpeed, fine, tool0, \WObj:=ob_RRC_workplace;
        MoveL [[711.0, 605.2, 4.2],[0.6837, 0.1805, -0.1805, 0.6837],[0,0,0,0],[9E9,9E9,9E9,9E9,9E9,9E9]], s_printSpeed, fine, tool0, \WObj:=ob_RRC_workplace;
        MoveL [[713.4, 616.9, 4.9],[0.6886, 0.1608, -0.1608, 0.6886],[0,0,0,0],[9E9,9E9,9E9,9E9,9E9,9E9]], s_printSpeed, fine, tool0, \WObj:=ob_RRC_workplace;
        MoveL [[712.5, 628.9, 5.6],[0.6921, 0.1450, -0.1450, 0.6921],[0,0,0,0],[9E9,9E9,9E9,9E9,9E9,9E9]], s_printSpeed, fine, tool0, \WObj:=ob_RRC_workplace;
        MoveL [[700.7, 630.9, 5.8],[0.6926, 0.1426, -0.1426, 0.6926],[0,0,0,0],[9E9,9E9,9E9,9E9,9E9,9E9]], s_printSpeed, fine, tool0, \WObj:=ob_RRC_workplace;
        MoveL [[688.9, 628.5, 5.6],[0.6920, 0.1454, -0.1454, 0.6920],[0,0,0,0],[9E9,9E9,9E9,9E9,9E9,9E9]], s_printSpeed, fine, tool0, \WObj:=ob_RRC_workplace;
        MoveL [[677.1, 626.4, 5.5],[0.6915, 0.1479, -0.1479, 0.6915],[0,0,0,0],[9E9,9E9,9E9,9E9,9E9,9E9]], s_printSpeed, fine, tool0, \WObj:=ob_RRC_workplace;
        MoveL [[666.1, 631.2, 5.8],[0.6926, 0.1423, -0.1423, 0.6926],[0,0,0,0],[9E9,9E9,9E9,9E9,9E9,9E9]], s_printSpeed, fine, tool0, \WObj:=ob_RRC_workplace;
        MoveL [[666.1, 643.2, 6.5],[0.6950, 0.1301, -0.1301, 0.6950],[0,0,0,0],[9E9,9E9,9E9,9E9,9E9,9E9]], s_printSpeed, fine, tool0, \WObj:=ob_RRC_workplace;
        MoveL [[668.3, 655.0, 7.3],[0.6968, 0.1203, -0.1203, 0.6968],[0,0,0,0],[9E9,9E9,9E9,9E9,9E9,9E9]], s_printSpeed, fine, tool0, \WObj:=ob_RRC_workplace;
        MoveL [[670.0, 666.8, 8.0],[0.6982, 0.1120, -0.1120, 0.6982],[0,0,0,0],[9E9,9E9,9E9,9E9,9E9,9E9]], s_printSpeed, fine, tool0, \WObj:=ob_RRC_workplace;
        MoveL [[661.8, 675.5, 8.5],[0.6990, 0.1068, -0.1068, 0.6990],[0,0,0,0],[9E9,9E9,9E9,9E9,9E9,9E9]], s_printSpeed, fine, tool0, \WObj:=ob_RRC_workplace;
        MoveL [[649.9, 673.8, 8.4],[0.6988, 0.1078, -0.1078, 0.6988],[0,0,0,0],[9E9,9E9,9E9,9E9,9E9,9E9]], s_printSpeed, fine, tool0, \WObj:=ob_RRC_workplace;
        MoveL [[638.1, 671.6, 8.3],[0.6987, 0.1090, -0.1090, 0.6987],[0,0,0,0],[9E9,9E9,9E9,9E9,9E9,9E9]], s_printSpeed, fine, tool0, \WObj:=ob_RRC_workplace;
        MoveL [[626.1, 670.8, 8.2],[0.6986, 0.1095, -0.1095, 0.6986],[0,0,0,0],[9E9,9E9,9E9,9E9,9E9,9E9]], s_printSpeed, fine, tool0, \WObj:=ob_RRC_workplace;
        MoveL [[614.2, 672.4, 8.3],[0.6987, 0.1086, -0.1086, 0.6987],[0,0,0,0],[9E9,9E9,9E9,9E9,9E9,9E9]], s_printSpeed, fine, tool0, \WObj:=ob_RRC_workplace;
        MoveL [[602.4, 670.0, 8.2],[0.6985, 0.1100, -0.1100, 0.6985],[0,0,0,0],[9E9,9E9,9E9,9E9,9E9,9E9]], s_printSpeed, fine, tool0, \WObj:=ob_RRC_workplace;
        MoveL [[602.9, 658.1, 7.4],[0.6972, 0.1180, -0.1180, 0.6972],[0,0,0,0],[9E9,9E9,9E9,9E9,9E9,9E9]], s_printSpeed, fine, tool0, \WObj:=ob_RRC_workplace;
        MoveL [[605.4, 646.4, 6.7],[0.6956, 0.1273, -0.1273, 0.6956],[0,0,0,0],[9E9,9E9,9E9,9E9,9E9,9E9]], s_printSpeed, fine, tool0, \WObj:=ob_RRC_workplace;
        MoveL [[606.9, 634.5, 6.0],[0.6934, 0.1387, -0.1387, 0.6934],[0,0,0,0],[9E9,9E9,9E9,9E9,9E9,9E9]], s_printSpeed, fine, tool0, \WObj:=ob_RRC_workplace;
        MoveL [[598.5, 626.0, 5.5],[0.6913, 0.1485, -0.1485, 0.6913],[0,0,0,0],[9E9,9E9,9E9,9E9,9E9,9E9]], s_printSpeed, fine, tool0, \WObj:=ob_RRC_workplace;
        MoveL [[586.6, 627.6, 5.6],[0.6918, 0.1464, -0.1464, 0.6918],[0,0,0,0],[9E9,9E9,9E9,9E9,9E9,9E9]], s_printSpeed, fine, tool0, \WObj:=ob_RRC_workplace;
        MoveL [[574.9, 630.2, 5.7],[0.6924, 0.1434, -0.1434, 0.6924],[0,0,0,0],[9E9,9E9,9E9,9E9,9E9,9E9]], s_printSpeed, fine, tool0, \WObj:=ob_RRC_workplace;
        MoveL [[562.9, 630.5, 5.7],[0.6925, 0.1431, -0.1431, 0.6925],[0,0,0,0],[9E9,9E9,9E9,9E9,9E9,9E9]], s_printSpeed, fine, tool0, \WObj:=ob_RRC_workplace;
        MoveL [[559.2, 619.1, 5.0],[0.6893, 0.1576, -0.1576, 0.6893],[0,0,0,0],[9E9,9E9,9E9,9E9,9E9,9E9]], s_printSpeed, fine, tool0, \WObj:=ob_RRC_workplace;
        MoveL [[561.5, 607.3, 4.3],[0.6847, 0.1765, -0.1765, 0.6847],[0,0,0,0],[9E9,9E9,9E9,9E9,9E9,9E9]], s_printSpeed, fine, tool0, \WObj:=ob_RRC_workplace;
        MoveL [[563.8, 595.6, 3.6],[0.6779, 0.2010, -0.2010, 0.6779],[0,0,0,0],[9E9,9E9,9E9,9E9,9E9,9E9]], s_printSpeed, fine, tool0, \WObj:=ob_RRC_workplace;
        MoveL [[560.3, 584.1, 2.9],[0.6678, 0.2326, -0.2326, 0.6678],[0,0,0,0],[9E9,9E9,9E9,9E9,9E9,9E9]], s_printSpeed, fine, tool0, \WObj:=ob_RRC_workplace;
        MoveL [[548.3, 583.9, 2.9],[0.6675, 0.2332, -0.2332, 0.6675],[0,0,0,0],[9E9,9E9,9E9,9E9,9E9,9E9]], s_printSpeed, fine, tool0, \WObj:=ob_RRC_workplace;
        MoveL [[536.6, 586.3, 3.0],[0.6701, 0.2257, -0.2257, 0.6701],[0,0,0,0],[9E9,9E9,9E9,9E9,9E9,9E9]], s_printSpeed, fine, tool0, \WObj:=ob_RRC_workplace;
        MoveL [[524.7, 588.1, 3.1],[0.6718, 0.2205, -0.2205, 0.6718],[0,0,0,0],[9E9,9E9,9E9,9E9,9E9,9E9]], s_printSpeed, fine, tool0, \WObj:=ob_RRC_workplace;
        MoveL [[515.8, 580.1, 2.6],[0.6630, 0.2459, -0.2459, 0.6630],[0,0,0,0],[9E9,9E9,9E9,9E9,9E9,9E9]], s_printSpeed, fine, tool0, \WObj:=ob_RRC_workplace;
        MoveL [[517.4, 568.2, 1.9],[-0.6427, -0.2949, -0.2949, 0.6427],[0,0,0,0],[9E9,9E9,9E9,9E9,9E9,9E9]], s_printSpeed, fine, tool0, \WObj:=ob_RRC_workplace;
        MoveL [[519.8, 556.5, 1.2],[-0.6084, -0.3603, -0.3603, 0.6084],[0,0,0,0],[9E9,9E9,9E9,9E9,9E9,9E9]], s_printSpeed, fine, tool0, \WObj:=ob_RRC_workplace;
        MoveL [[520.0, 544.5, 0.5],[-0.5501, -0.4443, -0.4443, 0.5501],[0,0,0,0],[9E9,9E9,9E9,9E9,9E9,9E9]], s_printSpeed, fine, tool0, \WObj:=ob_RRC_workplace;
        MoveL [[510.4, 537.4, 0.0],[-0.5021, -0.4979, -0.4979, 0.5021],[0,0,0,0],[9E9,9E9,9E9,9E9,9E9,9E9]], s_printSpeed, fine, tool0, \WObj:=ob_RRC_workplace;
        MoveL [[498.4, 537.7, 0.0],[-0.5044, -0.4956, -0.4956, 0.5044],[0,0,0,0],[9E9,9E9,9E9,9E9,9E9,9E9]], s_printSpeed, fine, tool0, \WObj:=ob_RRC_workplace;
        MoveL [[486.7, 540.2, 0.2],[-0.5219, -0.4771, -0.4771, 0.5219],[0,0,0,0],[9E9,9E9,9E9,9E9,9E9,9E9]], s_printSpeed, fine, tool0, \WObj:=ob_RRC_workplace;
        MoveL [[475.2, 543.7, 0.4],[-0.5453, -0.4502, -0.4502, 0.5453],[0,0,0,0],[9E9,9E9,9E9,9E9,9E9,9E9]], s_printSpeed, fine, tool0, \WObj:=ob_RRC_workplace;
    ! layer end
        MoveL [[788.7, 540.5, 0.3],[-0.5261, -0.4724, -0.4724, 0.5261],[0,0,0,0],[9E9,9E9,9E9,9E9,9E9,9E9]], s_printSpeed, fine, tool0, \WObj:=ob_RRC_workplace;
        MoveL [[777.0, 537.7, 0.1],[-0.5071, -0.4928, -0.4928, 0.5071],[0,0,0,0],[9E9,9E9,9E9,9E9,9E9,9E9]], s_printSpeed, fine, tool0, \WObj:=ob_RRC_workplace;
        MoveL [[765.0, 536.8, 0.0],[-0.5004, -0.4996, -0.4996, 0.5004],[0,0,0,0],[9E9,9E9,9E9,9E9,9E9,9E9]], s_printSpeed, fine, tool0, \WObj:=ob_RRC_workplace;
        MoveL [[754.1, 541.7, 0.4],[-0.5345, -0.4630, -0.4630, 0.5345],[0,0,0,0],[9E9,9E9,9E9,9E9,9E9,9E9]], s_printSpeed, fine, tool0, \WObj:=ob_RRC_workplace;
        MoveL [[752.9, 553.7, 1.2],[-0.5980, -0.3774, -0.3774, 0.5980],[0,0,0,0],[9E9,9E9,9E9,9E9,9E9,9E9]], s_printSpeed, fine, tool0, \WObj:=ob_RRC_workplace;
        MoveL [[755.2, 565.4, 2.0],[-0.6363, -0.3085, -0.3085, 0.6363],[0,0,0,0],[9E9,9E9,9E9,9E9,9E9,9E9]], s_printSpeed, fine, tool0, \WObj:=ob_RRC_workplace;
        MoveL [[757.2, 577.2, 2.8],[0.6588, 0.2569, -0.2569, 0.6588],[0,0,0,0],[9E9,9E9,9E9,9E9,9E9,9E9]], s_printSpeed, fine, tool0, \WObj:=ob_RRC_workplace;
        MoveL [[751.3, 587.6, 3.6],[0.6711, 0.2229, -0.2229, 0.6711],[0,0,0,0],[9E9,9E9,9E9,9E9,9E9,9E9]], s_printSpeed, fine, tool0, \WObj:=ob_RRC_workplace;
        MoveL [[739.3, 586.6, 3.5],[0.6701, 0.2259, -0.2259, 0.6701],[0,0,0,0],[9E9,9E9,9E9,9E9,9E9,9E9]], s_printSpeed, fine, tool0, \WObj:=ob_RRC_workplace;
        MoveL [[727.6, 584.1, 3.3],[0.6675, 0.2334, -0.2334, 0.6675],[0,0,0,0],[9E9,9E9,9E9,9E9,9E9,9E9]], s_printSpeed, fine, tool0, \WObj:=ob_RRC_workplace;
        MoveL [[715.6, 583.0, 3.3],[0.6663, 0.2368, -0.2368, 0.6663],[0,0,0,0],[9E9,9E9,9E9,9E9,9E9,9E9]], s_printSpeed, fine, tool0, \WObj:=ob_RRC_workplace;
        MoveL [[709.1, 593.0, 4.0],[0.6757, 0.2085, -0.2085, 0.6757],[0,0,0,0],[9E9,9E9,9E9,9E9,9E9,9E9]], s_printSpeed, fine, tool0, \WObj:=ob_RRC_workplace;
        MoveL [[711.0, 604.8, 4.8],[0.6831, 0.1829, -0.1829, 0.6831],[0,0,0,0],[9E9,9E9,9E9,9E9,9E9,9E9]], s_printSpeed, fine, tool0, \WObj:=ob_RRC_workplace;
        MoveL [[713.4, 616.6, 5.6],[0.6880, 0.1633, -0.1633, 0.6880],[0,0,0,0],[9E9,9E9,9E9,9E9,9E9,9E9]], s_printSpeed, fine, tool0, \WObj:=ob_RRC_workplace;
        MoveL [[712.5, 628.5, 6.5],[0.6915, 0.1476, -0.1476, 0.6915],[0,0,0,0],[9E9,9E9,9E9,9E9,9E9,9E9]], s_printSpeed, fine, tool0, \WObj:=ob_RRC_workplace;
        MoveL [[700.7, 630.5, 6.6],[0.6920, 0.1453, -0.1453, 0.6920],[0,0,0,0],[9E9,9E9,9E9,9E9,9E9,9E9]], s_printSpeed, fine, tool0, \WObj:=ob_RRC_workplace;
        MoveL [[688.9, 628.2, 6.4],[0.6914, 0.1480, -0.1480, 0.6914],[0,0,0,0],[9E9,9E9,9E9,9E9,9E9,9E9]], s_printSpeed, fine, tool0, \WObj:=ob_RRC_workplace;
        MoveL [[677.1, 626.1, 6.3],[0.6909, 0.1505, -0.1505, 0.6909],[0,0,0,0],[9E9,9E9,9E9,9E9,9E9,9E9]], s_printSpeed, fine, tool0, \WObj:=ob_RRC_workplace;
        MoveL [[666.1, 630.9, 6.6],[0.6921, 0.1449, -0.1449, 0.6921],[0,0,0,0],[9E9,9E9,9E9,9E9,9E9,9E9]], s_printSpeed, fine, tool0, \WObj:=ob_RRC_workplace;
        MoveL [[666.1, 642.8, 7.5],[0.6945, 0.1328, -0.1328, 0.6945],[0,0,0,0],[9E9,9E9,9E9,9E9,9E9,9E9]], s_printSpeed, fine, tool0, \WObj:=ob_RRC_workplace;
        MoveL [[668.3, 654.6, 8.3],[0.6963, 0.1230, -0.1230, 0.6963],[0,0,0,0],[9E9,9E9,9E9,9E9,9E9,9E9]], s_printSpeed, fine, tool0, \WObj:=ob_RRC_workplace;
        MoveL [[670.0, 666.4, 9.1],[0.6977, 0.1148, -0.1148, 0.6977],[0,0,0,0],[9E9,9E9,9E9,9E9,9E9,9E9]], s_printSpeed, fine, tool0, \WObj:=ob_RRC_workplace;
        MoveL [[661.8, 675.1, 9.7],[0.6986, 0.1096, -0.1096, 0.6986],[0,0,0,0],[9E9,9E9,9E9,9E9,9E9,9E9]], s_printSpeed, fine, tool0, \WObj:=ob_RRC_workplace;
        MoveL [[649.9, 673.4, 9.6],[0.6984, 0.1106, -0.1106, 0.6984],[0,0,0,0],[9E9,9E9,9E9,9E9,9E9,9E9]], s_printSpeed, fine, tool0, \WObj:=ob_RRC_workplace;
        MoveL [[638.1, 671.3, 9.5],[0.6982, 0.1119, -0.1119, 0.6982],[0,0,0,0],[9E9,9E9,9E9,9E9,9E9,9E9]], s_printSpeed, fine, tool0, \WObj:=ob_RRC_workplace;
        MoveL [[626.1, 670.5, 9.4],[0.6981, 0.1123, -0.1123, 0.6981],[0,0,0,0],[9E9,9E9,9E9,9E9,9E9,9E9]], s_printSpeed, fine, tool0, \WObj:=ob_RRC_workplace;
        MoveL [[614.2, 672.0, 9.5],[0.6983, 0.1114, -0.1114, 0.6983],[0,0,0,0],[9E9,9E9,9E9,9E9,9E9,9E9]], s_printSpeed, fine, tool0, \WObj:=ob_RRC_workplace;
        MoveL [[602.4, 669.7, 9.4],[0.6980, 0.1128, -0.1128, 0.6980],[0,0,0,0],[9E9,9E9,9E9,9E9,9E9,9E9]], s_printSpeed, fine, tool0, \WObj:=ob_RRC_workplace;
        MoveL [[602.9, 657.7, 8.5],[0.6967, 0.1208, -0.1208, 0.6967],[0,0,0,0],[9E9,9E9,9E9,9E9,9E9,9E9]], s_printSpeed, fine, tool0, \WObj:=ob_RRC_workplace;
        MoveL [[605.4, 646.0, 7.7],[0.6951, 0.1300, -0.1300, 0.6951],[0,0,0,0],[9E9,9E9,9E9,9E9,9E9,9E9]], s_printSpeed, fine, tool0, \WObj:=ob_RRC_workplace;
        MoveL [[606.9, 634.1, 6.9],[0.6928, 0.1414, -0.1414, 0.6928],[0,0,0,0],[9E9,9E9,9E9,9E9,9E9,9E9]], s_printSpeed, fine, tool0, \WObj:=ob_RRC_workplace;
        MoveL [[598.5, 625.6, 6.3],[0.6908, 0.1511, -0.1511, 0.6908],[0,0,0,0],[9E9,9E9,9E9,9E9,9E9,9E9]], s_printSpeed, fine, tool0, \WObj:=ob_RRC_workplace;
        MoveL [[586.6, 627.3, 6.4],[0.6912, 0.1491, -0.1491, 0.6912],[0,0,0,0],[9E9,9E9,9E9,9E9,9E9,9E9]], s_printSpeed, fine, tool0, \WObj:=ob_RRC_workplace;
        MoveL [[574.9, 629.9, 6.6],[0.6919, 0.1460, -0.1460, 0.6919],[0,0,0,0],[9E9,9E9,9E9,9E9,9E9,9E9]], s_printSpeed, fine, tool0, \WObj:=ob_RRC_workplace;
        MoveL [[562.9, 630.1, 6.6],[0.6919, 0.1457, -0.1457, 0.6919],[0,0,0,0],[9E9,9E9,9E9,9E9,9E9,9E9]], s_printSpeed, fine, tool0, \WObj:=ob_RRC_workplace;
        MoveL [[559.2, 618.7, 5.8],[0.6887, 0.1602, -0.1602, 0.6887],[0,0,0,0],[9E9,9E9,9E9,9E9,9E9,9E9]], s_printSpeed, fine, tool0, \WObj:=ob_RRC_workplace;
        MoveL [[561.5, 607.0, 4.9],[0.6841, 0.1789, -0.1789, 0.6841],[0,0,0,0],[9E9,9E9,9E9,9E9,9E9,9E9]], s_printSpeed, fine, tool0, \WObj:=ob_RRC_workplace;
        MoveL [[563.8, 595.2, 4.1],[0.6773, 0.2032, -0.2032, 0.6773],[0,0,0,0],[9E9,9E9,9E9,9E9,9E9,9E9]], s_printSpeed, fine, tool0, \WObj:=ob_RRC_workplace;
        MoveL [[560.3, 583.8, 3.3],[0.6671, 0.2345, -0.2345, 0.6671],[0,0,0,0],[9E9,9E9,9E9,9E9,9E9,9E9]], s_printSpeed, fine, tool0, \WObj:=ob_RRC_workplace;
        MoveL [[548.3, 583.6, 3.3],[0.6669, 0.2351, -0.2351, 0.6669],[0,0,0,0],[9E9,9E9,9E9,9E9,9E9,9E9]], s_printSpeed, fine, tool0, \WObj:=ob_RRC_workplace;
        MoveL [[536.6, 586.0, 3.5],[0.6695, 0.2277, -0.2277, 0.6695],[0,0,0,0],[9E9,9E9,9E9,9E9,9E9,9E9]], s_printSpeed, fine, tool0, \WObj:=ob_RRC_workplace;
        MoveL [[524.7, 587.8, 3.6],[0.6712, 0.2225, -0.2225, 0.6712],[0,0,0,0],[9E9,9E9,9E9,9E9,9E9,9E9]], s_printSpeed, fine, tool0, \WObj:=ob_RRC_workplace;
        MoveL [[515.8, 579.8, 3.0],[0.6623, 0.2476, -0.2476, 0.6623],[0,0,0,0],[9E9,9E9,9E9,9E9,9E9,9E9]], s_printSpeed, fine, tool0, \WObj:=ob_RRC_workplace;
        MoveL [[517.4, 567.9, 2.2],[-0.6421, -0.2962, -0.2962, 0.6421],[0,0,0,0],[9E9,9E9,9E9,9E9,9E9,9E9]], s_printSpeed, fine, tool0, \WObj:=ob_RRC_workplace;
        MoveL [[519.8, 556.2, 1.4],[-0.6080, -0.3610, -0.3610, 0.6080],[0,0,0,0],[9E9,9E9,9E9,9E9,9E9,9E9]], s_printSpeed, fine, tool0, \WObj:=ob_RRC_workplace;
        MoveL [[520.0, 544.2, 0.5],[-0.5499, -0.4445, -0.4445, 0.5499],[0,0,0,0],[9E9,9E9,9E9,9E9,9E9,9E9]], s_printSpeed, fine, tool0, \WObj:=ob_RRC_workplace;
        MoveL [[510.4, 537.1, 0.0],[-0.5021, -0.4979, -0.4979, 0.5021],[0,0,0,0],[9E9,9E9,9E9,9E9,9E9,9E9]], s_printSpeed, fine, tool0, \WObj:=ob_RRC_workplace;
        MoveL [[498.4, 537.4, 0.0],[-0.5044, -0.4956, -0.4956, 0.5044],[0,0,0,0],[9E9,9E9,9E9,9E9,9E9,9E9]], s_printSpeed, fine, tool0, \WObj:=ob_RRC_workplace;
        MoveL [[486.7, 539.9, 0.2],[-0.5219, -0.4771, -0.4771, 0.5219],[0,0,0,0],[9E9,9E9,9E9,9E9,9E9,9E9]], s_printSpeed, fine, tool0, \WObj:=ob_RRC_workplace;
        MoveL [[475.2, 543.4, 0.5],[-0.5452, -0.4503, -0.4503, 0.5452],[0,0,0,0],[9E9,9E9,9E9,9E9,9E9,9E9]], s_printSpeed, fine, tool0, \WObj:=ob_RRC_workplace;
    ! layer end
        MoveL [[788.7, 540.2, 0.3],[-0.5261, -0.4725, -0.4725, 0.5261],[0,0,0,0],[9E9,9E9,9E9,9E9,9E9,9E9]], s_printSpeed, fine, tool0, \WObj:=ob_RRC_workplace;
        MoveL [[777.0, 537.4, 0.1],[-0.5071, -0.4928, -0.4928, 0.5071],[0,0,0,0],[9E9,9E9,9E9,9E9,9E9,9E9]], s_printSpeed, fine, tool0, \WObj:=ob_RRC_workplace;
        MoveL [[765.0, 536.5, 0.0],[-0.5004, -0.4996, -0.4996, 0.5004],[0,0,0,0],[9E9,9E9,9E9,9E9,9E9,9E9]], s_printSpeed, fine, tool0, \WObj:=ob_RRC_workplace;
        MoveL [[754.1, 541.4, 0.4],[-0.5344, -0.4630, -0.4630, 0.5344],[0,0,0,0],[9E9,9E9,9E9,9E9,9E9,9E9]], s_printSpeed, fine, tool0, \WObj:=ob_RRC_workplace;
        MoveL [[752.9, 553.4, 1.3],[-0.5976, -0.3779, -0.3779, 0.5976],[0,0,0,0],[9E9,9E9,9E9,9E9,9E9,9E9]], s_printSpeed, fine, tool0, \WObj:=ob_RRC_workplace;
        MoveL [[755.2, 565.1, 2.3],[-0.6357, -0.3096, -0.3096, 0.6357],[0,0,0,0],[9E9,9E9,9E9,9E9,9E9,9E9]], s_printSpeed, fine, tool0, \WObj:=ob_RRC_workplace;
        MoveL [[757.2, 576.9, 3.2],[0.6581, 0.2585, -0.2585, 0.6581],[0,0,0,0],[9E9,9E9,9E9,9E9,9E9,9E9]], s_printSpeed, fine, tool0, \WObj:=ob_RRC_workplace;
        MoveL [[751.3, 587.3, 4.0],[0.6704, 0.2249, -0.2249, 0.6704],[0,0,0,0],[9E9,9E9,9E9,9E9,9E9,9E9]], s_printSpeed, fine, tool0, \WObj:=ob_RRC_workplace;
        MoveL [[739.3, 586.3, 3.9],[0.6694, 0.2279, -0.2279, 0.6694],[0,0,0,0],[9E9,9E9,9E9,9E9,9E9,9E9]], s_printSpeed, fine, tool0, \WObj:=ob_RRC_workplace;
        MoveL [[727.6, 583.8, 3.7],[0.6668, 0.2353, -0.2353, 0.6668],[0,0,0,0],[9E9,9E9,9E9,9E9,9E9,9E9]], s_printSpeed, fine, tool0, \WObj:=ob_RRC_workplace;
        MoveL [[715.6, 582.7, 3.7],[0.6656, 0.2387, -0.2387, 0.6656],[0,0,0,0],[9E9,9E9,9E9,9E9,9E9,9E9]], s_printSpeed, fine, tool0, \WObj:=ob_RRC_workplace;
        MoveL [[709.1, 592.7, 4.5],[0.6750, 0.2106, -0.2106, 0.6750],[0,0,0,0],[9E9,9E9,9E9,9E9,9E9,9E9]], s_printSpeed, fine, tool0, \WObj:=ob_RRC_workplace;
        MoveL [[711.0, 604.5, 5.4],[0.6824, 0.1852, -0.1852, 0.6824],[0,0,0,0],[9E9,9E9,9E9,9E9,9E9,9E9]], s_printSpeed, fine, tool0, \WObj:=ob_RRC_workplace;
        MoveL [[713.4, 616.2, 6.3],[0.6874, 0.1658, -0.1658, 0.6874],[0,0,0,0],[9E9,9E9,9E9,9E9,9E9,9E9]], s_printSpeed, fine, tool0, \WObj:=ob_RRC_workplace;
        MoveL [[712.5, 628.1, 7.3],[0.6910, 0.1502, -0.1502, 0.6910],[0,0,0,0],[9E9,9E9,9E9,9E9,9E9,9E9]], s_printSpeed, fine, tool0, \WObj:=ob_RRC_workplace;
        MoveL [[700.7, 630.2, 7.4],[0.6915, 0.1479, -0.1479, 0.6915],[0,0,0,0],[9E9,9E9,9E9,9E9,9E9,9E9]], s_printSpeed, fine, tool0, \WObj:=ob_RRC_workplace;
        MoveL [[688.9, 627.8, 7.2],[0.6909, 0.1506, -0.1506, 0.6909],[0,0,0,0],[9E9,9E9,9E9,9E9,9E9,9E9]], s_printSpeed, fine, tool0, \WObj:=ob_RRC_workplace;
        MoveL [[677.1, 625.7, 7.1],[0.6903, 0.1531, -0.1531, 0.6903],[0,0,0,0],[9E9,9E9,9E9,9E9,9E9,9E9]], s_printSpeed, fine, tool0, \WObj:=ob_RRC_workplace;
        MoveL [[666.1, 630.5, 7.4],[0.6915, 0.1475, -0.1475, 0.6915],[0,0,0,0],[9E9,9E9,9E9,9E9,9E9,9E9]], s_printSpeed, fine, tool0, \WObj:=ob_RRC_workplace;
        MoveL [[666.1, 642.5, 8.4],[0.6940, 0.1355, -0.1355, 0.6940],[0,0,0,0],[9E9,9E9,9E9,9E9,9E9,9E9]], s_printSpeed, fine, tool0, \WObj:=ob_RRC_workplace;
        MoveL [[668.3, 654.2, 9.3],[0.6958, 0.1258, -0.1258, 0.6958],[0,0,0,0],[9E9,9E9,9E9,9E9,9E9,9E9]], s_printSpeed, fine, tool0, \WObj:=ob_RRC_workplace;
        MoveL [[670.0, 666.1, 10.3],[0.6973, 0.1176, -0.1176, 0.6973],[0,0,0,0],[9E9,9E9,9E9,9E9,9E9,9E9]], s_printSpeed, fine, tool0, \WObj:=ob_RRC_workplace;
        MoveL [[661.8, 674.7, 10.9],[0.6981, 0.1125, -0.1125, 0.6981],[0,0,0,0],[9E9,9E9,9E9,9E9,9E9,9E9]], s_printSpeed, fine, tool0, \WObj:=ob_RRC_workplace;
        MoveL [[649.9, 673.0, 10.8],[0.6979, 0.1134, -0.1134, 0.6979],[0,0,0,0],[9E9,9E9,9E9,9E9,9E9,9E9]], s_printSpeed, fine, tool0, \WObj:=ob_RRC_workplace;
        MoveL [[638.1, 670.9, 10.6],[0.6977, 0.1147, -0.1147, 0.6977],[0,0,0,0],[9E9,9E9,9E9,9E9,9E9,9E9]], s_printSpeed, fine, tool0, \WObj:=ob_RRC_workplace;
        MoveL [[626.1, 670.1, 10.6],[0.6977, 0.1152, -0.1152, 0.6977],[0,0,0,0],[9E9,9E9,9E9,9E9,9E9,9E9]], s_printSpeed, fine, tool0, \WObj:=ob_RRC_workplace;
        MoveL [[614.2, 671.6, 10.7],[0.6978, 0.1143, -0.1143, 0.6978],[0,0,0,0],[9E9,9E9,9E9,9E9,9E9,9E9]], s_printSpeed, fine, tool0, \WObj:=ob_RRC_workplace;
        MoveL [[602.4, 669.3, 10.5],[0.6976, 0.1157, -0.1157, 0.6976],[0,0,0,0],[9E9,9E9,9E9,9E9,9E9,9E9]], s_printSpeed, fine, tool0, \WObj:=ob_RRC_workplace;
        MoveL [[602.9, 657.3, 9.6],[0.6962, 0.1235, -0.1235, 0.6962],[0,0,0,0],[9E9,9E9,9E9,9E9,9E9,9E9]], s_printSpeed, fine, tool0, \WObj:=ob_RRC_workplace;
        MoveL [[605.4, 645.6, 8.6],[0.6945, 0.1327, -0.1327, 0.6945],[0,0,0,0],[9E9,9E9,9E9,9E9,9E9,9E9]], s_printSpeed, fine, tool0, \WObj:=ob_RRC_workplace;
        MoveL [[606.9, 633.8, 7.7],[0.6923, 0.1440, -0.1440, 0.6923],[0,0,0,0],[9E9,9E9,9E9,9E9,9E9,9E9]], s_printSpeed, fine, tool0, \WObj:=ob_RRC_workplace;
        MoveL [[598.5, 625.3, 7.0],[0.6902, 0.1537, -0.1537, 0.6902],[0,0,0,0],[9E9,9E9,9E9,9E9,9E9,9E9]], s_printSpeed, fine, tool0, \WObj:=ob_RRC_workplace;
        MoveL [[586.6, 626.9, 7.2],[0.6907, 0.1517, -0.1517, 0.6907],[0,0,0,0],[9E9,9E9,9E9,9E9,9E9,9E9]], s_printSpeed, fine, tool0, \WObj:=ob_RRC_workplace;
        MoveL [[574.9, 629.5, 7.4],[0.6913, 0.1487, -0.1487, 0.6913],[0,0,0,0],[9E9,9E9,9E9,9E9,9E9,9E9]], s_printSpeed, fine, tool0, \WObj:=ob_RRC_workplace;
        MoveL [[562.9, 629.8, 7.4],[0.6914, 0.1484, -0.1484, 0.6914],[0,0,0,0],[9E9,9E9,9E9,9E9,9E9,9E9]], s_printSpeed, fine, tool0, \WObj:=ob_RRC_workplace;
        MoveL [[559.2, 618.4, 6.5],[0.6881, 0.1627, -0.1627, 0.6881],[0,0,0,0],[9E9,9E9,9E9,9E9,9E9,9E9]], s_printSpeed, fine, tool0, \WObj:=ob_RRC_workplace;
        MoveL [[561.5, 606.6, 5.6],[0.6835, 0.1813, -0.1813, 0.6835],[0,0,0,0],[9E9,9E9,9E9,9E9,9E9,9E9]], s_printSpeed, fine, tool0, \WObj:=ob_RRC_workplace;
        MoveL [[563.8, 594.9, 4.6],[0.6766, 0.2054, -0.2054, 0.6766],[0,0,0,0],[9E9,9E9,9E9,9E9,9E9,9E9]], s_printSpeed, fine, tool0, \WObj:=ob_RRC_workplace;
        MoveL [[560.3, 583.4, 3.7],[0.6664, 0.2364, -0.2364, 0.6664],[0,0,0,0],[9E9,9E9,9E9,9E9,9E9,9E9]], s_printSpeed, fine, tool0, \WObj:=ob_RRC_workplace;
        MoveL [[548.3, 583.2, 3.7],[0.6662, 0.2370, -0.2370, 0.6662],[0,0,0,0],[9E9,9E9,9E9,9E9,9E9,9E9]], s_printSpeed, fine, tool0, \WObj:=ob_RRC_workplace;
        MoveL [[536.6, 585.7, 3.9],[0.6688, 0.2296, -0.2296, 0.6688],[0,0,0,0],[9E9,9E9,9E9,9E9,9E9,9E9]], s_printSpeed, fine, tool0, \WObj:=ob_RRC_workplace;
        MoveL [[524.7, 587.4, 4.0],[0.6705, 0.2245, -0.2245, 0.6705],[0,0,0,0],[9E9,9E9,9E9,9E9,9E9,9E9]], s_printSpeed, fine, tool0, \WObj:=ob_RRC_workplace;
        MoveL [[515.8, 579.5, 3.4],[0.6617, 0.2494, -0.2494, 0.6617],[0,0,0,0],[9E9,9E9,9E9,9E9,9E9,9E9]], s_printSpeed, fine, tool0, \WObj:=ob_RRC_workplace;
        MoveL [[517.4, 567.6, 2.5],[-0.6415, -0.2975, -0.2975, 0.6415],[0,0,0,0],[9E9,9E9,9E9,9E9,9E9,9E9]], s_printSpeed, fine, tool0, \WObj:=ob_RRC_workplace;
        MoveL [[519.8, 555.9, 1.5],[-0.6076, -0.3617, -0.3617, 0.6076],[0,0,0,0],[9E9,9E9,9E9,9E9,9E9,9E9]], s_printSpeed, fine, tool0, \WObj:=ob_RRC_workplace;
        MoveL [[520.0, 543.9, 0.6],[-0.5498, -0.4446, -0.4446, 0.5498],[0,0,0,0],[9E9,9E9,9E9,9E9,9E9,9E9]], s_printSpeed, fine, tool0, \WObj:=ob_RRC_workplace;
        MoveL [[510.4, 536.8, 0.0],[-0.5021, -0.4979, -0.4979, 0.5021],[0,0,0,0],[9E9,9E9,9E9,9E9,9E9,9E9]], s_printSpeed, fine, tool0, \WObj:=ob_RRC_workplace;
        MoveL [[498.4, 537.1, 0.0],[-0.5044, -0.4956, -0.4956, 0.5044],[0,0,0,0],[9E9,9E9,9E9,9E9,9E9,9E9]], s_printSpeed, fine, tool0, \WObj:=ob_RRC_workplace;
        MoveL [[486.7, 539.6, 0.2],[-0.5218, -0.4772, -0.4772, 0.5218],[0,0,0,0],[9E9,9E9,9E9,9E9,9E9,9E9]], s_printSpeed, fine, tool0, \WObj:=ob_RRC_workplace;
        MoveL [[475.2, 543.1, 0.5],[-0.5451, -0.4504, -0.4504, 0.5451],[0,0,0,0],[9E9,9E9,9E9,9E9,9E9,9E9]], s_printSpeed, fine, tool0, \WObj:=ob_RRC_workplace;
    ! layer end
        MoveL [[788.7, 539.9, 0.3],[-0.5260, -0.4725, -0.4725, 0.5260],[0,0,0,0],[9E9,9E9,9E9,9E9,9E9,9E9]], s_printSpeed, fine, tool0, \WObj:=ob_RRC_workplace;
        MoveL [[777.0, 537.1, 0.1],[-0.5070, -0.4929, -0.4929, 0.5070],[0,0,0,0],[9E9,9E9,9E9,9E9,9E9,9E9]], s_printSpeed, fine, tool0, \WObj:=ob_RRC_workplace;
        MoveL [[765.0, 536.2, 0.0],[-0.5004, -0.4996, -0.4996, 0.5004],[0,0,0,0],[9E9,9E9,9E9,9E9,9E9,9E9]], s_printSpeed, fine, tool0, \WObj:=ob_RRC_workplace;
        MoveL [[754.1, 541.1, 0.4],[-0.5343, -0.4631, -0.4631, 0.5343],[0,0,0,0],[9E9,9E9,9E9,9E9,9E9,9E9]], s_printSpeed, fine, tool0, \WObj:=ob_RRC_workplace;
        MoveL [[752.9, 553.0, 1.5],[-0.5973, -0.3785, -0.3785, 0.5973],[0,0,0,0],[9E9,9E9,9E9,9E9,9E9,9E9]], s_printSpeed, fine, tool0, \WObj:=ob_RRC_workplace;
        MoveL [[755.2, 564.8, 2.5],[-0.6351, -0.3108, -0.3108, 0.6351],[0,0,0,0],[9E9,9E9,9E9,9E9,9E9,9E9]], s_printSpeed, fine, tool0, \WObj:=ob_RRC_workplace;
        MoveL [[757.2, 576.6, 3.6],[0.6575, 0.2602, -0.2602, 0.6575],[0,0,0,0],[9E9,9E9,9E9,9E9,9E9,9E9]], s_printSpeed, fine, tool0, \WObj:=ob_RRC_workplace;
        MoveL [[751.3, 587.0, 4.5],[0.6697, 0.2269, -0.2269, 0.6697],[0,0,0,0],[9E9,9E9,9E9,9E9,9E9,9E9]], s_printSpeed, fine, tool0, \WObj:=ob_RRC_workplace;
        MoveL [[739.3, 585.9, 4.4],[0.6687, 0.2298, -0.2298, 0.6687],[0,0,0,0],[9E9,9E9,9E9,9E9,9E9,9E9]], s_printSpeed, fine, tool0, \WObj:=ob_RRC_workplace;
        MoveL [[727.6, 583.4, 4.2],[0.6662, 0.2371, -0.2371, 0.6662],[0,0,0,0],[9E9,9E9,9E9,9E9,9E9,9E9]], s_printSpeed, fine, tool0, \WObj:=ob_RRC_workplace;
        MoveL [[715.6, 582.4, 4.1],[0.6649, 0.2405, -0.2405, 0.6649],[0,0,0,0],[9E9,9E9,9E9,9E9,9E9,9E9]], s_printSpeed, fine, tool0, \WObj:=ob_RRC_workplace;
        MoveL [[709.1, 592.4, 4.9],[0.6743, 0.2127, -0.2127, 0.6743],[0,0,0,0],[9E9,9E9,9E9,9E9,9E9,9E9]], s_printSpeed, fine, tool0, \WObj:=ob_RRC_workplace;
        MoveL [[711.0, 604.2, 6.0],[0.6818, 0.1875, -0.1875, 0.6818],[0,0,0,0],[9E9,9E9,9E9,9E9,9E9,9E9]], s_printSpeed, fine, tool0, \WObj:=ob_RRC_workplace;
        MoveL [[713.4, 615.9, 7.0],[0.6868, 0.1683, -0.1683, 0.6868],[0,0,0,0],[9E9,9E9,9E9,9E9,9E9,9E9]], s_printSpeed, fine, tool0, \WObj:=ob_RRC_workplace;
        MoveL [[712.5, 627.8, 8.1],[0.6904, 0.1528, -0.1528, 0.6904],[0,0,0,0],[9E9,9E9,9E9,9E9,9E9,9E9]], s_printSpeed, fine, tool0, \WObj:=ob_RRC_workplace;
        MoveL [[700.7, 629.8, 8.2],[0.6909, 0.1505, -0.1505, 0.6909],[0,0,0,0],[9E9,9E9,9E9,9E9,9E9,9E9]], s_printSpeed, fine, tool0, \WObj:=ob_RRC_workplace;
        MoveL [[688.9, 627.4, 8.0],[0.6903, 0.1532, -0.1532, 0.6903],[0,0,0,0],[9E9,9E9,9E9,9E9,9E9,9E9]], s_printSpeed, fine, tool0, \WObj:=ob_RRC_workplace;
        MoveL [[677.1, 625.4, 7.9],[0.6898, 0.1557, -0.1557, 0.6898],[0,0,0,0],[9E9,9E9,9E9,9E9,9E9,9E9]], s_printSpeed, fine, tool0, \WObj:=ob_RRC_workplace;
        MoveL [[666.1, 630.1, 8.3],[0.6910, 0.1502, -0.1502, 0.6910],[0,0,0,0],[9E9,9E9,9E9,9E9,9E9,9E9]], s_printSpeed, fine, tool0, \WObj:=ob_RRC_workplace;
        MoveL [[666.1, 642.1, 9.3],[0.6935, 0.1382, -0.1382, 0.6935],[0,0,0,0],[9E9,9E9,9E9,9E9,9E9,9E9]], s_printSpeed, fine, tool0, \WObj:=ob_RRC_workplace;
        MoveL [[668.3, 653.8, 10.4],[0.6953, 0.1286, -0.1286, 0.6953],[0,0,0,0],[9E9,9E9,9E9,9E9,9E9,9E9]], s_printSpeed, fine, tool0, \WObj:=ob_RRC_workplace;
        MoveL [[670.0, 665.7, 11.4],[0.6968, 0.1204, -0.1204, 0.6968],[0,0,0,0],[9E9,9E9,9E9,9E9,9E9,9E9]], s_printSpeed, fine, tool0, \WObj:=ob_RRC_workplace;
        MoveL [[661.8, 674.3, 12.2],[0.6976, 0.1153, -0.1153, 0.6976],[0,0,0,0],[9E9,9E9,9E9,9E9,9E9,9E9]], s_printSpeed, fine, tool0, \WObj:=ob_RRC_workplace;
        MoveL [[649.9, 672.6, 12.0],[0.6975, 0.1163, -0.1163, 0.6975],[0,0,0,0],[9E9,9E9,9E9,9E9,9E9,9E9]], s_printSpeed, fine, tool0, \WObj:=ob_RRC_workplace;
        MoveL [[638.1, 670.5, 11.8],[0.6973, 0.1175, -0.1175, 0.6973],[0,0,0,0],[9E9,9E9,9E9,9E9,9E9,9E9]], s_printSpeed, fine, tool0, \WObj:=ob_RRC_workplace;
        MoveL [[626.1, 669.7, 11.8],[0.6972, 0.1180, -0.1180, 0.6972],[0,0,0,0],[9E9,9E9,9E9,9E9,9E9,9E9]], s_printSpeed, fine, tool0, \WObj:=ob_RRC_workplace;
        MoveL [[614.2, 671.2, 11.9],[0.6973, 0.1171, -0.1171, 0.6973],[0,0,0,0],[9E9,9E9,9E9,9E9,9E9,9E9]], s_printSpeed, fine, tool0, \WObj:=ob_RRC_workplace;
        MoveL [[602.4, 668.9, 11.7],[0.6971, 0.1185, -0.1185, 0.6971],[0,0,0,0],[9E9,9E9,9E9,9E9,9E9,9E9]], s_printSpeed, fine, tool0, \WObj:=ob_RRC_workplace;
        MoveL [[602.9, 656.9, 10.6],[0.6957, 0.1263, -0.1263, 0.6957],[0,0,0,0],[9E9,9E9,9E9,9E9,9E9,9E9]], s_printSpeed, fine, tool0, \WObj:=ob_RRC_workplace;
        MoveL [[605.4, 645.2, 9.6],[0.6940, 0.1354, -0.1354, 0.6940],[0,0,0,0],[9E9,9E9,9E9,9E9,9E9,9E9]], s_printSpeed, fine, tool0, \WObj:=ob_RRC_workplace;
        MoveL [[606.9, 633.4, 8.6],[0.6917, 0.1467, -0.1467, 0.6917],[0,0,0,0],[9E9,9E9,9E9,9E9,9E9,9E9]], s_printSpeed, fine, tool0, \WObj:=ob_RRC_workplace;
        MoveL [[598.5, 624.9, 7.8],[0.6896, 0.1562, -0.1562, 0.6896],[0,0,0,0],[9E9,9E9,9E9,9E9,9E9,9E9]], s_printSpeed, fine, tool0, \WObj:=ob_RRC_workplace;
        MoveL [[586.6, 626.6, 8.0],[0.6901, 0.1542, -0.1542, 0.6901],[0,0,0,0],[9E9,9E9,9E9,9E9,9E9,9E9]], s_printSpeed, fine, tool0, \WObj:=ob_RRC_workplace;
        MoveL [[574.9, 629.1, 8.2],[0.6907, 0.1513, -0.1513, 0.6907],[0,0,0,0],[9E9,9E9,9E9,9E9,9E9,9E9]], s_printSpeed, fine, tool0, \WObj:=ob_RRC_workplace;
        MoveL [[562.9, 629.4, 8.2],[0.6908, 0.1510, -0.1510, 0.6908],[0,0,0,0],[9E9,9E9,9E9,9E9,9E9,9E9]], s_printSpeed, fine, tool0, \WObj:=ob_RRC_workplace;
        MoveL [[559.2, 618.0, 7.2],[0.6875, 0.1652, -0.1652, 0.6875],[0,0,0,0],[9E9,9E9,9E9,9E9,9E9,9E9]], s_printSpeed, fine, tool0, \WObj:=ob_RRC_workplace;
        MoveL [[561.5, 606.3, 6.2],[0.6828, 0.1837, -0.1837, 0.6828],[0,0,0,0],[9E9,9E9,9E9,9E9,9E9,9E9]], s_printSpeed, fine, tool0, \WObj:=ob_RRC_workplace;
        MoveL [[563.8, 594.5, 5.1],[0.6760, 0.2075, -0.2075, 0.6760],[0,0,0,0],[9E9,9E9,9E9,9E9,9E9,9E9]], s_printSpeed, fine, tool0, \WObj:=ob_RRC_workplace;
        MoveL [[560.3, 583.1, 4.1],[0.6658, 0.2383, -0.2383, 0.6658],[0,0,0,0],[9E9,9E9,9E9,9E9,9E9,9E9]], s_printSpeed, fine, tool0, \WObj:=ob_RRC_workplace;
        MoveL [[548.3, 582.9, 4.1],[0.6656, 0.2388, -0.2388, 0.6656],[0,0,0,0],[9E9,9E9,9E9,9E9,9E9,9E9]], s_printSpeed, fine, tool0, \WObj:=ob_RRC_workplace;
        MoveL [[536.6, 585.3, 4.3],[0.6681, 0.2316, -0.2316, 0.6681],[0,0,0,0],[9E9,9E9,9E9,9E9,9E9,9E9]], s_printSpeed, fine, tool0, \WObj:=ob_RRC_workplace;
        MoveL [[524.7, 587.1, 4.5],[0.6699, 0.2265, -0.2265, 0.6699],[0,0,0,0],[9E9,9E9,9E9,9E9,9E9,9E9]], s_printSpeed, fine, tool0, \WObj:=ob_RRC_workplace;
        MoveL [[515.8, 579.1, 3.8],[0.6610, 0.2512, -0.2512, 0.6610],[0,0,0,0],[9E9,9E9,9E9,9E9,9E9,9E9]], s_printSpeed, fine, tool0, \WObj:=ob_RRC_workplace;
        MoveL [[517.4, 567.3, 2.7],[-0.6409, -0.2988, -0.2988, 0.6409],[0,0,0,0],[9E9,9E9,9E9,9E9,9E9,9E9]], s_printSpeed, fine, tool0, \WObj:=ob_RRC_workplace;
        MoveL [[519.8, 555.6, 1.7],[-0.6072, -0.3624, -0.3624, 0.6072],[0,0,0,0],[9E9,9E9,9E9,9E9,9E9,9E9]], s_printSpeed, fine, tool0, \WObj:=ob_RRC_workplace;
        MoveL [[520.0, 543.6, 0.7],[-0.5497, -0.4448, -0.4448, 0.5497],[0,0,0,0],[9E9,9E9,9E9,9E9,9E9,9E9]], s_printSpeed, fine, tool0, \WObj:=ob_RRC_workplace;
        MoveL [[510.4, 536.5, 0.0],[-0.5021, -0.4979, -0.4979, 0.5021],[0,0,0,0],[9E9,9E9,9E9,9E9,9E9,9E9]], s_printSpeed, fine, tool0, \WObj:=ob_RRC_workplace;
        MoveL [[498.4, 536.8, 0.1],[-0.5044, -0.4956, -0.4956, 0.5044],[0,0,0,0],[9E9,9E9,9E9,9E9,9E9,9E9]], s_printSpeed, fine, tool0, \WObj:=ob_RRC_workplace;
        MoveL [[486.7, 539.3, 0.3],[-0.5218, -0.4772, -0.4772, 0.5218],[0,0,0,0],[9E9,9E9,9E9,9E9,9E9,9E9]], s_printSpeed, fine, tool0, \WObj:=ob_RRC_workplace;
        MoveL [[475.2, 542.8, 0.6],[-0.5450, -0.4505, -0.4505, 0.5450],[0,0,0,0],[9E9,9E9,9E9,9E9,9E9,9E9]], s_printSpeed, fine, tool0, \WObj:=ob_RRC_workplace;
    ! layer end
        MoveL [[788.7, 539.6, 0.4],[-0.5260, -0.4726, -0.4726, 0.5260],[0,0,0,0],[9E9,9E9,9E9,9E9,9E9,9E9]], s_printSpeed, fine, tool0, \WObj:=ob_RRC_workplace;
        MoveL [[777.0, 536.8, 0.1],[-0.5070, -0.4929, -0.4929, 0.5070],[0,0,0,0],[9E9,9E9,9E9,9E9,9E9,9E9]], s_printSpeed, fine, tool0, \WObj:=ob_RRC_workplace;
        MoveL [[765.0, 535.9, 0.0],[-0.5004, -0.4996, -0.4996, 0.5004],[0,0,0,0],[9E9,9E9,9E9,9E9,9E9,9E9]], s_printSpeed, fine, tool0, \WObj:=ob_RRC_workplace;
        MoveL [[754.1, 540.8, 0.5],[-0.5343, -0.4632, -0.4632, 0.5343],[0,0,0,0],[9E9,9E9,9E9,9E9,9E9,9E9]], s_printSpeed, fine, tool0, \WObj:=ob_RRC_workplace;
        MoveL [[752.9, 552.7, 1.6],[-0.5969, -0.3791, -0.3791, 0.5969],[0,0,0,0],[9E9,9E9,9E9,9E9,9E9,9E9]], s_printSpeed, fine, tool0, \WObj:=ob_RRC_workplace;
        MoveL [[755.2, 564.5, 2.8],[-0.6346, -0.3120, -0.3120, 0.6346],[0,0,0,0],[9E9,9E9,9E9,9E9,9E9,9E9]], s_printSpeed, fine, tool0, \WObj:=ob_RRC_workplace;
        MoveL [[757.2, 576.2, 3.9],[0.6568, 0.2619, -0.2619, 0.6568],[0,0,0,0],[9E9,9E9,9E9,9E9,9E9,9E9]], s_printSpeed, fine, tool0, \WObj:=ob_RRC_workplace;
        MoveL [[751.3, 586.6, 4.9],[0.6690, 0.2289, -0.2289, 0.6690],[0,0,0,0],[9E9,9E9,9E9,9E9,9E9,9E9]], s_printSpeed, fine, tool0, \WObj:=ob_RRC_workplace;
        MoveL [[739.3, 585.6, 4.8],[0.6680, 0.2318, -0.2318, 0.6680],[0,0,0,0],[9E9,9E9,9E9,9E9,9E9,9E9]], s_printSpeed, fine, tool0, \WObj:=ob_RRC_workplace;
        MoveL [[727.6, 583.1, 4.6],[0.6655, 0.2390, -0.2390, 0.6655],[0,0,0,0],[9E9,9E9,9E9,9E9,9E9,9E9]], s_printSpeed, fine, tool0, \WObj:=ob_RRC_workplace;
        MoveL [[715.6, 582.0, 4.5],[0.6643, 0.2424, -0.2424, 0.6643],[0,0,0,0],[9E9,9E9,9E9,9E9,9E9,9E9]], s_printSpeed, fine, tool0, \WObj:=ob_RRC_workplace;
        MoveL [[709.1, 592.0, 5.4],[0.6737, 0.2149, -0.2149, 0.6737],[0,0,0,0],[9E9,9E9,9E9,9E9,9E9,9E9]], s_printSpeed, fine, tool0, \WObj:=ob_RRC_workplace;
        MoveL [[711.0, 603.8, 6.6],[0.6811, 0.1899, -0.1899, 0.6811],[0,0,0,0],[9E9,9E9,9E9,9E9,9E9,9E9]], s_printSpeed, fine, tool0, \WObj:=ob_RRC_workplace;
        MoveL [[713.4, 615.5, 7.7],[0.6862, 0.1708, -0.1708, 0.6862],[0,0,0,0],[9E9,9E9,9E9,9E9,9E9,9E9]], s_printSpeed, fine, tool0, \WObj:=ob_RRC_workplace;
        MoveL [[712.5, 627.4, 8.9],[0.6898, 0.1554, -0.1554, 0.6898],[0,0,0,0],[9E9,9E9,9E9,9E9,9E9,9E9]], s_printSpeed, fine, tool0, \WObj:=ob_RRC_workplace;
        MoveL [[700.7, 629.4, 9.1],[0.6903, 0.1531, -0.1531, 0.6903],[0,0,0,0],[9E9,9E9,9E9,9E9,9E9,9E9]], s_printSpeed, fine, tool0, \WObj:=ob_RRC_workplace;
        MoveL [[688.9, 627.1, 8.8],[0.6897, 0.1558, -0.1558, 0.6897],[0,0,0,0],[9E9,9E9,9E9,9E9,9E9,9E9]], s_printSpeed, fine, tool0, \WObj:=ob_RRC_workplace;
        MoveL [[677.1, 625.0, 8.6],[0.6892, 0.1582, -0.1582, 0.6892],[0,0,0,0],[9E9,9E9,9E9,9E9,9E9,9E9]], s_printSpeed, fine, tool0, \WObj:=ob_RRC_workplace;
        MoveL [[666.1, 629.8, 9.1],[0.6904, 0.1528, -0.1528, 0.6904],[0,0,0,0],[9E9,9E9,9E9,9E9,9E9,9E9]], s_printSpeed, fine, tool0, \WObj:=ob_RRC_workplace;
        MoveL [[666.1, 641.7, 10.3],[0.6929, 0.1409, -0.1409, 0.6929],[0,0,0,0],[9E9,9E9,9E9,9E9,9E9,9E9]], s_printSpeed, fine, tool0, \WObj:=ob_RRC_workplace;
        MoveL [[668.3, 653.4, 11.4],[0.6948, 0.1313, -0.1313, 0.6948],[0,0,0,0],[9E9,9E9,9E9,9E9,9E9,9E9]], s_printSpeed, fine, tool0, \WObj:=ob_RRC_workplace;
        MoveL [[670.0, 665.3, 12.5],[0.6963, 0.1232, -0.1232, 0.6963],[0,0,0,0],[9E9,9E9,9E9,9E9,9E9,9E9]], s_printSpeed, fine, tool0, \WObj:=ob_RRC_workplace;
        MoveL [[661.8, 673.9, 13.4],[0.6972, 0.1181, -0.1181, 0.6972],[0,0,0,0],[9E9,9E9,9E9,9E9,9E9,9E9]], s_printSpeed, fine, tool0, \WObj:=ob_RRC_workplace;
        MoveL [[649.9, 672.2, 13.2],[0.6970, 0.1191, -0.1191, 0.6970],[0,0,0,0],[9E9,9E9,9E9,9E9,9E9,9E9]], s_printSpeed, fine, tool0, \WObj:=ob_RRC_workplace;
        MoveL [[638.1, 670.1, 13.0],[0.6968, 0.1203, -0.1203, 0.6968],[0,0,0,0],[9E9,9E9,9E9,9E9,9E9,9E9]], s_printSpeed, fine, tool0, \WObj:=ob_RRC_workplace;
        MoveL [[626.1, 669.3, 12.9],[0.6967, 0.1208, -0.1208, 0.6967],[0,0,0,0],[9E9,9E9,9E9,9E9,9E9,9E9]], s_printSpeed, fine, tool0, \WObj:=ob_RRC_workplace;
        MoveL [[614.2, 670.8, 13.1],[0.6969, 0.1199, -0.1199, 0.6969],[0,0,0,0],[9E9,9E9,9E9,9E9,9E9,9E9]], s_printSpeed, fine, tool0, \WObj:=ob_RRC_workplace;
        MoveL [[602.4, 668.5, 12.8],[0.6966, 0.1213, -0.1213, 0.6966],[0,0,0,0],[9E9,9E9,9E9,9E9,9E9,9E9]], s_printSpeed, fine, tool0, \WObj:=ob_RRC_workplace;
        MoveL [[602.9, 656.5, 11.7],[0.6952, 0.1291, -0.1291, 0.6952],[0,0,0,0],[9E9,9E9,9E9,9E9,9E9,9E9]], s_printSpeed, fine, tool0, \WObj:=ob_RRC_workplace;
        MoveL [[605.4, 644.9, 10.6],[0.6935, 0.1382, -0.1382, 0.6935],[0,0,0,0],[9E9,9E9,9E9,9E9,9E9,9E9]], s_printSpeed, fine, tool0, \WObj:=ob_RRC_workplace;
        MoveL [[606.9, 633.0, 9.4],[0.6912, 0.1493, -0.1493, 0.6912],[0,0,0,0],[9E9,9E9,9E9,9E9,9E9,9E9]], s_printSpeed, fine, tool0, \WObj:=ob_RRC_workplace;
        MoveL [[598.5, 624.5, 8.6],[0.6890, 0.1588, -0.1588, 0.6890],[0,0,0,0],[9E9,9E9,9E9,9E9,9E9,9E9]], s_printSpeed, fine, tool0, \WObj:=ob_RRC_workplace;
        MoveL [[586.6, 626.2, 8.8],[0.6895, 0.1568, -0.1568, 0.6895],[0,0,0,0],[9E9,9E9,9E9,9E9,9E9,9E9]], s_printSpeed, fine, tool0, \WObj:=ob_RRC_workplace;
        MoveL [[574.9, 628.8, 9.0],[0.6902, 0.1539, -0.1539, 0.6902],[0,0,0,0],[9E9,9E9,9E9,9E9,9E9,9E9]], s_printSpeed, fine, tool0, \WObj:=ob_RRC_workplace;
        MoveL [[562.9, 629.0, 9.0],[0.6902, 0.1536, -0.1536, 0.6902],[0,0,0,0],[9E9,9E9,9E9,9E9,9E9,9E9]], s_printSpeed, fine, tool0, \WObj:=ob_RRC_workplace;
        MoveL [[559.2, 617.6, 7.9],[0.6869, 0.1677, -0.1677, 0.6869],[0,0,0,0],[9E9,9E9,9E9,9E9,9E9,9E9]], s_printSpeed, fine, tool0, \WObj:=ob_RRC_workplace;
        MoveL [[561.5, 605.9, 6.8],[0.6822, 0.1860, -0.1860, 0.6822],[0,0,0,0],[9E9,9E9,9E9,9E9,9E9,9E9]], s_printSpeed, fine, tool0, \WObj:=ob_RRC_workplace;
        MoveL [[563.8, 594.2, 5.7],[0.6753, 0.2097, -0.2097, 0.6753],[0,0,0,0],[9E9,9E9,9E9,9E9,9E9,9E9]], s_printSpeed, fine, tool0, \WObj:=ob_RRC_workplace;
        MoveL [[560.3, 582.7, 4.5],[0.6651, 0.2401, -0.2401, 0.6651],[0,0,0,0],[9E9,9E9,9E9,9E9,9E9,9E9]], s_printSpeed, fine, tool0, \WObj:=ob_RRC_workplace;
        MoveL [[548.3, 582.6, 4.5],[0.6649, 0.2407, -0.2407, 0.6649],[0,0,0,0],[9E9,9E9,9E9,9E9,9E9,9E9]], s_printSpeed, fine, tool0, \WObj:=ob_RRC_workplace;
        MoveL [[536.6, 585.0, 4.8],[0.6674, 0.2335, -0.2335, 0.6674],[0,0,0,0],[9E9,9E9,9E9,9E9,9E9,9E9]], s_printSpeed, fine, tool0, \WObj:=ob_RRC_workplace;
        MoveL [[524.7, 586.8, 4.9],[0.6692, 0.2285, -0.2285, 0.6692],[0,0,0,0],[9E9,9E9,9E9,9E9,9E9,9E9]], s_printSpeed, fine, tool0, \WObj:=ob_RRC_workplace;
        MoveL [[515.8, 578.8, 4.2],[0.6603, 0.2529, -0.2529, 0.6603],[0,0,0,0],[9E9,9E9,9E9,9E9,9E9,9E9]], s_printSpeed, fine, tool0, \WObj:=ob_RRC_workplace;
        MoveL [[517.4, 566.9, 3.0],[-0.6403, -0.3001, -0.3001, 0.6403],[0,0,0,0],[9E9,9E9,9E9,9E9,9E9,9E9]], s_printSpeed, fine, tool0, \WObj:=ob_RRC_workplace;
        MoveL [[519.8, 555.2, 1.9],[-0.6067, -0.3631, -0.3631, 0.6067],[0,0,0,0],[9E9,9E9,9E9,9E9,9E9,9E9]], s_printSpeed, fine, tool0, \WObj:=ob_RRC_workplace;
        MoveL [[520.0, 543.3, 0.7],[-0.5496, -0.4449, -0.4449, 0.5496],[0,0,0,0],[9E9,9E9,9E9,9E9,9E9,9E9]], s_printSpeed, fine, tool0, \WObj:=ob_RRC_workplace;
        MoveL [[510.4, 536.2, 0.0],[-0.5021, -0.4979, -0.4979, 0.5021],[0,0,0,0],[9E9,9E9,9E9,9E9,9E9,9E9]], s_printSpeed, fine, tool0, \WObj:=ob_RRC_workplace;
        MoveL [[498.4, 536.5, 0.1],[-0.5044, -0.4956, -0.4956, 0.5044],[0,0,0,0],[9E9,9E9,9E9,9E9,9E9,9E9]], s_printSpeed, fine, tool0, \WObj:=ob_RRC_workplace;
        MoveL [[486.7, 538.9, 0.3],[-0.5218, -0.4772, -0.4772, 0.5218],[0,0,0,0],[9E9,9E9,9E9,9E9,9E9,9E9]], s_printSpeed, fine, tool0, \WObj:=ob_RRC_workplace;
        MoveL [[475.2, 542.5, 0.6],[-0.5449, -0.4506, -0.4506, 0.5449],[0,0,0,0],[9E9,9E9,9E9,9E9,9E9,9E9]], s_printSpeed, fine, tool0, \WObj:=ob_RRC_workplace;
    ! layer end
        MoveL [[788.7, 539.3, 0.4],[-0.5260, -0.4726, -0.4726, 0.5260],[0,0,0,0],[9E9,9E9,9E9,9E9,9E9,9E9]], s_printSpeed, fine, tool0, \WObj:=ob_RRC_workplace;
        MoveL [[777.0, 536.5, 0.1],[-0.5070, -0.4929, -0.4929, 0.5070],[0,0,0,0],[9E9,9E9,9E9,9E9,9E9,9E9]], s_printSpeed, fine, tool0, \WObj:=ob_RRC_workplace;
        MoveL [[765.0, 535.6, 0.0],[-0.5004, -0.4996, -0.4996, 0.5004],[0,0,0,0],[9E9,9E9,9E9,9E9,9E9,9E9]], s_printSpeed, fine, tool0, \WObj:=ob_RRC_workplace;
        MoveL [[754.1, 540.5, 0.5],[-0.5342, -0.4633, -0.4633, 0.5342],[0,0,0,0],[9E9,9E9,9E9,9E9,9E9,9E9]], s_printSpeed, fine, tool0, \WObj:=ob_RRC_workplace;
        MoveL [[752.9, 552.4, 1.8],[-0.5965, -0.3797, -0.3797, 0.5965],[0,0,0,0],[9E9,9E9,9E9,9E9,9E9,9E9]], s_printSpeed, fine, tool0, \WObj:=ob_RRC_workplace;
        MoveL [[755.2, 564.1, 3.0],[-0.6340, -0.3132, -0.3132, 0.6340],[0,0,0,0],[9E9,9E9,9E9,9E9,9E9,9E9]], s_printSpeed, fine, tool0, \WObj:=ob_RRC_workplace;
        MoveL [[757.2, 575.9, 4.3],[0.6562, 0.2635, -0.2635, 0.6562],[0,0,0,0],[9E9,9E9,9E9,9E9,9E9,9E9]], s_printSpeed, fine, tool0, \WObj:=ob_RRC_workplace;
        MoveL [[751.3, 586.3, 5.4],[0.6684, 0.2308, -0.2308, 0.6684],[0,0,0,0],[9E9,9E9,9E9,9E9,9E9,9E9]], s_printSpeed, fine, tool0, \WObj:=ob_RRC_workplace;
        MoveL [[739.3, 585.2, 5.3],[0.6674, 0.2337, -0.2337, 0.6674],[0,0,0,0],[9E9,9E9,9E9,9E9,9E9,9E9]], s_printSpeed, fine, tool0, \WObj:=ob_RRC_workplace;
        MoveL [[727.6, 582.8, 5.0],[0.6648, 0.2409, -0.2409, 0.6648],[0,0,0,0],[9E9,9E9,9E9,9E9,9E9,9E9]], s_printSpeed, fine, tool0, \WObj:=ob_RRC_workplace;
        MoveL [[715.6, 581.7, 4.9],[0.6636, 0.2442, -0.2442, 0.6636],[0,0,0,0],[9E9,9E9,9E9,9E9,9E9,9E9]], s_printSpeed, fine, tool0, \WObj:=ob_RRC_workplace;
        MoveL [[709.1, 591.7, 5.9],[0.6730, 0.2170, -0.2170, 0.6730],[0,0,0,0],[9E9,9E9,9E9,9E9,9E9,9E9]], s_printSpeed, fine, tool0, \WObj:=ob_RRC_workplace;
        MoveL [[711.0, 603.4, 7.2],[0.6805, 0.1922, -0.1922, 0.6805],[0,0,0,0],[9E9,9E9,9E9,9E9,9E9,9E9]], s_printSpeed, fine, tool0, \WObj:=ob_RRC_workplace;
        MoveL [[713.4, 615.1, 8.4],[0.6856, 0.1732, -0.1732, 0.6856],[0,0,0,0],[9E9,9E9,9E9,9E9,9E9,9E9]], s_printSpeed, fine, tool0, \WObj:=ob_RRC_workplace;
        MoveL [[712.5, 627.0, 9.7],[0.6892, 0.1580, -0.1580, 0.6892],[0,0,0,0],[9E9,9E9,9E9,9E9,9E9,9E9]], s_printSpeed, fine, tool0, \WObj:=ob_RRC_workplace;
        MoveL [[700.7, 629.0, 9.9],[0.6897, 0.1557, -0.1557, 0.6897],[0,0,0,0],[9E9,9E9,9E9,9E9,9E9,9E9]], s_printSpeed, fine, tool0, \WObj:=ob_RRC_workplace;
